; generated by Slic3r 1.1.7 on 2015-02-15 at 13:08:29

; perimeters extrusion width = 0.50mm
; infill extrusion width = 1.98mm
; solid infill extrusion width = 0.85mm
; top infill extrusion width = 0.85mm

G21 ; set units to millimeters
M107
M190 S65 ; wait for bed temperature to be reached
M104 S180 ; set temperature
G28 Z0
M83
M109 S180 ; wait for temperature to be reached
G90 ; use absolute coordinates
M83 ; use relative distances for extrusion
G1 F3600.000 E-2.40000
G1 Z0.200 F600.000
G1 X67.235 Y119.664 F600.000
G1 E2.40000 F3600.000
G1 X125.623 Y64.858 E4.28850 F1117.782
G1 X127.115 Y63.998 E0.09222
G1 X128.194 Y63.840 E0.05840
G1 X130.194 Y63.840 E0.10710
G1 X131.870 Y64.235 E0.09222
G1 X132.851 Y64.940 E0.06469
G1 X136.851 Y68.940 E0.30294
G1 X137.757 Y70.405 E0.09222
G1 X137.951 Y71.597 E0.06469
G1 X137.951 Y73.597 E0.10710
G1 X137.556 Y75.273 E0.09222
G1 X136.851 Y76.254 E0.06469
G1 X132.765 Y80.336 E0.30930
G1 X74.377 Y135.142 E4.28850
G1 X72.885 Y136.002 E0.09222
G1 X71.806 Y136.160 E0.05840
G1 X69.806 Y136.160 E0.10710
G1 X68.130 Y135.765 E0.09222
G1 X67.149 Y135.060 E0.06469
G1 X63.149 Y131.060 E0.30294
G1 X62.243 Y129.595 E0.09222
G1 X62.049 Y128.403 E0.06469
G1 X62.049 Y126.403 E0.10710
G1 X62.444 Y124.727 E0.09222
G1 X63.149 Y123.746 E0.06469
G1 X67.182 Y119.717 E0.30529
G1 F3600.000 E-2.40000
G1 X71.406 Y128.003 F600.000
G1 E2.40000 F3600.000
G1 X71.406 Y132.003 E0.21421 F1257.505
G1 X70.206 Y132.003 E0.06426
G1 X70.206 Y128.003 E0.21421
G1 X66.206 Y128.003 E0.21421
G1 X66.206 Y126.803 E0.06426
G1 X70.206 Y126.803 E0.21421
G1 X70.206 Y122.803 E0.21421
G1 X71.406 Y122.803 E0.06426
G1 X71.406 Y126.803 E0.21421
G1 X75.406 Y126.803 E0.21421
G1 X75.406 Y128.003 E0.06426
G1 X71.481 Y128.003 E0.21019
G1 F3600.000 E-2.40000
G1 X129.794 Y73.197 F600.000
G1 E2.40000 F3600.000
G1 X129.794 Y77.197 E0.21421 F1257.505
G1 X128.594 Y77.197 E0.06426
G1 X128.594 Y73.197 E0.21421
G1 X124.594 Y73.197 E0.21421
G1 X124.594 Y71.997 E0.06426
G1 X128.594 Y71.997 E0.21421
G1 X128.594 Y67.997 E0.21421
G1 X129.794 Y67.997 E0.06426
G1 X129.794 Y71.997 E0.21421
G1 X133.794 Y71.997 E0.21421
G1 X133.794 Y73.197 E0.06426
G1 X129.869 Y73.197 E0.21019
M104 S170 ; set temperature
G1 F3600.000 E-2.40000
G1 Z0.300 F600.000
G1 X71.556 Y128.153 F600.000
G1 E2.40000 F3600.000
G1 X71.556 Y132.153 E0.07074 F600.000
G1 X70.056 Y132.153 E0.02653
G1 X70.056 Y128.153 E0.07074
G1 X66.056 Y128.153 E0.07074
G1 X66.056 Y126.653 E0.02653
G1 X70.056 Y126.653 E0.07074
G1 X70.056 Y122.653 E0.07074
G1 X71.556 Y122.653 E0.02653
G1 X71.556 Y126.653 E0.07074
G1 X75.556 Y126.653 E0.07074
G1 X75.556 Y128.153 E0.02653
G1 X71.631 Y128.153 E0.06941
G1 X70.728 Y129.245 F600.000
G1 X70.884 Y129.089 E0.00648 F600.000
G1 X70.884 Y130.265 E0.03446
G1 X70.728 Y130.422 E0.00648
G1 X70.884 Y131.441 E0.03023
G1 X70.844 Y131.481 E0.00166
G1 F3600.000 E-2.40000
G1 X69.120 Y127.325 F600.000
G1 E2.40000 F3600.000
G1 X68.964 Y127.481 E0.00648 F600.000
G1 X67.944 Y127.325 E0.03023
G1 X67.787 Y127.481 E0.00648
G1 X66.768 Y127.325 E0.03023
G1 X66.728 Y127.365 E0.00166
G1 F3600.000 E-2.40000
G1 X70.768 Y123.325 F600.000
G1 E2.40000 F3600.000
G1 X70.728 Y123.365 E0.00166 F600.000
G1 X70.884 Y124.384 E0.03023
G1 X70.728 Y124.541 E0.00648
G1 X70.884 Y125.561 E0.03023
G1 X70.728 Y125.717 E0.00648
G1 X70.884 Y126.737 E0.03023
G1 X70.140 Y127.481 E0.03085
G1 X70.728 Y128.069 E0.02437
G1 X71.472 Y127.325 E0.03085
G1 X72.492 Y127.481 E0.03023
G1 X72.648 Y127.325 E0.00648
G1 X73.668 Y127.481 E0.03023
G1 X73.825 Y127.325 E0.00648
G1 X74.844 Y127.481 E0.03023
G1 X74.884 Y127.441 E0.00166
G1 F3600.000 E-2.40000
G1 X129.944 Y73.347 F600.000
G1 E2.40000 F3600.000
G1 X129.944 Y77.347 E0.07074 F600.000
G1 X128.444 Y77.347 E0.02653
G1 X128.444 Y73.347 E0.07074
G1 X124.444 Y73.347 E0.07074
G1 X124.444 Y71.847 E0.02653
G1 X128.444 Y71.847 E0.07074
G1 X128.444 Y67.847 E0.07074
G1 X129.944 Y67.847 E0.02653
G1 X129.944 Y71.847 E0.07074
G1 X133.944 Y71.847 E0.07074
G1 X133.944 Y73.347 E0.02653
G1 X130.019 Y73.347 E0.06941
G1 X129.116 Y74.439 F600.000
G1 X129.272 Y74.283 E0.00648 F600.000
G1 X129.272 Y75.459 E0.03446
G1 X129.116 Y75.616 E0.00648
G1 X129.272 Y76.635 E0.03023
G1 X129.232 Y76.675 E0.00166
G1 F3600.000 E-2.40000
G1 X127.508 Y72.519 F600.000
G1 E2.40000 F3600.000
G1 X127.352 Y72.675 E0.00648 F600.000
G1 X126.332 Y72.519 E0.03023
G1 X126.175 Y72.675 E0.00648
G1 X125.156 Y72.519 E0.03023
G1 X125.116 Y72.559 E0.00166
G1 F3600.000 E-2.40000
G1 X129.156 Y68.519 F600.000
G1 E2.40000 F3600.000
G1 X129.116 Y68.559 E0.00166 F600.000
G1 X129.272 Y69.578 E0.03023
G1 X129.116 Y69.735 E0.00648
G1 X129.272 Y70.755 E0.03023
G1 X129.116 Y70.911 E0.00648
G1 X129.272 Y71.931 E0.03023
G1 X128.528 Y72.675 E0.03085
G1 X129.116 Y73.263 E0.02437
G1 X129.860 Y72.519 E0.03085
G1 X130.880 Y72.675 E0.03023
G1 X131.036 Y72.519 E0.00648
G1 X132.056 Y72.675 E0.03023
G1 X132.213 Y72.519 E0.00648
G1 X133.232 Y72.675 E0.03023
G1 X133.272 Y72.635 E0.00166
G1 F3600.000 E-2.40000
G1 Z0.400 F600.000
G1 X71.556 Y128.153 F600.000
G1 E2.40000 F3600.000
G1 X71.556 Y132.153 E0.07074 F600.000
G1 X70.056 Y132.153 E0.02653
G1 X70.056 Y128.153 E0.07074
G1 X66.056 Y128.153 E0.07074
G1 X66.056 Y126.653 E0.02653
G1 X70.056 Y126.653 E0.07074
G1 X70.056 Y122.653 E0.07074
G1 X71.556 Y122.653 E0.02653
G1 X71.556 Y126.653 E0.07074
G1 X75.556 Y126.653 E0.07074
G1 X75.556 Y128.153 E0.02653
G1 X71.631 Y128.153 E0.06941
G1 F3600.000 E-2.40000
G1 X129.944 Y73.347 F600.000
G1 E2.40000 F3600.000
G1 X129.944 Y77.347 E0.07074 F600.000
G1 X128.444 Y77.347 E0.02653
G1 X128.444 Y73.347 E0.07074
G1 X124.444 Y73.347 E0.07074
G1 X124.444 Y71.847 E0.02653
G1 X128.444 Y71.847 E0.07074
G1 X128.444 Y67.847 E0.07074
G1 X129.944 Y67.847 E0.02653
G1 X129.944 Y71.847 E0.07074
G1 X133.944 Y71.847 E0.07074
G1 X133.944 Y73.347 E0.02653
G1 X130.019 Y73.347 E0.06941
M106 S255
G1 F3600.000 E-2.40000
G1 Z0.500 F600.000
G1 X71.556 Y128.153 F600.000
G1 E2.40000 F3600.000
G1 X71.556 Y132.153 E0.07074 F600.000
G1 X70.056 Y132.153 E0.02653
G1 X70.056 Y128.153 E0.07074
G1 X66.056 Y128.153 E0.07074
G1 X66.056 Y126.653 E0.02653
G1 X70.056 Y126.653 E0.07074
G1 X70.056 Y122.653 E0.07074
G1 X71.556 Y122.653 E0.02653
G1 X71.556 Y126.653 E0.07074
G1 X75.556 Y126.653 E0.07074
G1 X75.556 Y128.153 E0.02653
G1 X71.631 Y128.153 E0.06941
G1 F3600.000 E-2.40000
G1 X129.944 Y73.347 F600.000
G1 E2.40000 F3600.000
G1 X129.944 Y77.347 E0.07074 F600.000
G1 X128.444 Y77.347 E0.02653
G1 X128.444 Y73.347 E0.07074
G1 X124.444 Y73.347 E0.07074
G1 X124.444 Y71.847 E0.02653
G1 X128.444 Y71.847 E0.07074
G1 X128.444 Y67.847 E0.07074
G1 X129.944 Y67.847 E0.02653
G1 X129.944 Y71.847 E0.07074
G1 X133.944 Y71.847 E0.07074
G1 X133.944 Y73.347 E0.02653
G1 X130.019 Y73.347 E0.06941
G1 F3600.000 E-2.40000
G1 Z0.600 F600.000
G1 X71.556 Y128.153 F600.000
G1 E2.40000 F3600.000
G1 X71.556 Y132.153 E0.07074 F600.000
G1 X70.056 Y132.153 E0.02653
G1 X70.056 Y128.153 E0.07074
G1 X66.056 Y128.153 E0.07074
G1 X66.056 Y126.653 E0.02653
G1 X70.056 Y126.653 E0.07074
G1 X70.056 Y122.653 E0.07074
G1 X71.556 Y122.653 E0.02653
G1 X71.556 Y126.653 E0.07074
G1 X75.556 Y126.653 E0.07074
G1 X75.556 Y128.153 E0.02653
G1 X71.631 Y128.153 E0.06941
G1 F3600.000 E-2.40000
G1 X129.944 Y73.347 F600.000
G1 E2.40000 F3600.000
G1 X129.944 Y77.347 E0.07074 F600.000
G1 X128.444 Y77.347 E0.02653
G1 X128.444 Y73.347 E0.07074
G1 X124.444 Y73.347 E0.07074
G1 X124.444 Y71.847 E0.02653
G1 X128.444 Y71.847 E0.07074
G1 X128.444 Y67.847 E0.07074
G1 X129.944 Y67.847 E0.02653
G1 X129.944 Y71.847 E0.07074
G1 X133.944 Y71.847 E0.07074
G1 X133.944 Y73.347 E0.02653
G1 X130.019 Y73.347 E0.06941
G1 F3600.000 E-2.40000
G1 Z0.700 F600.000
G1 X71.556 Y128.153 F600.000
G1 E2.40000 F3600.000
G1 X71.556 Y132.153 E0.07074 F600.000
G1 X70.056 Y132.153 E0.02653
G1 X70.056 Y128.153 E0.07074
G1 X66.056 Y128.153 E0.07074
G1 X66.056 Y126.653 E0.02653
G1 X70.056 Y126.653 E0.07074
G1 X70.056 Y122.653 E0.07074
G1 X71.556 Y122.653 E0.02653
G1 X71.556 Y126.653 E0.07074
G1 X75.556 Y126.653 E0.07074
G1 X75.556 Y128.153 E0.02653
G1 X71.631 Y128.153 E0.06941
G1 F3600.000 E-2.40000
G1 X129.944 Y73.347 F600.000
G1 E2.40000 F3600.000
G1 X129.944 Y77.347 E0.07074 F600.000
G1 X128.444 Y77.347 E0.02653
G1 X128.444 Y73.347 E0.07074
G1 X124.444 Y73.347 E0.07074
G1 X124.444 Y71.847 E0.02653
G1 X128.444 Y71.847 E0.07074
G1 X128.444 Y67.847 E0.07074
G1 X129.944 Y67.847 E0.02653
G1 X129.944 Y71.847 E0.07074
G1 X133.944 Y71.847 E0.07074
G1 X133.944 Y73.347 E0.02653
G1 X130.019 Y73.347 E0.06941
G1 F3600.000 E-2.40000
G1 Z0.800 F600.000
G1 X71.556 Y128.153 F600.000
G1 E2.40000 F3600.000
G1 X71.556 Y132.153 E0.07074 F600.000
G1 X70.056 Y132.153 E0.02653
G1 X70.056 Y128.153 E0.07074
G1 X66.056 Y128.153 E0.07074
G1 X66.056 Y126.653 E0.02653
G1 X70.056 Y126.653 E0.07074
G1 X70.056 Y122.653 E0.07074
G1 X71.556 Y122.653 E0.02653
G1 X71.556 Y126.653 E0.07074
G1 X75.556 Y126.653 E0.07074
G1 X75.556 Y128.153 E0.02653
G1 X71.631 Y128.153 E0.06941
G1 F3600.000 E-2.40000
G1 X129.944 Y73.347 F600.000
G1 E2.40000 F3600.000
G1 X129.944 Y77.347 E0.07074 F600.000
G1 X128.444 Y77.347 E0.02653
G1 X128.444 Y73.347 E0.07074
G1 X124.444 Y73.347 E0.07074
G1 X124.444 Y71.847 E0.02653
G1 X128.444 Y71.847 E0.07074
G1 X128.444 Y67.847 E0.07074
G1 X129.944 Y67.847 E0.02653
G1 X129.944 Y71.847 E0.07074
G1 X133.944 Y71.847 E0.07074
G1 X133.944 Y73.347 E0.02653
G1 X130.019 Y73.347 E0.06941
G1 F3600.000 E-2.40000
G1 Z0.900 F600.000
G1 X71.556 Y128.153 F600.000
G1 E2.40000 F3600.000
G1 X71.556 Y132.153 E0.07074 F600.000
G1 X70.056 Y132.153 E0.02653
G1 X70.056 Y128.153 E0.07074
G1 X66.056 Y128.153 E0.07074
G1 X66.056 Y126.653 E0.02653
G1 X70.056 Y126.653 E0.07074
G1 X70.056 Y122.653 E0.07074
G1 X71.556 Y122.653 E0.02653
G1 X71.556 Y126.653 E0.07074
G1 X75.556 Y126.653 E0.07074
G1 X75.556 Y128.153 E0.02653
G1 X71.631 Y128.153 E0.06941
G1 F3600.000 E-2.40000
G1 X129.944 Y73.347 F600.000
G1 E2.40000 F3600.000
G1 X129.944 Y77.347 E0.07074 F600.000
G1 X128.444 Y77.347 E0.02653
G1 X128.444 Y73.347 E0.07074
G1 X124.444 Y73.347 E0.07074
G1 X124.444 Y71.847 E0.02653
G1 X128.444 Y71.847 E0.07074
G1 X128.444 Y67.847 E0.07074
G1 X129.944 Y67.847 E0.02653
G1 X129.944 Y71.847 E0.07074
G1 X133.944 Y71.847 E0.07074
G1 X133.944 Y73.347 E0.02653
G1 X130.019 Y73.347 E0.06941
G1 F3600.000 E-2.40000
G1 Z1.000 F600.000
G1 X71.556 Y128.153 F600.000
G1 E2.40000 F3600.000
G1 X71.556 Y132.153 E0.07074 F600.000
G1 X70.056 Y132.153 E0.02653
G1 X70.056 Y128.153 E0.07074
G1 X66.056 Y128.153 E0.07074
G1 X66.056 Y126.653 E0.02653
G1 X70.056 Y126.653 E0.07074
G1 X70.056 Y122.653 E0.07074
G1 X71.556 Y122.653 E0.02653
G1 X71.556 Y126.653 E0.07074
G1 X75.556 Y126.653 E0.07074
G1 X75.556 Y128.153 E0.02653
G1 X71.631 Y128.153 E0.06941
G1 F3600.000 E-2.40000
G1 X129.944 Y73.347 F600.000
G1 E2.40000 F3600.000
G1 X129.944 Y77.347 E0.07074 F600.000
G1 X128.444 Y77.347 E0.02653
G1 X128.444 Y73.347 E0.07074
G1 X124.444 Y73.347 E0.07074
G1 X124.444 Y71.847 E0.02653
G1 X128.444 Y71.847 E0.07074
G1 X128.444 Y67.847 E0.07074
G1 X129.944 Y67.847 E0.02653
G1 X129.944 Y71.847 E0.07074
G1 X133.944 Y71.847 E0.07074
G1 X133.944 Y73.347 E0.02653
G1 X130.019 Y73.347 E0.06941
G1 F3600.000 E-2.40000
G1 Z1.100 F600.000
G1 X71.556 Y128.153 F600.000
G1 E2.40000 F3600.000
G1 X71.556 Y132.153 E0.07074 F600.000
G1 X70.056 Y132.153 E0.02653
G1 X70.056 Y128.153 E0.07074
G1 X66.056 Y128.153 E0.07074
G1 X66.056 Y126.653 E0.02653
G1 X70.056 Y126.653 E0.07074
G1 X70.056 Y122.653 E0.07074
G1 X71.556 Y122.653 E0.02653
G1 X71.556 Y126.653 E0.07074
G1 X75.556 Y126.653 E0.07074
G1 X75.556 Y128.153 E0.02653
G1 X71.631 Y128.153 E0.06941
G1 F3600.000 E-2.40000
G1 X129.944 Y73.347 F600.000
G1 E2.40000 F3600.000
G1 X129.944 Y77.347 E0.07074 F600.000
G1 X128.444 Y77.347 E0.02653
G1 X128.444 Y73.347 E0.07074
G1 X124.444 Y73.347 E0.07074
G1 X124.444 Y71.847 E0.02653
G1 X128.444 Y71.847 E0.07074
G1 X128.444 Y67.847 E0.07074
G1 X129.944 Y67.847 E0.02653
G1 X129.944 Y71.847 E0.07074
G1 X133.944 Y71.847 E0.07074
G1 X133.944 Y73.347 E0.02653
G1 X130.019 Y73.347 E0.06941
G1 F3600.000 E-2.40000
G1 Z1.200 F600.000
G1 X71.556 Y128.153 F600.000
G1 E2.40000 F3600.000
G1 X71.556 Y132.153 E0.07074 F600.000
G1 X70.056 Y132.153 E0.02653
G1 X70.056 Y128.153 E0.07074
G1 X66.056 Y128.153 E0.07074
G1 X66.056 Y126.653 E0.02653
G1 X70.056 Y126.653 E0.07074
G1 X70.056 Y122.653 E0.07074
G1 X71.556 Y122.653 E0.02653
G1 X71.556 Y126.653 E0.07074
G1 X75.556 Y126.653 E0.07074
G1 X75.556 Y128.153 E0.02653
G1 X71.631 Y128.153 E0.06941
G1 F3600.000 E-2.40000
G1 X129.944 Y73.347 F600.000
G1 E2.40000 F3600.000
G1 X129.944 Y77.347 E0.07074 F600.000
G1 X128.444 Y77.347 E0.02653
G1 X128.444 Y73.347 E0.07074
G1 X124.444 Y73.347 E0.07074
G1 X124.444 Y71.847 E0.02653
G1 X128.444 Y71.847 E0.07074
G1 X128.444 Y67.847 E0.07074
G1 X129.944 Y67.847 E0.02653
G1 X129.944 Y71.847 E0.07074
G1 X133.944 Y71.847 E0.07074
G1 X133.944 Y73.347 E0.02653
G1 X130.019 Y73.347 E0.06941
G1 F3600.000 E-2.40000
G1 Z1.300 F600.000
G1 X71.556 Y128.153 F600.000
G1 E2.40000 F3600.000
G1 X71.556 Y132.153 E0.07074 F600.000
G1 X70.056 Y132.153 E0.02653
G1 X70.056 Y128.153 E0.07074
G1 X66.056 Y128.153 E0.07074
G1 X66.056 Y126.653 E0.02653
G1 X70.056 Y126.653 E0.07074
G1 X70.056 Y122.653 E0.07074
G1 X71.556 Y122.653 E0.02653
G1 X71.556 Y126.653 E0.07074
G1 X75.556 Y126.653 E0.07074
G1 X75.556 Y128.153 E0.02653
G1 X71.631 Y128.153 E0.06941
G1 F3600.000 E-2.40000
G1 X129.944 Y73.347 F600.000
G1 E2.40000 F3600.000
G1 X129.944 Y77.347 E0.07074 F600.000
G1 X128.444 Y77.347 E0.02653
G1 X128.444 Y73.347 E0.07074
G1 X124.444 Y73.347 E0.07074
G1 X124.444 Y71.847 E0.02653
G1 X128.444 Y71.847 E0.07074
G1 X128.444 Y67.847 E0.07074
G1 X129.944 Y67.847 E0.02653
G1 X129.944 Y71.847 E0.07074
G1 X133.944 Y71.847 E0.07074
G1 X133.944 Y73.347 E0.02653
G1 X130.019 Y73.347 E0.06941
G1 F3600.000 E-2.40000
G1 Z1.400 F600.000
G1 X71.556 Y128.153 F600.000
G1 E2.40000 F3600.000
G1 X71.556 Y132.153 E0.07074 F600.000
G1 X70.056 Y132.153 E0.02653
G1 X70.056 Y128.153 E0.07074
G1 X66.056 Y128.153 E0.07074
G1 X66.056 Y126.653 E0.02653
G1 X70.056 Y126.653 E0.07074
G1 X70.056 Y122.653 E0.07074
G1 X71.556 Y122.653 E0.02653
G1 X71.556 Y126.653 E0.07074
G1 X75.556 Y126.653 E0.07074
G1 X75.556 Y128.153 E0.02653
G1 X71.631 Y128.153 E0.06941
G1 F3600.000 E-2.40000
G1 X129.944 Y73.347 F600.000
G1 E2.40000 F3600.000
G1 X129.944 Y77.347 E0.07074 F600.000
G1 X128.444 Y77.347 E0.02653
G1 X128.444 Y73.347 E0.07074
G1 X124.444 Y73.347 E0.07074
G1 X124.444 Y71.847 E0.02653
G1 X128.444 Y71.847 E0.07074
G1 X128.444 Y67.847 E0.07074
G1 X129.944 Y67.847 E0.02653
G1 X129.944 Y71.847 E0.07074
G1 X133.944 Y71.847 E0.07074
G1 X133.944 Y73.347 E0.02653
G1 X130.019 Y73.347 E0.06941
G1 F3600.000 E-2.40000
G1 Z1.500 F600.000
G1 X71.556 Y128.153 F600.000
G1 E2.40000 F3600.000
G1 X71.556 Y132.153 E0.07074 F600.000
G1 X70.056 Y132.153 E0.02653
G1 X70.056 Y128.153 E0.07074
G1 X66.056 Y128.153 E0.07074
G1 X66.056 Y126.653 E0.02653
G1 X70.056 Y126.653 E0.07074
G1 X70.056 Y122.653 E0.07074
G1 X71.556 Y122.653 E0.02653
G1 X71.556 Y126.653 E0.07074
G1 X75.556 Y126.653 E0.07074
G1 X75.556 Y128.153 E0.02653
G1 X71.631 Y128.153 E0.06941
G1 F3600.000 E-2.40000
G1 X129.944 Y73.347 F600.000
G1 E2.40000 F3600.000
G1 X129.944 Y77.347 E0.07074 F600.000
G1 X128.444 Y77.347 E0.02653
G1 X128.444 Y73.347 E0.07074
G1 X124.444 Y73.347 E0.07074
G1 X124.444 Y71.847 E0.02653
G1 X128.444 Y71.847 E0.07074
G1 X128.444 Y67.847 E0.07074
G1 X129.944 Y67.847 E0.02653
G1 X129.944 Y71.847 E0.07074
G1 X133.944 Y71.847 E0.07074
G1 X133.944 Y73.347 E0.02653
G1 X130.019 Y73.347 E0.06941
G1 F3600.000 E-2.40000
G1 Z1.600 F600.000
G1 X71.556 Y128.153 F600.000
G1 E2.40000 F3600.000
G1 X71.556 Y132.153 E0.07074 F600.000
G1 X70.056 Y132.153 E0.02653
G1 X70.056 Y128.153 E0.07074
G1 X66.056 Y128.153 E0.07074
G1 X66.056 Y126.653 E0.02653
G1 X70.056 Y126.653 E0.07074
G1 X70.056 Y122.653 E0.07074
G1 X71.556 Y122.653 E0.02653
G1 X71.556 Y126.653 E0.07074
G1 X75.556 Y126.653 E0.07074
G1 X75.556 Y128.153 E0.02653
G1 X71.631 Y128.153 E0.06941
G1 F3600.000 E-2.40000
