; generated by Slic3r 1.2.6 on 2015-02-11 at 23:08:02

; external perimeters extrusion width = 0.50mm
; perimeters extrusion width = 0.85mm
; infill extrusion width = 0.87mm
; solid infill extrusion width = 0.85mm
; top infill extrusion width = 0.85mm

M107
M190 S55 ; set bed temperature
M104 S190 ; set temperature
G28 ; home all axes
G1 Z5 F200 ; lift nozzle
M109 S190 ; wait for temperature to be reached
G21 ; set units to millimeters
G90 ; use absolute coordinates
M82 ; use absolute distances for extrusion
G92 E0
G1 Z0.500 F7800.000
G1 E-1.00000 F2400.00000
G92 E0
G1 X92.126 Y92.126 F7800.000
G1 E1.00000 F2400.00000
G1 X94.126 Y90.126 E1.00004 F1313.921
G1 X96.037 Y88.777 E1.00008
G1 X99.000 Y88.107 E1.00013
G1 X101.000 Y88.107 E1.00016
G1 X103.306 Y88.504 E1.00020
G1 X105.874 Y90.126 E1.00025 F1313.921
G1 X109.874 Y94.126 E1.00034
G1 X111.223 Y96.037 E1.00037
G1 X111.893 Y99.000 E1.00042
G1 X111.893 Y101.000 E1.00045
G1 X111.496 Y103.306 E1.00049
G1 X109.874 Y105.874 E1.00054
G1 X105.874 Y109.874 E1.00063
G1 X103.963 Y111.223 E1.00066
G1 X101.000 Y111.893 E1.00071
G1 X99.000 Y111.893 E1.00074
G1 X96.694 Y111.496 E1.00078
G1 X94.126 Y109.874 E1.00083
G1 X90.126 Y105.874 E1.00092
G1 X88.777 Y103.963 E1.00095
G1 X88.107 Y101.000 E1.00100
G1 X88.107 Y99.000 E1.00103
G1 X88.504 Y96.694 E1.00107
G1 X90.126 Y94.126 E1.00112
G1 X92.073 Y92.179 E1.00116
G1 E0.00116 F2400.00000
G92 E0
G1 X100.500 Y100.500 F7800.000
G1 E1.00000 F2400.00000
G1 X100.500 Y104.500 E1.00006 F1313.921
G1 X99.500 Y104.500 E1.00008
G1 X99.500 Y100.500 E1.00014
G1 X95.500 Y100.500 E1.00021
G1 X95.500 Y99.500 E1.00022
G1 X99.500 Y99.500 E1.00028
G1 X99.500 Y95.500 E1.00035
G1 X100.500 Y95.500 E1.00036
G1 X100.500 Y99.500 E1.00043
G1 X104.500 Y99.500 E1.00049
G1 X104.500 Y100.500 E1.00051
G1 X100.575 Y100.500 E1.00057
G1 X100.000 Y100.500 F7800.000
M104 S180 ; set temperature
G1 Z0.740 F7800.000
G1 X100.750 Y100.750 F7800.000
G1 X100.750 Y104.750 E1.00058 F623.870
G1 X99.250 Y104.750 E1.00059
G1 X99.250 Y100.750 E1.00060
G1 X95.250 Y100.750 E1.00062
G1 X95.250 Y99.250 E1.00062
G1 X99.250 Y99.250 E1.00064
G1 X99.250 Y95.250 E1.00065
G1 X100.750 Y95.250 E1.00066
G1 X100.750 Y99.250 E1.00068
G1 X104.750 Y99.250 E1.00069
G1 X104.750 Y100.750 E1.00070
G1 X100.825 Y100.750 E1.00071
G1 X100.250 Y100.750 F7800.000
G1 X100.499 Y100.000 F7800.000
G1 X95.649 Y100.000 E1.00073 F831.827
G1 X100.000 Y100.850 F7800.000
G1 X100.000 Y95.649 E1.00074 F831.827
G1 X100.000 Y96.000 F7800.000
G1 X100.000 Y100.000 F7800.000
G1 X104.000 Y100.000 F7800.000
G1 X104.351 Y100.000 F7800.000
G1 X100.000 Y100.000 E1.00076 F831.827
G1 X100.000 Y104.351 E1.00077
G1 Z0.980 F7800.000
G1 X100.750 Y100.750 F7800.000
G1 X100.750 Y104.750 E1.00079 F623.870
G1 X99.250 Y104.750 E1.00079
G1 X99.250 Y100.750 E1.00081
G1 X95.250 Y100.750 E1.00082
G1 X95.250 Y99.250 E1.00083
G1 X99.250 Y99.250 E1.00084
G1 X99.250 Y95.250 E1.00086
G1 X100.750 Y95.250 E1.00086
G1 X100.750 Y99.250 E1.00088
G1 X104.750 Y99.250 E1.00089
G1 X104.750 Y100.750 E1.00090
G1 X100.825 Y100.750 E1.00092
G1 X100.250 Y100.750 F7800.000
G1 X100.499 Y100.000 F7800.000
G1 X95.649 Y100.000 E1.00093 F831.827
G1 X100.000 Y100.850 F7800.000
G1 X100.000 Y95.649 E1.00095 F831.827
G1 X100.000 Y96.000 F7800.000
G1 X100.000 Y100.000 F7800.000
G1 X104.000 Y100.000 F7800.000
G1 X104.351 Y100.000 F7800.000
G1 X100.000 Y100.000 E1.00096 F831.827
G1 X100.000 Y104.351 E1.00097
M106 S255
G1 Z1.220 F7800.000
G1 X100.750 Y100.750 F7800.000
G1 X100.750 Y104.750 E1.00099 F623.870
G1 X99.250 Y104.750 E1.00100
G1 X99.250 Y100.750 E1.00101
G1 X95.250 Y100.750 E1.00103
G1 X95.250 Y99.250 E1.00103
G1 X99.250 Y99.250 E1.00105
G1 X99.250 Y95.250 E1.00106
G1 X100.750 Y95.250 E1.00107
G1 X100.750 Y99.250 E1.00108
G1 X104.750 Y99.250 E1.00110
G1 X104.750 Y100.750 E1.00110
G1 X100.825 Y100.750 E1.00112
G1 X100.250 Y100.750 F7800.000
G1 X100.499 Y100.000 F7800.000
G1 X95.649 Y100.000 E1.00113 F831.827
G1 X100.000 Y100.850 F7800.000
G1 X100.000 Y95.649 E1.00115 F831.827
G1 X100.000 Y96.000 F7800.000
G1 X100.000 Y100.000 F7800.000
G1 X104.000 Y100.000 F7800.000
G1 X104.351 Y100.000 F7800.000
G1 X100.000 Y100.000 E1.00116 F831.827
G1 X100.000 Y104.351 E1.00118
G1 Z1.460 F7800.000
G1 X100.750 Y100.750 F7800.000
G1 X100.750 Y104.750 E1.00119 F623.870
G1 X99.250 Y104.750 E1.00120
G1 X99.250 Y100.750 E1.00121
G1 X95.250 Y100.750 E1.00123
G1 X95.250 Y99.250 E1.00124
G1 X99.250 Y99.250 E1.00125
G1 X99.250 Y95.250 E1.00127
G1 X100.750 Y95.250 E1.00127
G1 X100.750 Y99.250 E1.00129
G1 X104.750 Y99.250 E1.00130
G1 X104.750 Y100.750 E1.00131
G1 X100.825 Y100.750 E1.00132
G1 X100.250 Y100.750 F7800.000
G1 X100.499 Y100.000 F7800.000
G1 X95.649 Y100.000 E1.00134 F831.827
G1 X100.000 Y100.850 F7800.000
G1 X100.000 Y95.649 E1.00135 F831.827
G1 X100.000 Y96.000 F7800.000
G1 X100.000 Y100.000 F7800.000
G1 X104.000 Y100.000 F7800.000
G1 X104.351 Y100.000 F7800.000
G1 X100.000 Y100.000 E1.00137 F831.827
G1 X100.000 Y104.351 E1.00138
G1 Z1.700 F7800.000
G1 X100.750 Y100.750 F7800.000
G1 X100.750 Y104.750 E1.00140 F623.870
G1 X99.250 Y104.750 E1.00140
G1 X99.250 Y100.750 E1.00142
G1 X95.250 Y100.750 E1.00143
G1 X95.250 Y99.250 E1.00144
G1 X99.250 Y99.250 E1.00145
G1 X99.250 Y95.250 E1.00147
G1 X100.750 Y95.250 E1.00148
G1 X100.750 Y99.250 E1.00149
G1 X104.750 Y99.250 E1.00151
G1 X104.750 Y100.750 E1.00151
G1 X100.825 Y100.750 E1.00153
G1 X100.250 Y100.750 F7800.000
G1 X100.499 Y100.000 F7800.000
G1 X95.649 Y100.000 E1.00154 F831.827
G1 X100.000 Y100.850 F7800.000
G1 X100.000 Y95.649 E1.00156 F831.827
G1 X100.000 Y96.000 F7800.000
G1 X100.000 Y100.000 F7800.000
G1 X104.000 Y100.000 F7800.000
G1 X104.351 Y100.000 F7800.000
G1 X100.000 Y100.000 E1.00157 F831.827
G1 X100.000 Y104.351 E1.00159
G1 Z1.940 F7800.000
G1 X100.750 Y100.750 F7800.000
G1 X100.750 Y104.750 E1.00160 F623.870
G1 X99.250 Y104.750 E1.00161
G1 X99.250 Y100.750 E1.00162
G1 X95.250 Y100.750 E1.00164
G1 X95.250 Y99.250 E1.00164
G1 X99.250 Y99.250 E1.00166
G1 X99.250 Y95.250 E1.00167
G1 X100.750 Y95.250 E1.00168
G1 X100.750 Y99.250 E1.00169
G1 X104.750 Y99.250 E1.00171
G1 X104.750 Y100.750 E1.00172
G1 X100.825 Y100.750 E1.00173
G1 X100.250 Y100.750 F7800.000
G1 X100.499 Y100.000 F7800.000
G1 X95.649 Y100.000 E1.00175 F831.827
G1 X100.000 Y100.850 F7800.000
G1 X100.000 Y95.649 E1.00176 F831.827
G1 X100.000 Y96.000 F7800.000
G1 X100.000 Y100.000 F7800.000
G1 X104.000 Y100.000 F7800.000
G1 X104.351 Y100.000 F7800.000
G1 X100.000 Y100.000 E1.00178 F831.827
G1 X100.000 Y104.351 E1.00179
G1 Z2.180 F7800.000
G1 X100.750 Y100.750 F7800.000
G1 X100.750 Y104.750 E1.00181 F623.870
G1 X99.250 Y104.750 E1.00181
G1 X99.250 Y100.750 E1.00183
G1 X95.250 Y100.750 E1.00184
G1 X95.250 Y99.250 E1.00185
G1 X99.250 Y99.250 E1.00186
G1 X99.250 Y95.250 E1.00188
G1 X100.750 Y95.250 E1.00188
G1 X100.750 Y99.250 E1.00190
G1 X104.750 Y99.250 E1.00191
G1 X104.750 Y100.750 E1.00192
G1 X100.825 Y100.750 E1.00193
G1 X100.250 Y100.750 F7800.000
G1 X100.499 Y100.000 F7800.000
G1 X95.649 Y100.000 E1.00195 F831.827
G1 X100.000 Y100.850 F7800.000
G1 X100.000 Y95.649 E1.00197 F831.827
G1 X100.000 Y96.000 F7800.000
G1 X100.000 Y100.000 F7800.000
G1 X104.000 Y100.000 F7800.000
G1 X104.351 Y100.000 F7800.000
G1 X100.000 Y100.000 E1.00198 F831.827
G1 X100.000 Y104.351 E1.00199
G1 Z2.420 F7800.000
G1 X100.750 Y100.750 F7800.000
G1 X100.750 Y104.750 E1.00201 F623.870
G1 X99.250 Y104.750 E1.00201
G1 X99.250 Y100.750 E1.00203
G1 X95.250 Y100.750 E1.00205
G1 X95.250 Y99.250 E1.00205
G1 X99.250 Y99.250 E1.00207
G1 X99.250 Y95.250 E1.00208
G1 X100.750 Y95.250 E1.00209
G1 X100.750 Y99.250 E1.00210
G1 X104.750 Y99.250 E1.00212
G1 X104.750 Y100.750 E1.00212
G1 X100.825 Y100.750 E1.00214
G1 X100.250 Y100.750 F7800.000
G1 X100.499 Y100.000 F7800.000
G1 X95.649 Y100.000 E1.00215 F831.827
G1 X100.000 Y100.850 F7800.000
G1 X100.000 Y95.649 E1.00217 F831.827
G1 X100.000 Y96.000 F7800.000
G1 X100.000 Y100.000 F7800.000
G1 X104.000 Y100.000 F7800.000
G1 X104.351 Y100.000 F7800.000
G1 X100.000 Y100.000 E1.00218 F831.827
G1 X100.000 Y104.351 E1.00220
G1 Z2.660 F7800.000
G1 X100.750 Y100.750 F7800.000
G1 X100.750 Y104.750 E1.00221 F623.870
G1 X99.250 Y104.750 E1.00222
G1 X99.250 Y100.750 E1.00223
G1 X95.250 Y100.750 E1.00225
G1 X95.250 Y99.250 E1.00225
G1 X99.250 Y99.250 E1.00227
G1 X99.250 Y95.250 E1.00229
G1 X100.750 Y95.250 E1.00229
G1 X100.750 Y99.250 E1.00231
G1 X104.750 Y99.250 E1.00232
G1 X104.750 Y100.750 E1.00233
G1 X100.825 Y100.750 E1.00234
G1 X100.250 Y100.750 F7800.000
G1 X100.499 Y100.000 F7800.000
G1 X95.649 Y100.000 E1.00236 F831.827
G1 X100.000 Y100.850 F7800.000
G1 X100.000 Y95.649 E1.00237 F831.827
G1 X100.000 Y96.000 F7800.000
G1 X100.000 Y100.000 F7800.000
G1 X104.000 Y100.000 F7800.000
G1 X104.351 Y100.000 F7800.000
G1 X100.000 Y100.000 E1.00239 F831.827
G1 X100.000 Y104.351 E1.00240
G1 Z2.900 F7800.000
G1 X100.750 Y100.750 F7800.000
G1 X100.750 Y104.750 E1.00242 F623.870
G1 X99.250 Y104.750 E1.00242
G1 X99.250 Y100.750 E1.00244
G1 X95.250 Y100.750 E1.00245
G1 X95.250 Y99.250 E1.00246
G1 X99.250 Y99.250 E1.00247
G1 X99.250 Y95.250 E1.00249
G1 X100.750 Y95.250 E1.00249
G1 X100.750 Y99.250 E1.00251
G1 X104.750 Y99.250 E1.00253
G1 X104.750 Y100.750 E1.00253
G1 X100.825 Y100.750 E1.00255
G1 X100.250 Y100.750 F7800.000
G1 X100.499 Y100.000 F7800.000
G1 X95.649 Y100.000 E1.00256 F831.827
G1 X100.000 Y100.850 F7800.000
G1 X100.000 Y95.649 E1.00258 F831.827
G1 X100.000 Y96.000 F7800.000
G1 X100.000 Y100.000 F7800.000
G1 X104.000 Y100.000 F7800.000
G1 X104.351 Y100.000 F7800.000
G1 X100.000 Y100.000 E1.00259 F831.827
G1 X100.000 Y104.351 E1.00261
G1 Z3.140 F7800.000
G1 X100.750 Y100.750 F7800.000
G1 X100.750 Y104.750 E1.00262 F623.870
G1 X99.250 Y104.750 E1.00263
G1 X99.250 Y100.750 E1.00264
G1 X95.250 Y100.750 E1.00266
G1 X95.250 Y99.250 E1.00266
G1 X99.250 Y99.250 E1.00268
G1 X99.250 Y95.250 E1.00269
G1 X100.750 Y95.250 E1.00270
G1 X100.750 Y99.250 E1.00271
G1 X104.750 Y99.250 E1.00273
G1 X104.750 Y100.750 E1.00273
G1 X100.825 Y100.750 E1.00275
G1 X100.250 Y100.750 F7800.000
G1 X100.499 Y100.000 F7800.000
G1 X95.649 Y100.000 E1.00277 F831.827
G1 X100.000 Y100.850 F7800.000
G1 X100.000 Y95.649 E1.00278 F831.827
G1 X100.000 Y96.000 F7800.000
G1 X100.000 Y100.000 F7800.000
G1 X104.000 Y100.000 F7800.000
G1 X104.351 Y100.000 F7800.000
G1 X100.000 Y100.000 E1.00280 F831.827
G1 X100.000 Y104.351 E1.00281
G1 Z3.380 F7800.000
G1 X100.750 Y100.750 F7800.000
G1 X100.750 Y104.750 E1.00282 F623.870
G1 X99.250 Y104.750 E1.00283
G1 X99.250 Y100.750 E1.00285
G1 X95.250 Y100.750 E1.00286
G1 X95.250 Y99.250 E1.00287
G1 X99.250 Y99.250 E1.00288
G1 X99.250 Y95.250 E1.00290
G1 X100.750 Y95.250 E1.00290
G1 X100.750 Y99.250 E1.00292
G1 X104.750 Y99.250 E1.00293
G1 X104.750 Y100.750 E1.00294
G1 X100.825 Y100.750 E1.00295
G1 X100.250 Y100.750 F7800.000
G1 X100.499 Y100.000 F7800.000
G1 X95.649 Y100.000 E1.00297 F831.827
G1 X100.000 Y100.850 F7800.000
G1 X100.000 Y95.649 E1.00299 F831.827
G1 X100.000 Y96.000 F7800.000
G1 X100.000 Y100.000 F7800.000
G1 X104.000 Y100.000 F7800.000
G1 X104.351 Y100.000 F7800.000
G1 X100.000 Y100.000 E1.00300 F831.827
G1 X100.000 Y104.351 E1.00301
G1 Z3.620 F7800.000
G1 X100.750 Y100.750 F7800.000
G1 X100.750 Y104.750 E1.00303 F623.870
G1 X99.250 Y104.750 E1.00303
G1 X99.250 Y100.750 E1.00305
G1 X95.250 Y100.750 E1.00306
G1 X95.250 Y99.250 E1.00307
G1 X99.250 Y99.250 E1.00309
G1 X99.250 Y95.250 E1.00310
G1 X100.750 Y95.250 E1.00311
G1 X100.750 Y99.250 E1.00312
G1 X104.750 Y99.250 E1.00314
G1 X104.750 Y100.750 E1.00314
G1 X100.825 Y100.750 E1.00316
G1 X100.250 Y100.750 F7800.000
G1 X100.499 Y100.000 F7800.000
G1 X95.649 Y100.000 E1.00317 F831.827
G1 X100.000 Y100.850 F7800.000
G1 X100.000 Y95.649 E1.00319 F831.827
G1 X100.000 Y96.000 F7800.000
G1 X100.000 Y100.000 F7800.000
G1 X104.000 Y100.000 F7800.000
G1 X104.351 Y100.000 F7800.000
G1 X100.000 Y100.000 E1.00320 F831.827
G1 X100.000 Y104.351 E1.00322
G1 Z3.860 F7800.000
G1 X100.750 Y100.750 F7800.000
G1 X100.750 Y104.750 E1.00323 F623.870
G1 X99.250 Y104.750 E1.00324
G1 X99.250 Y100.750 E1.00325
G1 X95.250 Y100.750 E1.00327
G1 X95.250 Y99.250 E1.00327
G1 X99.250 Y99.250 E1.00329
G1 X99.250 Y95.250 E1.00330
G1 X100.750 Y95.250 E1.00331
G1 X100.750 Y99.250 E1.00333
G1 X104.750 Y99.250 E1.00334
G1 X104.750 Y100.750 E1.00335
G1 X100.825 Y100.750 E1.00336
G1 X100.250 Y100.750 F7800.000
G1 X100.499 Y100.000 F7800.000
G1 X95.649 Y100.000 E1.00338 F831.827
G1 X100.000 Y100.850 F7800.000
G1 X100.000 Y95.649 E1.00339 F831.827
G1 X100.000 Y96.000 F7800.000
G1 X100.000 Y100.000 F7800.000
G1 X104.000 Y100.000 F7800.000
G1 X104.351 Y100.000 F7800.000
G1 X100.000 Y100.000 E1.00341 F831.827
G1 X100.000 Y104.351 E1.00342
G1 Z4.100 F7800.000
G1 X100.750 Y100.750 F7800.000
G1 X100.750 Y104.750 E1.00344 F623.870
G1 X99.250 Y104.750 E1.00344
G1 X99.250 Y100.750 E1.00346
G1 X95.250 Y100.750 E1.00347
G1 X95.250 Y99.250 E1.00348
G1 X99.250 Y99.250 E1.00349
G1 X99.250 Y95.250 E1.00351
G1 X100.750 Y95.250 E1.00351
G1 X100.750 Y99.250 E1.00353
G1 X104.750 Y99.250 E1.00354
G1 X104.750 Y100.750 E1.00355
G1 X100.825 Y100.750 E1.00357
G1 X100.250 Y100.750 F7800.000
G1 X100.499 Y100.000 F7800.000
G1 X95.649 Y100.000 E1.00358 F831.827
G1 X100.000 Y100.850 F7800.000
G1 X100.000 Y95.649 E1.00360 F831.827
G1 X100.000 Y96.000 F7800.000
G1 X100.000 Y100.000 F7800.000
G1 X104.000 Y100.000 F7800.000
G1 X104.351 Y100.000 F7800.000
G1 X100.000 Y100.000 E1.00361 F831.827
G1 X100.000 Y104.351 E1.00362
G1 Z4.340 F7800.000
G1 X100.750 Y100.750 F7800.000
G1 X100.750 Y104.750 E1.00364 F623.870
G1 X99.250 Y104.750 E1.00365
G1 X99.250 Y100.750 E1.00366
G1 X95.250 Y100.750 E1.00368
G1 X95.250 Y99.250 E1.00368
G1 X99.250 Y99.250 E1.00370
G1 X99.250 Y95.250 E1.00371
G1 X100.750 Y95.250 E1.00372
G1 X100.750 Y99.250 E1.00373
G1 X104.750 Y99.250 E1.00375
G1 X104.750 Y100.750 E1.00375
G1 X100.825 Y100.750 E1.00377
G1 X100.250 Y100.750 F7800.000
G1 X100.499 Y100.000 F7800.000
G1 X95.649 Y100.000 E1.00378 F831.827
G1 X100.000 Y100.850 F7800.000
G1 X100.000 Y95.649 E1.00380 F831.827
G1 X100.000 Y96.000 F7800.000
G1 X100.000 Y100.000 F7800.000
G1 X104.000 Y100.000 F7800.000
G1 X104.351 Y100.000 F7800.000
G1 X100.000 Y100.000 E1.00381 F831.827
G1 X100.000 Y104.351 E1.00383
G1 Z4.580 F7800.000
G1 X100.750 Y100.750 F7800.000
G1 X100.750 Y104.750 E1.00384 F623.870
G1 X99.250 Y104.750 E1.00385
G1 X99.250 Y100.750 E1.00386
G1 X95.250 Y100.750 E1.00388
G1 X95.250 Y99.250 E1.00389
G1 X99.250 Y99.250 E1.00390
G1 X99.250 Y95.250 E1.00392
G1 X100.750 Y95.250 E1.00392
G1 X100.750 Y99.250 E1.00394
G1 X104.750 Y99.250 E1.00395
G1 X104.750 Y100.750 E1.00396
G1 X100.825 Y100.750 E1.00397
G1 X100.250 Y100.750 F7800.000
G1 X100.499 Y100.000 F7800.000
G1 X95.649 Y100.000 E1.00399 F831.827
G1 X100.000 Y100.850 F7800.000
G1 X100.000 Y95.649 E1.00400 F831.827
G1 X100.000 Y96.000 F7800.000
G1 X100.000 Y100.000 F7800.000
G1 X104.000 Y100.000 F7800.000
G1 X104.351 Y100.000 F7800.000
G1 X100.000 Y100.000 E1.00402 F831.827
G1 X100.000 Y104.351 E1.00403
G1 Z4.820 F7800.000
G1 X100.750 Y100.750 F7800.000
G1 X100.750 Y104.750 E1.00405 F623.870
G1 X99.250 Y104.750 E1.00405
G1 X99.250 Y100.750 E1.00407
G1 X95.250 Y100.750 E1.00408
G1 X95.250 Y99.250 E1.00409
G1 X99.250 Y99.250 E1.00410
G1 X99.250 Y95.250 E1.00412
G1 X100.750 Y95.250 E1.00413
G1 X100.750 Y99.250 E1.00414
G1 X104.750 Y99.250 E1.00416
G1 X104.750 Y100.750 E1.00416
G1 X100.825 Y100.750 E1.00418
G1 X100.250 Y100.750 F7800.000
G1 X100.499 Y100.000 F7800.000
G1 X95.649 Y100.000 E1.00419 F831.827
G1 X100.000 Y100.850 F7800.000
G1 X100.000 Y95.649 E1.00421 F831.827
G1 X100.000 Y96.000 F7800.000
G1 X100.000 Y100.000 F7800.000
G1 X104.000 Y100.000 F7800.000
G1 X104.351 Y100.000 F7800.000
G1 X100.000 Y100.000 E1.00422 F831.827
G1 X100.000 Y104.351 E1.00424
G1 Z5.060 F7800.000
G1 X100.750 Y100.750 F7800.000
G1 X100.750 Y104.750 E1.00425 F623.870
G1 X99.250 Y104.750 E1.00426
G1 X99.250 Y100.750 E1.00427
G1 X95.250 Y100.750 E1.00429
G1 X95.250 Y99.250 E1.00429
G1 X99.250 Y99.250 E1.00431
G1 X99.250 Y95.250 E1.00432
