; generated by Slic3r 1.1.7 on 2015-02-11 at 21:58:27

; perimeters extrusion width = 0.50mm
; infill extrusion width = 0.87mm
; solid infill extrusion width = 0.85mm
; top infill extrusion width = 0.85mm

G21 ; set units to millimeters
M107
M190 S65 ; wait for bed temperature to be reached
M104 S200 ; set temperature
G28 Z0
G32
M83
M109 S200 ; wait for temperature to be reached
G90 ; use absolute coordinates
M83 ; use relative distances for extrusion
G1 F3600.000 E-2.40000
G1 Z0.400 F15000.000
G1 X96.359 Y92.359 F15000.000
G1 E2.40000 F3600.000
G1 X97.819 Y91.456 E0.17870 F638.758
G1 X99.000 Y91.264 E0.12448
G1 X101.000 Y91.264 E0.20814
G1 X102.671 Y91.659 E0.17870
G1 X103.641 Y92.359 E0.12448
G1 X107.641 Y96.359 E0.58870
G1 X108.544 Y97.819 E0.17870
G1 X108.736 Y99.000 E0.12448
G1 X108.736 Y101.000 E0.20814
G1 X108.341 Y102.671 E0.17870
G1 X107.641 Y103.641 E0.12448
G1 X103.641 Y107.641 E0.58870
G1 X102.181 Y108.544 E0.17870
G1 X101.000 Y108.736 E0.12448
G1 X99.000 Y108.736 E0.20814
G1 X97.329 Y108.341 E0.17870
G1 X96.359 Y107.641 E0.12448
G1 X92.359 Y103.641 E0.58870
G1 X91.456 Y102.181 E0.17870
G1 X91.264 Y101.000 E0.12448
G1 X91.264 Y99.000 E0.20814
G1 X91.659 Y97.329 E0.17870
G1 X92.359 Y96.359 E0.12448
G1 X96.305 Y92.412 E0.58090
G1 F3600.000 E-2.40000
G1 X100.600 Y100.600 F15000.000
G1 E2.40000 F3600.000
G1 X100.600 Y104.600 E0.41628 F718.603
G1 X99.400 Y104.600 E0.12488
G1 X99.400 Y100.600 E0.41628
G1 X95.400 Y100.600 E0.41628
G1 X95.400 Y99.400 E0.12488
G1 X99.400 Y99.400 E0.41628
G1 X99.400 Y95.400 E0.41628
G1 X100.600 Y95.400 E0.12488
G1 X100.600 Y99.400 E0.41628
G1 X104.600 Y99.400 E0.41628
G1 X104.600 Y100.600 E0.12488
G1 X100.675 Y100.600 E0.40847
G1 X100.100 Y100.600 F15000.000
G1 F3600.000 E-2.40000
G1 X100.000 Y104.232 F15000.000
G1 E2.40000 F3600.000
G1 X100.000 Y100.000 E0.25234 F600.000
G1 X104.232 Y100.000 E0.25234
G1 F3600.000 E-2.40000
G1 X100.000 Y100.800 F15000.000
G1 E2.40000 F3600.000
G1 X100.000 Y95.768 E0.30004 F600.000
G1 F3600.000 E-2.40000
G1 X100.568 Y100.000 F15000.000
G1 E2.40000 F3600.000
G1 X95.768 Y100.000 E0.28620 F600.000
M104 S190 ; set temperature
G1 F3600.000 E-2.40000
G1 Z0.640 F15000.000
G1 X100.750 Y100.750 F15000.000
G1 E2.40000 F3600.000
G1 X100.750 Y104.750 E0.16977 F600.000
G1 X99.250 Y104.750 E0.06366
G1 X99.250 Y100.750 E0.16977
G1 X95.250 Y100.750 E0.16977
G1 X95.250 Y99.250 E0.06366
G1 X99.250 Y99.250 E0.16977
G1 X99.250 Y95.250 E0.16977
G1 X100.750 Y95.250 E0.06366
G1 X100.750 Y99.250 E0.16977
G1 X104.750 Y99.250 E0.16977
G1 X104.750 Y100.750 E0.06366
G1 X100.825 Y100.750 E0.16658
G1 X100.250 Y100.750 F15000.000
G1 X100.250 Y100.250 F15000.000
G1 X100.250 Y104.250 E0.16977 F600.000
G1 X99.750 Y104.250 E0.02122
G1 X99.750 Y100.250 E0.16977
G1 X95.750 Y100.250 E0.16977
G1 X95.750 Y99.750 E0.02122
G1 X99.750 Y99.750 E0.16977
G1 X99.750 Y95.750 E0.16977
G1 X100.250 Y95.750 E0.02122
G1 X100.250 Y99.750 E0.16977
G1 X104.250 Y99.750 E0.16977
G1 X104.250 Y100.250 E0.02122
G1 X100.325 Y100.250 E0.16658
G1 F3600.000 E-2.40000
G1 Z0.880 F15000.000
G1 X100.750 Y100.750 F15000.000
G1 E2.40000 F3600.000
G1 X100.750 Y104.750 E0.16977 F600.000
G1 X99.250 Y104.750 E0.06366
G1 X99.250 Y100.750 E0.16977
G1 X95.250 Y100.750 E0.16977
G1 X95.250 Y99.250 E0.06366
G1 X99.250 Y99.250 E0.16977
G1 X99.250 Y95.250 E0.16977
G1 X100.750 Y95.250 E0.06366
G1 X100.750 Y99.250 E0.16977
G1 X104.750 Y99.250 E0.16977
G1 X104.750 Y100.750 E0.06366
G1 X100.825 Y100.750 E0.16658
G1 X100.250 Y100.750 F15000.000
G1 X100.250 Y100.250 F15000.000
G1 X100.250 Y104.250 E0.16977 F600.000
G1 X99.750 Y104.250 E0.02122
G1 X99.750 Y100.250 E0.16977
G1 X95.750 Y100.250 E0.16977
G1 X95.750 Y99.750 E0.02122
G1 X99.750 Y99.750 E0.16977
G1 X99.750 Y95.750 E0.16977
G1 X100.250 Y95.750 E0.02122
G1 X100.250 Y99.750 E0.16977
G1 X104.250 Y99.750 E0.16977
G1 X104.250 Y100.250 E0.02122
G1 X100.325 Y100.250 E0.16658
M106 S255
G1 F3600.000 E-2.40000
G1 Z1.120 F15000.000
G1 X100.750 Y100.750 F15000.000
G1 E2.40000 F3600.000
G1 X100.750 Y104.750 E0.16977 F600.000
G1 X99.250 Y104.750 E0.06366
G1 X99.250 Y100.750 E0.16977
G1 X95.250 Y100.750 E0.16977
G1 X95.250 Y99.250 E0.06366
G1 X99.250 Y99.250 E0.16977
G1 X99.250 Y95.250 E0.16977
G1 X100.750 Y95.250 E0.06366
G1 X100.750 Y99.250 E0.16977
G1 X104.750 Y99.250 E0.16977
G1 X104.750 Y100.750 E0.06366
G1 X100.825 Y100.750 E0.16658
G1 X100.250 Y100.750 F15000.000
G1 X100.250 Y100.250 F15000.000
G1 X100.250 Y104.250 E0.16977 F600.000
G1 X99.750 Y104.250 E0.02122
G1 X99.750 Y100.250 E0.16977
G1 X95.750 Y100.250 E0.16977
G1 X95.750 Y99.750 E0.02122
G1 X99.750 Y99.750 E0.16977
G1 X99.750 Y95.750 E0.16977
G1 X100.250 Y95.750 E0.02122
G1 X100.250 Y99.750 E0.16977
G1 X104.250 Y99.750 E0.16977
G1 X104.250 Y100.250 E0.02122
G1 X100.325 Y100.250 E0.16658
G1 F3600.000 E-2.40000
G1 Z1.360 F15000.000
G1 X100.750 Y100.750 F15000.000
G1 E2.40000 F3600.000
G1 X100.750 Y104.750 E0.16977 F600.000
G1 X99.250 Y104.750 E0.06366
G1 X99.250 Y100.750 E0.16977
G1 X95.250 Y100.750 E0.16977
G1 X95.250 Y99.250 E0.06366
G1 X99.250 Y99.250 E0.16977
G1 X99.250 Y95.250 E0.16977
G1 X100.750 Y95.250 E0.06366
G1 X100.750 Y99.250 E0.16977
G1 X104.750 Y99.250 E0.16977
G1 X104.750 Y100.750 E0.06366
G1 X100.825 Y100.750 E0.16658
G1 X100.250 Y100.750 F15000.000
G1 X100.250 Y100.250 F15000.000
G1 X100.250 Y104.250 E0.16977 F600.000
G1 X99.750 Y104.250 E0.02122
G1 X99.750 Y100.250 E0.16977
G1 X95.750 Y100.250 E0.16977
G1 X95.750 Y99.750 E0.02122
G1 X99.750 Y99.750 E0.16977
G1 X99.750 Y95.750 E0.16977
G1 X100.250 Y95.750 E0.02122
G1 X100.250 Y99.750 E0.16977
G1 X104.250 Y99.750 E0.16977
G1 X104.250 Y100.250 E0.02122
G1 X100.325 Y100.250 E0.16658
G1 F3600.000 E-2.40000
G1 Z1.600 F15000.000
G1 X100.750 Y100.750 F15000.000
G1 E2.40000 F3600.000
G1 X100.750 Y104.750 E0.16977 F600.000
G1 X99.250 Y104.750 E0.06366
G1 X99.250 Y100.750 E0.16977
G1 X95.250 Y100.750 E0.16977
G1 X95.250 Y99.250 E0.06366
G1 X99.250 Y99.250 E0.16977
G1 X99.250 Y95.250 E0.16977
G1 X100.750 Y95.250 E0.06366
G1 X100.750 Y99.250 E0.16977
G1 X104.750 Y99.250 E0.16977
G1 X104.750 Y100.750 E0.06366
G1 X100.825 Y100.750 E0.16658
G1 X100.250 Y100.750 F15000.000
G1 X100.250 Y100.250 F15000.000
G1 X100.250 Y104.250 E0.16977 F600.000
G1 X99.750 Y104.250 E0.02122
G1 X99.750 Y100.250 E0.16977
G1 X95.750 Y100.250 E0.16977
G1 X95.750 Y99.750 E0.02122
G1 X99.750 Y99.750 E0.16977
G1 X99.750 Y95.750 E0.16977
G1 X100.250 Y95.750 E0.02122
G1 X100.250 Y99.750 E0.16977
G1 X104.250 Y99.750 E0.16977
G1 X104.250 Y100.250 E0.02122
G1 X100.325 Y100.250 E0.16658
G1 F3600.000 E-2.40000
G1 Z1.840 F15000.000
G1 X100.750 Y100.750 F15000.000
G1 E2.40000 F3600.000
G1 X100.750 Y104.750 E0.16977 F600.000
G1 X99.250 Y104.750 E0.06366
G1 X99.250 Y100.750 E0.16977
G1 X95.250 Y100.750 E0.16977
G1 X95.250 Y99.250 E0.06366
G1 X99.250 Y99.250 E0.16977
G1 X99.250 Y95.250 E0.16977
G1 X100.750 Y95.250 E0.06366
G1 X100.750 Y99.250 E0.16977
G1 X104.750 Y99.250 E0.16977
G1 X104.750 Y100.750 E0.06366
G1 X100.825 Y100.750 E0.16658
G1 X100.250 Y100.750 F15000.000
G1 X100.250 Y100.250 F15000.000
G1 X100.250 Y104.250 E0.16977 F600.000
G1 X99.750 Y104.250 E0.02122
G1 X99.750 Y100.250 E0.16977
G1 X95.750 Y100.250 E0.16977
G1 X95.750 Y99.750 E0.02122
G1 X99.750 Y99.750 E0.16977
G1 X99.750 Y95.750 E0.16977
G1 X100.250 Y95.750 E0.02122
G1 X100.250 Y99.750 E0.16977
G1 X104.250 Y99.750 E0.16977
G1 X104.250 Y100.250 E0.02122
G1 X100.325 Y100.250 E0.16658
G1 F3600.000 E-2.40000
G1 Z2.080 F15000.000
G1 X100.750 Y100.750 F15000.000
G1 E2.40000 F3600.000
G1 X100.750 Y104.750 E0.16977 F600.000
G1 X99.250 Y104.750 E0.06366
G1 X99.250 Y100.750 E0.16977
G1 X95.250 Y100.750 E0.16977
G1 X95.250 Y99.250 E0.06366
G1 X99.250 Y99.250 E0.16977
G1 X99.250 Y95.250 E0.16977
G1 X100.750 Y95.250 E0.06366
G1 X100.750 Y99.250 E0.16977
G1 X104.750 Y99.250 E0.16977
G1 X104.750 Y100.750 E0.06366
G1 X100.825 Y100.750 E0.16658
G1 X100.250 Y100.750 F15000.000
G1 X100.250 Y100.250 F15000.000
G1 X100.250 Y104.250 E0.16977 F600.000
G1 X99.750 Y104.250 E0.02122
G1 X99.750 Y100.250 E0.16977
G1 X95.750 Y100.250 E0.16977
G1 X95.750 Y99.750 E0.02122
G1 X99.750 Y99.750 E0.16977
G1 X99.750 Y95.750 E0.16977
G1 X100.250 Y95.750 E0.02122
G1 X100.250 Y99.750 E0.16977
G1 X104.250 Y99.750 E0.16977
G1 X104.250 Y100.250 E0.02122
G1 X100.325 Y100.250 E0.16658
G1 F3600.000 E-2.40000
G1 Z2.320 F15000.000
G1 X100.750 Y100.750 F15000.000
G1 E2.40000 F3600.000
G1 X100.750 Y104.750 E0.16977 F600.000
G1 X99.250 Y104.750 E0.06366
G1 X99.250 Y100.750 E0.16977
G1 X95.250 Y100.750 E0.16977
G1 X95.250 Y99.250 E0.06366
G1 X99.250 Y99.250 E0.16977
G1 X99.250 Y95.250 E0.16977
G1 X100.750 Y95.250 E0.06366
G1 X100.750 Y99.250 E0.16977
G1 X104.750 Y99.250 E0.16977
G1 X104.750 Y100.750 E0.06366
G1 X100.825 Y100.750 E0.16658
G1 X100.250 Y100.750 F15000.000
G1 X100.250 Y100.250 F15000.000
G1 X100.250 Y104.250 E0.16977 F600.000
G1 X99.750 Y104.250 E0.02122
G1 X99.750 Y100.250 E0.16977
G1 X95.750 Y100.250 E0.16977
G1 X95.750 Y99.750 E0.02122
G1 X99.750 Y99.750 E0.16977
G1 X99.750 Y95.750 E0.16977
G1 X100.250 Y95.750 E0.02122
G1 X100.250 Y99.750 E0.16977
G1 X104.250 Y99.750 E0.16977
G1 X104.250 Y100.250 E0.02122
G1 X100.325 Y100.250 E0.16658
G1 F3600.000 E-2.40000
G1 Z2.560 F15000.000
G1 X100.750 Y100.750 F15000.000
G1 E2.40000 F3600.000
G1 X100.750 Y104.750 E0.16977 F600.000
G1 X99.250 Y104.750 E0.06366
G1 X99.250 Y100.750 E0.16977
G1 X95.250 Y100.750 E0.16977
G1 X95.250 Y99.250 E0.06366
G1 X99.250 Y99.250 E0.16977
G1 X99.250 Y95.250 E0.16977
G1 X100.750 Y95.250 E0.06366
G1 X100.750 Y99.250 E0.16977
G1 X104.750 Y99.250 E0.16977
G1 X104.750 Y100.750 E0.06366
G1 X100.825 Y100.750 E0.16658
G1 X100.250 Y100.750 F15000.000
G1 X100.250 Y100.250 F15000.000
G1 X100.250 Y104.250 E0.16977 F600.000
G1 X99.750 Y104.250 E0.02122
G1 X99.750 Y100.250 E0.16977
G1 X95.750 Y100.250 E0.16977
G1 X95.750 Y99.750 E0.02122
G1 X99.750 Y99.750 E0.16977
G1 X99.750 Y95.750 E0.16977
G1 X100.250 Y95.750 E0.02122
G1 X100.250 Y99.750 E0.16977
G1 X104.250 Y99.750 E0.16977
G1 X104.250 Y100.250 E0.02122
G1 X100.325 Y100.250 E0.16658
G1 F3600.000 E-2.40000
G1 Z2.800 F15000.000
G1 X100.750 Y100.750 F15000.000
G1 E2.40000 F3600.000
G1 X100.750 Y104.750 E0.16977 F600.000
G1 X99.250 Y104.750 E0.06366
G1 X99.250 Y100.750 E0.16977
G1 X95.250 Y100.750 E0.16977
G1 X95.250 Y99.250 E0.06366
G1 X99.250 Y99.250 E0.16977
G1 X99.250 Y95.250 E0.16977
G1 X100.750 Y95.250 E0.06366
G1 X100.750 Y99.250 E0.16977
G1 X104.750 Y99.250 E0.16977
G1 X104.750 Y100.750 E0.06366
G1 X100.825 Y100.750 E0.16658
G1 X100.250 Y100.750 F15000.000
G1 X100.250 Y100.250 F15000.000
G1 X100.250 Y104.250 E0.16977 F600.000
G1 X99.750 Y104.250 E0.02122
G1 X99.750 Y100.250 E0.16977
G1 X95.750 Y100.250 E0.16977
G1 X95.750 Y99.750 E0.02122
G1 X99.750 Y99.750 E0.16977
G1 X99.750 Y95.750 E0.16977
G1 X100.250 Y95.750 E0.02122
G1 X100.250 Y99.750 E0.16977
G1 X104.250 Y99.750 E0.16977
G1 X104.250 Y100.250 E0.02122
G1 X100.325 Y100.250 E0.16658
G1 F3600.000 E-2.40000
G1 Z3.040 F15000.000
G1 X100.750 Y100.750 F15000.000
G1 E2.40000 F3600.000
G1 X100.750 Y104.750 E0.16977 F600.000
G1 X99.250 Y104.750 E0.06366
G1 X99.250 Y100.750 E0.16977
G1 X95.250 Y100.750 E0.16977
G1 X95.250 Y99.250 E0.06366
G1 X99.250 Y99.250 E0.16977
G1 X99.250 Y95.250 E0.16977
G1 X100.750 Y95.250 E0.06366
G1 X100.750 Y99.250 E0.16977
G1 X104.750 Y99.250 E0.16977
G1 X104.750 Y100.750 E0.06366
G1 X100.825 Y100.750 E0.16658
G1 X100.250 Y100.750 F15000.000
G1 X100.250 Y100.250 F15000.000
G1 X100.250 Y104.250 E0.16977 F600.000
G1 X99.750 Y104.250 E0.02122
G1 X99.750 Y100.250 E0.16977
G1 X95.750 Y100.250 E0.16977
G1 X95.750 Y99.750 E0.02122
G1 X99.750 Y99.750 E0.16977
G1 X99.750 Y95.750 E0.16977
G1 X100.250 Y95.750 E0.02122
G1 X100.250 Y99.750 E0.16977
G1 X104.250 Y99.750 E0.16977
G1 X104.250 Y100.250 E0.02122
G1 X100.325 Y100.250 E0.16658
G1 F3600.000 E-2.40000
G1 Z3.280 F15000.000
G1 X100.750 Y100.750 F15000.000
G1 E2.40000 F3600.000
G1 X100.750 Y104.750 E0.16977 F600.000
G1 X99.250 Y104.750 E0.06366
G1 X99.250 Y100.750 E0.16977
G1 X95.250 Y100.750 E0.16977
G1 X95.250 Y99.250 E0.06366
G1 X99.250 Y99.250 E0.16977
G1 X99.250 Y95.250 E0.16977
G1 X100.750 Y95.250 E0.06366
G1 X100.750 Y99.250 E0.16977
G1 X104.750 Y99.250 E0.16977
G1 X104.750 Y100.750 E0.06366
G1 X100.825 Y100.750 E0.16658
G1 X100.250 Y100.750 F15000.000
G1 X100.250 Y100.250 F15000.000
G1 X100.250 Y104.250 E0.16977 F600.000
G1 X99.750 Y104.250 E0.02122
G1 X99.750 Y100.250 E0.16977
G1 X95.750 Y100.250 E0.16977
G1 X95.750 Y99.750 E0.02122
G1 X99.750 Y99.750 E0.16977
G1 X99.750 Y95.750 E0.16977
G1 X100.250 Y95.750 E0.02122
G1 X100.250 Y99.750 E0.16977
G1 X104.250 Y99.750 E0.16977
G1 X104.250 Y100.250 E0.02122
G1 X100.325 Y100.250 E0.16658
G1 F3600.000 E-2.40000
G1 Z3.520 F15000.000
G1 X100.750 Y100.750 F15000.000
G1 E2.40000 F3600.000
G1 X100.750 Y104.750 E0.16977 F600.000
G1 X99.250 Y104.750 E0.06366
G1 X99.250 Y100.750 E0.16977
G1 X95.250 Y100.750 E0.16977
G1 X95.250 Y99.250 E0.06366
G1 X99.250 Y99.250 E0.16977
G1 X99.250 Y95.250 E0.16977
G1 X100.750 Y95.250 E0.06366
G1 X100.750 Y99.250 E0.16977
G1 X104.750 Y99.250 E0.16977
G1 X104.750 Y100.750 E0.06366
G1 X100.825 Y100.750 E0.16658
G1 X100.250 Y100.750 F15000.000
G1 X100.250 Y100.250 F15000.000
G1 X100.250 Y104.250 E0.16977 F600.000
G1 X99.750 Y104.250 E0.02122
G1 X99.750 Y100.250 E0.16977
G1 X95.750 Y100.250 E0.16977
G1 X95.750 Y99.750 E0.02122
G1 X99.750 Y99.750 E0.16977
G1 X99.750 Y95.750 E0.16977
G1 X100.250 Y95.750 E0.02122
G1 X100.250 Y99.750 E0.16977
G1 X104.250 Y99.750 E0.16977
G1 X104.250 Y100.250 E0.02122
G1 X100.325 Y100.250 E0.16658
G1 F3600.000 E-2.40000
G1 Z3.760 F15000.000
G1 X100.750 Y100.750 F15000.000
G1 E2.40000 F3600.000
G1 X100.750 Y104.750 E0.16977 F600.000
G1 X99.250 Y104.750 E0.06366
G1 X99.250 Y100.750 E0.16977
G1 X95.250 Y100.750 E0.16977
G1 X95.250 Y99.250 E0.06366
G1 X99.250 Y99.250 E0.16977
G1 X99.250 Y95.250 E0.16977
G1 X100.750 Y95.250 E0.06366
G1 X100.750 Y99.250 E0.16977
G1 X104.750 Y99.250 E0.16977
G1 X104.750 Y100.750 E0.06366
G1 X100.825 Y100.750 E0.16658
G1 X100.250 Y100.750 F15000.000
G1 X100.250 Y100.250 F15000.000
G1 X100.250 Y104.250 E0.16977 F600.000
G1 X99.750 Y104.250 E0.02122
G1 X99.750 Y100.250 E0.16977
G1 X95.750 Y100.250 E0.16977
G1 X95.750 Y99.750 E0.02122
G1 X99.750 Y99.750 E0.16977
G1 X99.750 Y95.750 E0.16977
G1 X100.250 Y95.750 E0.02122
G1 X100.250 Y99.750 E0.16977
G1 X104.250 Y99.750 E0.16977
G1 X104.250 Y100.250 E0.02122
G1 X100.325 Y100.250 E0.16658
G1 F3600.000 E-2.40000
G1 Z4.000 F15000.000
G1 X100.750 Y100.750 F15000.000
G1 E2.40000 F3600.000
G1 X100.750 Y104.750 E0.16977 F600.000
G1 X99.250 Y104.750 E0.06366
G1 X99.250 Y100.750 E0.16977
G1 X95.250 Y100.750 E0.16977
G1 X95.250 Y99.250 E0.06366
G1 X99.250 Y99.250 E0.16977
G1 X99.250 Y95.250 E0.16977
G1 X100.750 Y95.250 E0.06366
G1 X100.750 Y99.250 E0.16977
G1 X104.750 Y99.250 E0.16977
G1 X104.750 Y100.750 E0.06366
G1 X100.825 Y100.750 E0.16658
G1 X100.250 Y100.750 F15000.000
G1 X100.250 Y100.250 F15000.000
G1 X100.250 Y104.250 E0.16977 F600.000
G1 X99.750 Y104.250 E0.02122
G1 X99.750 Y100.250 E0.16977
G1 X95.750 Y100.250 E0.16977
G1 X95.750 Y99.750 E0.02122
G1 X99.750 Y99.750 E0.16977
G1 X99.750 Y95.750 E0.16977
G1 X100.250 Y95.750 E0.02122
G1 X100.250 Y99.750 E0.16977
G1 X104.250 Y99.750 E0.16977
G1 X104.250 Y100.250 E0.02122
G1 X100.325 Y100.250 E0.16658
G1 F3600.000 E-2.40000
G1 Z4.240 F15000.000
G1 X100.750 Y100.750 F15000.000
G1 E2.40000 F3600.000
G1 X100.750 Y104.750 E0.16977 F600.000
G1 X99.250 Y104.750 E0.06366
G1 X99.250 Y100.750 E0.16977
G1 X95.250 Y100.750 E0.16977
G1 X95.250 Y99.250 E0.06366
G1 X99.250 Y99.250 E0.16977
G1 X99.250 Y95.250 E0.16977
G1 X100.750 Y95.250 E0.06366
G1 X100.750 Y99.250 E0.16977
G1 X104.750 Y99.250 E0.16977
G1 X104.750 Y100.750 E0.06366
G1 X100.825 Y100.750 E0.16658
G1 X100.250 Y100.750 F15000.000
G1 X100.250 Y100.250 F15000.000
G1 X100.250 Y104.250 E0.16977 F600.000
G1 X99.750 Y104.250 E0.02122
G1 X99.750 Y100.250 E0.16977
G1 X95.750 Y100.250 E0.16977
G1 X95.750 Y99.750 E0.02122
G1 X99.750 Y99.750 E0.16977
