; generated by Slic3r 1.1.7 on 2015-02-11 at 21:26:41

; perimeters extrusion width = 0.50mm
; infill extrusion width = 0.87mm
; solid infill extrusion width = 0.85mm
; top infill extrusion width = 0.85mm

G21 ; set units to millimeters
M107
M190 S65 ; wait for bed temperature to be reached
M104 S200 ; set temperature
G28 Z0
G32
M83
M109 S200 ; wait for temperature to be reached
G90 ; use absolute coordinates
M83 ; use relative distances for extrusion
G1 F3600.000 E-2.40000
G1 Z0.400 F15000.000
G1 X83.202 Y95.336 F15000.000
G1 E2.40000 F3600.000
G1 X85.298 Y94.832 E0.22439 F600.000
G1 X96.005 Y95.447 E1.11608
G1 X110.633 Y96.379 E1.52545
G1 X115.250 Y96.717 E0.48171
G1 X116.888 Y97.233 E0.17870
G1 X118.122 Y98.426 E0.17870
G1 X118.706 Y100.678 E0.24201
G1 X118.643 Y101.674 E0.10390
G1 X118.144 Y103.317 E0.17870
G1 X116.963 Y104.563 E0.17870
G1 X114.701 Y105.169 E0.24363
G1 X103.995 Y104.553 E1.11601
G1 X89.366 Y103.621 E1.52552
G1 X84.751 Y103.284 E0.48164
G1 X83.113 Y102.768 E0.17870
G1 X81.878 Y101.575 E0.17870
G1 X81.287 Y99.558 E0.21871
G1 X81.312 Y98.678 E0.09159
G1 X81.374 Y98.134 E0.05700
G1 X81.958 Y96.519 E0.17870
G1 X83.147 Y95.387 E0.17089
G1 F3600.000 E-2.40000
G1 X114.920 Y100.939 F15000.000
G1 E2.40000 F3600.000
G1 X112.273 Y100.787 E0.27595 F600.000
G1 X111.968 Y100.753 E0.03190
G1 X111.391 Y100.736 E0.06014
G1 X110.323 Y100.604 E0.11201
G1 X108.971 Y100.565 E0.14071
G1 X107.561 Y100.484 E0.14696
G1 X107.382 Y100.457 E0.01887
G1 X105.696 Y100.379 E0.17558
G1 X104.291 Y100.284 E0.14662
G1 X103.438 Y100.200 E0.08913
G1 X100.296 Y100.034 E0.32745
G1 X99.716 Y99.968 E0.06077
G1 X99.285 Y99.941 E0.04492
G1 X96.561 Y99.800 E0.28385
G1 X95.709 Y99.716 E0.08910
G1 X94.304 Y99.621 E0.14664
G1 X92.618 Y99.543 E0.17561
G1 X92.439 Y99.517 E0.01882
G1 X91.029 Y99.436 E0.14698
G1 X89.677 Y99.397 E0.14079
G1 X88.609 Y99.265 E0.11191
G1 X88.032 Y99.247 E0.06015
G1 X87.729 Y99.213 E0.03172
G1 X85.028 Y99.058 E0.28153
M104 S190 ; set temperature
G1 F3600.000 E-2.40000
G1 Z0.640 F15000.000
G1 X100.996 Y100.365 F15000.000
G1 E2.40000 F3600.000
G1 X98.247 Y100.048 E0.11745 F600.000
G1 X97.003 Y99.758 E0.05421
G1 X96.656 Y99.728 E0.01479
G1 X94.261 Y99.289 E0.10334
G1 X93.919 Y99.262 E0.01455
G1 X91.676 Y98.817 E0.09704
G1 X91.082 Y98.783 E0.02528
G1 X90.422 Y98.668 E0.02841
G1 X88.570 Y98.347 E0.13056 F2700.000
G1 X87.665 Y98.243 E0.06327
G1 X85.418 Y97.852 E0.15839
G1 X85.475 Y97.356 E0.03467
G1 X87.756 Y97.751 E0.16077
G1 X88.659 Y97.855 E0.06310
G1 X91.186 Y98.295 E0.17816
G1 X91.775 Y98.331 E0.04096
G1 X94.021 Y98.774 E0.15900
G1 X94.274 Y98.784 E0.01757
G1 X94.827 Y98.885 E0.03901
G1 X96.751 Y99.240 E0.08306 F600.000
G1 X97.087 Y99.268 E0.01428
G1 X98.324 Y99.557 E0.05390
G1 X100.038 Y99.754 E0.07326
G1 X101.061 Y99.993 E0.04456
G1 X101.009 Y100.291 E0.01285
G1 F3600.000 E-2.40000
G1 X94.503 Y99.267 F15000.000
G1 X101.895 Y100.494 F15000.000
G1 E2.40000 F3600.000
G1 X101.959 Y100.122 E0.01603 F600.000
G1 X103.344 Y100.272 E0.05912
G1 X105.741 Y100.711 E0.10341
G1 X106.080 Y100.738 E0.01446
G1 X108.324 Y101.184 E0.09710
G1 X108.918 Y101.218 E0.02526
G1 X109.575 Y101.332 E0.02827
G1 X111.436 Y101.655 E0.13117 F2700.000
G1 X112.329 Y101.758 E0.06248
G1 X114.534 Y102.142 E0.15541
G1 X114.477 Y102.638 E0.03468
G1 X112.238 Y102.249 E0.15780
G1 X111.347 Y102.147 E0.06231
G1 X108.814 Y101.706 E0.17855
G1 X108.226 Y101.670 E0.04091
G1 X105.978 Y101.226 E0.15910
G1 X105.727 Y101.216 E0.01746
G1 X105.173 Y101.115 E0.03908
G1 X103.248 Y100.760 E0.08307 F600.000
G1 X102.913 Y100.732 E0.01428
G1 X101.968 Y100.511 E0.04121
G1 F3600.000 E-2.40000
G1 X105.496 Y100.733 F15000.000
G1 Z0.880 F15000.000
G1 X114.148 Y103.164 F15000.000
G1 E2.40000 F3600.000
G1 X114.379 Y103.232 E0.01671 F2700.000
G1 X114.265 Y103.718 E0.03467
G1 X114.039 Y103.652 E0.01637
G1 X109.164 Y102.513 E0.34767
G1 X108.213 Y102.232 E0.06888
G1 X106.692 Y101.877 E0.10846
G1 F3600.000 E-2.40000
G1 X93.308 Y98.124 F15000.000
G1 E2.40000 F3600.000
G1 X96.668 Y98.908 E0.14644 F600.000
G1 X97.366 Y99.128 E0.03104
G1 X100.047 Y99.755 E0.11688
G1 X100.280 Y99.838 E0.01046
G1 X102.968 Y100.465 E0.11717
G1 X103.443 Y100.605 E0.02101
G1 X108.321 Y101.745 E0.21263
G1 X109.273 Y102.025 E0.04210
G1 X112.884 Y102.869 E0.15738
G1 F3600.000 E-2.40000
G1 X106.692 Y101.877 F15000.000
G1 E2.40000 F3600.000
G1 X103.334 Y101.093 E0.14634 F600.000
G1 X102.634 Y100.871 E0.03118
G1 X97.271 Y99.619 E0.23372
G1 X96.559 Y99.395 E0.03165
G1 X91.673 Y98.255 E0.21296
G1 X90.733 Y97.978 E0.04161
G1 X87.114 Y97.132 E0.15773
G1 X85.611 Y96.768 E0.10735 F2700.000
G1 X85.725 Y96.282 E0.03467
G1 X85.951 Y96.348 E0.01640
G1 X90.842 Y97.490 E0.34872
G1 X91.782 Y97.767 E0.06808
G1 X93.308 Y98.124 E0.10885
G1 F3600.000 E-2.40000
G1 X112.884 Y102.869 F15000.000
G1 E2.40000 F3600.000
G1 X114.075 Y103.147 E0.08495 F2700.000
M106 S255
G1 F3600.000 E-2.40000
G1 Z1.120 F15000.000
G1 X114.077 Y104.321 F15000.000
G1 E2.40000 F3600.000
M106 S255
G1 X113.908 Y104.791 E0.03468 F2700.000
G1 X112.688 Y104.432 E0.08839
G1 X109.975 Y103.459 E0.20013
G1 X106.982 Y102.577 E0.21665
G1 X106.031 Y102.236 E0.07015
M106 S255
G1 F3600.000 E-2.40000
G1 X93.968 Y97.764 F15000.000
G1 E2.40000 F3600.000
G1 X95.724 Y98.393 E0.07917 F600.000
G1 X97.227 Y98.837 E0.06650
G1 X99.322 Y99.588 E0.09446
G1 X100.084 Y99.765 E0.03317
G1 X102.172 Y100.514 E0.09417
G1 X102.940 Y100.693 E0.03346
G1 X104.426 Y101.131 E0.06576
G1 X107.136 Y102.102 E0.12216
G1 X110.128 Y102.984 E0.13241
G1 X112.265 Y103.750 E0.09631
G1 F3600.000 E-2.40000
G1 X106.031 Y102.236 F15000.000
G1 E2.40000 F3600.000
G1 X104.273 Y101.606 E0.07929 F600.000
G1 X102.773 Y101.163 E0.06637
G1 X100.677 Y100.412 E0.09447
G1 X99.155 Y100.057 E0.06633
G1 X97.074 Y99.311 E0.09385
G1 X95.571 Y98.868 E0.06650
G1 X92.868 Y97.900 E0.12182
G1 X89.865 Y97.015 E0.13291
G1 X87.734 Y96.251 E0.09606
M106 S255
G1 X87.166 Y96.048 E0.04187 F2700.000
G1 X85.894 Y95.673 E0.09213
G1 X86.062 Y95.203 E0.03467
G1 X87.320 Y95.573 E0.09105
G1 X90.018 Y96.540 E0.19906
G1 X93.022 Y97.425 E0.21747
G1 X93.968 Y97.764 E0.06979
M106 S255
G1 F3600.000 E-2.40000
G1 X112.265 Y103.750 F15000.000
G1 E2.40000 F3600.000
M106 S255
G1 X112.841 Y103.957 E0.04254 F2700.000
G1 X114.005 Y104.300 E0.08426
M106 S255
G1 F3600.000 E-2.40000
G1 Z1.360 F15000.000
G1 X101.034 Y100.234 F15000.000
G1 E2.40000 F3600.000
G1 X100.887 Y100.582 E0.01603 F600.000
G1 X98.205 Y99.621 E0.12092
G1 X97.144 Y99.097 E0.05021
G1 X94.936 Y98.161 E0.10176
G1 X93.768 Y97.742 E0.05269
G1 X89.389 Y95.884 E0.20188
G1 X88.217 Y95.464 E0.05284
G1 X87.082 Y94.982 E0.05233
M106 S255
G1 X86.271 Y94.637 E0.06122 F2700.000
G1 X86.439 Y94.167 E0.03467
G1 X88.415 Y95.005 E0.14901
G1 X89.586 Y95.425 E0.08645
G1 X93.189 Y96.954 E0.27177
M106 S255
G1 X93.965 Y97.283 E0.03579 F600.000
G1 X95.134 Y97.702 E0.05269
G1 X97.314 Y98.628 E0.10054
G1 X98.388 Y99.158 E0.05082
G1 X100.092 Y99.769 E0.07681
G1 X100.967 Y100.201 E0.04143
G1 F3600.000 E-2.40000
G1 X92.791 Y97.257 F15000.000
G1 X101.884 Y100.556 F15000.000
G1 E2.40000 F3600.000
G1 X102.869 Y100.909 E0.04442 F600.000
G1 X105.066 Y101.841 E0.10128
G1 X106.229 Y102.257 E0.05240
G1 X110.616 Y104.120 E0.20231
G1 X111.776 Y104.535 E0.05227
G1 X112.920 Y105.021 E0.05275
M106 S255
G1 X113.687 Y105.347 E0.05785 F2700.000
G1 X113.518 Y105.817 E0.03467
G1 X111.578 Y104.994 E0.14633
G1 X110.419 Y104.579 E0.08553
G1 X106.808 Y103.046 E0.27243
M106 S255
G1 X106.031 Y102.716 E0.03581 F600.000
G1 X104.869 Y102.299 E0.05240
G1 X102.686 Y101.372 E0.10067
G1 X101.737 Y100.903 E0.04492
G1 X101.855 Y100.625 E0.01285
G1 F3600.000 E-2.40000
G1 X107.207 Y102.744 F15000.000
G1 Z1.600 F15000.000
G1 X113.300 Y106.374 F15000.000
G1 E2.40000 F3600.000
M106 S255
G1 X113.079 Y106.822 E0.03471 F2700.000
G1 X108.220 Y104.422 E0.37635
G1 X107.652 Y104.100 E0.04532
G1 X105.652 Y103.111 E0.15497
M106 S255
G1 F3600.000 E-2.40000
G1 X94.349 Y96.889 F15000.000
G1 E2.40000 F3600.000
G1 X97.144 Y98.269 E0.13231 F600.000
G1 X97.556 Y98.514 E0.02033
G1 X100.101 Y99.771 E0.12045
G1 X100.237 Y99.859 E0.00689
G1 X102.788 Y101.119 E0.12074
G1 X103.071 Y101.280 E0.01382
G1 X107.866 Y103.648 E0.22700
G1 X108.434 Y103.970 E0.02770
G1 X111.770 Y105.619 E0.15791
G1 F3600.000 E-2.40000
G1 X105.652 Y103.111 F15000.000
G1 E2.40000 F3600.000
G1 X102.857 Y101.731 E0.13229 F600.000
G1 X102.444 Y101.485 E0.02041
G1 X97.355 Y98.972 E0.24087
G1 X96.930 Y98.721 E0.02094
G1 X92.130 Y96.351 E0.22720
G1 X91.569 Y96.032 E0.02740
G1 X88.244 Y94.389 E0.15741
M106 S255
G1 X86.705 Y93.630 E0.11918 F2700.000
G1 X86.926 Y93.182 E0.03471
G1 X91.783 Y95.580 E0.37618
G1 X92.344 Y95.899 E0.04483
G1 X94.349 Y96.889 E0.15527
M106 S255
G1 F3600.000 E-2.40000
G1 X111.770 Y105.619 F15000.000
G1 E2.40000 F3600.000
M106 S255
G1 X113.233 Y106.341 E0.11333 F2700.000
M106 S255
G1 F3600.000 E-2.40000
G1 Z1.840 F15000.000
G1 X101.001 Y100.350 F15000.000
G1 E2.40000 F3600.000
G1 X100.815 Y100.679 E0.01603 F600.000
G1 X99.090 Y99.827 E0.08163
G1 X97.304 Y98.673 E0.09027
G1 X95.794 Y97.817 E0.07364
G1 X93.665 Y96.442 E0.10760
G1 X90.651 Y94.732 E0.14708
G1 X88.891 Y93.595 E0.08891
M106 S255
G1 X88.522 Y93.357 E0.03049 F2700.000
G1 X87.251 Y92.635 E0.10148
G1 X87.522 Y92.216 E0.03468
G1 X88.777 Y92.927 E0.10017
G1 X90.906 Y94.302 E0.17597
G1 X93.920 Y96.012 E0.24065
G1 X94.625 Y96.468 E0.05837
M106 S255
G1 X96.049 Y97.388 E0.07193 F600.000
G1 X97.558 Y98.244 E0.07364
G1 X99.357 Y99.406 E0.09088
G1 X100.133 Y99.790 E0.03675
G1 X100.938 Y100.309 E0.04067
G1 F3600.000 E-2.40000
G1 X94.183 Y96.701 F15000.000
G1 X101.754 Y100.863 F15000.000
G1 E2.40000 F3600.000
G1 X102.709 Y101.334 E0.04519 F600.000
G1 X104.205 Y102.182 E0.07298
G1 X106.337 Y103.559 E0.10771
G1 X109.347 Y105.268 E0.14691
G1 X111.113 Y106.408 E0.08920
M106 S255
G1 X111.480 Y106.645 E0.03037 F2700.000
G1 X112.777 Y107.382 E0.10359
G1 X112.506 Y107.801 E0.03467
G1 X111.225 Y107.075 E0.10229
G1 X109.092 Y105.697 E0.17632
G1 X106.082 Y103.989 E0.24039
G1 X105.375 Y103.532 E0.05839
M106 S255
G1 X103.950 Y102.612 E0.07202 F600.000
G1 X102.442 Y101.756 E0.07359
G1 X101.568 Y101.191 E0.04416
G1 X101.717 Y100.928 E0.01285
G1 F3600.000 E-2.40000
G1 X105.818 Y103.301 F15000.000
G1 Z2.080 F15000.000
G1 X100.954 Y100.463 F15000.000
G1 E2.40000 F3600.000
G1 X100.731 Y100.768 E0.01603 F600.000
G1 X98.268 Y99.178 E0.12443
G1 X97.420 Y98.480 E0.04664
G1 X95.618 Y97.165 E0.09465
G1 X94.295 Y96.310 E0.06688
G1 X90.722 Y93.701 E0.18776
G1 X89.398 Y92.846 E0.06690
G1 X88.537 Y92.216 E0.04526
M106 S255
G1 X87.823 Y91.695 E0.06139 F2700.000
G1 X88.094 Y91.275 E0.03467
G1 X89.692 Y92.442 E0.13738
G1 X91.016 Y93.297 E0.10946
G1 X94.040 Y95.506 E0.26003
M106 S255
G1 X94.589 Y95.906 E0.02884 F600.000
G1 X95.912 Y96.761 E0.06688
G1 X97.690 Y98.060 E0.09343
G1 X98.550 Y98.767 E0.04725
G1 X100.141 Y99.795 E0.08038
G1 X100.896 Y100.416 E0.04151
G1 F3600.000 E-2.40000
G1 X93.584 Y95.711 F15000.000
G1 X101.714 Y100.962 F15000.000
G1 E2.40000 F3600.000
G1 X102.592 Y101.529 E0.04436 F600.000
G1 X104.382 Y102.835 E0.09405
G1 X105.705 Y103.690 E0.06685
G1 X109.278 Y106.300 E0.18780
G1 X110.601 Y107.154 E0.06684
G1 X111.467 Y107.786 E0.04549
M106 S255
G1 X112.143 Y108.280 E0.05813 F2700.000
G1 X111.872 Y108.700 E0.03467
G1 X110.307 Y107.558 E0.13450
G1 X108.984 Y106.703 E0.10936
G1 X105.961 Y104.495 E0.25999
M106 S255
G1 X105.411 Y104.094 E0.02891 F600.000
G1 X104.088 Y103.239 E0.06685
G1 X102.310 Y101.940 E0.09344
G1 X101.491 Y101.267 E0.04500
G1 X101.670 Y101.022 E0.01285
G1 F3600.000 E-2.40000
G1 X106.418 Y104.292 F15000.000
G1 Z2.320 F15000.000
G1 X111.526 Y109.200 F15000.000
G1 E2.40000 F3600.000
M106 S255
G1 X111.209 Y109.586 E0.03471 F2700.000
G1 X104.807 Y104.299 E0.57656
M106 S255
G1 F3600.000 E-2.40000
G1 X95.193 Y95.701 F15000.000
G1 E2.40000 F3600.000
G1 X110.072 Y108.005 E0.81944 F600.000
G1 F3600.000 E-2.40000
G1 X104.807 Y104.299 F15000.000
G1 E2.40000 F3600.000
G1 X89.931 Y91.998 E0.81926 F600.000
M106 S255
G1 X88.472 Y90.798 E0.13120 F2700.000
G1 X88.789 Y90.412 E0.03471
G1 X93.105 Y93.961 E0.38803
G1 X93.335 Y94.173 E0.02175
G1 X95.193 Y95.701 E0.16705
M106 S255
G1 F3600.000 E-2.40000
G1 X110.072 Y108.005 F15000.000
G1 E2.40000 F3600.000
M106 S255
G1 X111.468 Y109.152 E0.12545 F2700.000
M106 S255
G1 F3600.000 E-2.40000
G1 Z2.560 F15000.000
G1 X100.895 Y100.569 F15000.000
G1 E2.40000 F3600.000
G1 X100.639 Y100.846 E0.01603 F600.000
G1 X99.090 Y99.573 E0.08511
G1 X97.671 Y98.103 E0.08672
G1 X96.273 Y96.813 E0.08072
G1 X94.743 Y95.229 E0.09346
G1 X91.953 Y92.653 E0.16118
G1 X90.612 Y91.264 E0.08194
M106 S255
G1 X90.423 Y91.068 E0.01886 F2700.000
G1 X89.202 Y89.941 E0.11541
G1 X89.561 Y89.594 E0.03467
G1 X90.767 Y90.706 E0.11389
G1 X92.296 Y92.290 E0.15294
G1 X95.087 Y94.866 E0.26374
G1 X95.556 Y95.353 E0.04695
M106 S255
G1 X96.616 Y96.450 E0.06477 F600.000
G1 X98.014 Y97.741 E0.08072
G1 X99.443 Y99.221 E0.08733
G1 X100.176 Y99.824 E0.04030
G1 X100.843 Y100.515 E0.04074
G1 F3600.000 E-2.40000
G1 X95.073 Y95.479 F15000.000
G1 X101.519 Y101.232 F15000.000
G1 E2.40000 F3600.000
G1 X102.340 Y101.907 E0.04512 F600.000
G1 X103.727 Y103.187 E0.08013
G1 X105.257 Y104.771 E0.09344
G1 X108.048 Y107.348 E0.16121
G1 X109.389 Y108.737 E0.08194
M106 S255
G1 X109.577 Y108.931 E0.01880 F2700.000
G1 X110.771 Y110.035 E0.11292
G1 X110.412 Y110.381 E0.03468
G1 X109.233 Y109.294 E0.11140
G1 X107.704 Y107.710 E0.15288
G1 X104.913 Y105.133 E0.26378
G1 X104.444 Y104.647 E0.04693
M106 S255
G1 X103.384 Y103.550 E0.06476 F600.000
G1 X101.986 Y102.259 E0.08073
G1 X101.262 Y101.509 E0.04423
G1 X101.468 Y101.287 E0.01285
G1 F3600.000 E-2.40000
G1 X104.928 Y104.522 F15000.000
G1 Z2.800 F15000.000
G1 X100.824 Y100.668 F15000.000
G1 E2.40000 F3600.000
G1 X100.537 Y100.915 E0.01603 F600.000
G1 X98.444 Y98.747 E0.12790
G1 X97.827 Y97.940 E0.04311
G1 X96.480 Y96.377 E0.08756
G1 X95.154 Y95.004 E0.08102
G1 X92.486 Y91.903 E0.17362
G1 X91.160 Y90.530 E0.08103
G1 X90.571 Y89.845 E0.03830
M106 S255
G1 X89.995 Y89.176 E0.06132 F2700.000
G1 X90.355 Y88.829 E0.03467
G1 X91.536 Y90.201 E0.12570
G1 X92.862 Y91.574 E0.13259
G1 X95.197 Y94.288 E0.24861
M106 S255
G1 X95.530 Y94.675 E0.02168 F600.000
G1 X96.856 Y96.048 E0.08102
G1 X98.183 Y97.591 E0.08634
G1 X98.809 Y98.409 E0.04371
G1 X100.183 Y99.831 E0.08392
G1 X100.778 Y100.609 E0.04157
G1 F3600.000 E-2.40000
G1 X94.706 Y94.384 F15000.000
G1 X101.458 Y101.320 F15000.000
G1 E2.40000 F3600.000
G1 X102.183 Y102.071 E0.04429 F600.000
G1 X103.520 Y103.623 E0.08696
G1 X104.846 Y104.996 E0.08101
G1 X107.514 Y108.097 E0.17364
G1 X108.840 Y109.470 E0.08100
G1 X109.427 Y110.153 E0.03823
M106 S255
G1 X109.979 Y110.794 E0.05874 F2700.000
G1 X109.620 Y111.141 E0.03468
G1 X108.464 Y109.799 E0.12301
G1 X107.138 Y108.426 E0.13253
G1 X104.803 Y105.712 E0.24868
M106 S255
G1 X104.470 Y105.325 E0.02166 F600.000
G1 X103.144 Y103.952 E0.08101
G1 X101.817 Y102.409 E0.08635
G1 X101.172 Y101.566 E0.04506
G1 X101.401 Y101.369 E0.01285
G1 F3600.000 E-2.40000
G1 X105.294 Y105.617 F15000.000
G1 Z3.040 F15000.000
G1 X109.165 Y111.560 F15000.000
G1 E2.40000 F3600.000
M106 S255
G1 X108.768 Y111.864 E0.03471 F2700.000
G1 X103.718 Y105.266 E0.57696
M106 S255
G1 F3600.000 E-2.40000
G1 X96.282 Y94.733 F15000.000
G1 E2.40000 F3600.000
G1 X107.997 Y110.035 E0.81790 F600.000
G1 F3600.000 E-2.40000
G1 X103.718 Y105.266 F15000.000
G1 E2.40000 F3600.000
G1 X92.001 Y89.963 E0.81800 F600.000
M106 S255
G1 X90.835 Y88.440 E0.13318 F2700.000
G1 X91.232 Y88.137 E0.03471
G1 X96.282 Y94.733 E0.57692
M106 S255
G1 F3600.000 E-2.40000
G1 X107.997 Y110.035 F15000.000
G1 E2.40000 F3600.000
M106 S255
G1 X109.119 Y111.500 E0.12817 F2700.000
M106 S255
G1 F3600.000 E-2.40000
G1 Z3.280 F15000.000
G1 X100.742 Y100.757 F15000.000
G1 E2.40000 F3600.000
G1 X100.430 Y100.969 E0.01603 F600.000
G1 X99.162 Y99.312 E0.08857
G1 X98.156 Y97.629 E0.08320
G1 X96.994 Y95.917 E0.08782
G1 X96.036 Y94.314 E0.07928
G1 X93.716 Y90.893 E0.17541
G1 X92.811 Y89.378 E0.07489
M106 S255
G1 X91.731 Y87.775 E0.13426 F2700.000
G1 X92.160 Y87.519 E0.03467
G1 X93.175 Y89.014 E0.12549
G1 X94.132 Y90.616 E0.12958
