; generated by Slic3r 1.1.7 on 2015-02-15 at 19:52:04

; perimeters extrusion width = 0.50mm
; infill extrusion width = 1.98mm
; solid infill extrusion width = 0.85mm
; top infill extrusion width = 0.85mm

G21 ; set units to millimeters
M107
M190 S65 ; wait for bed temperature to be reached
M104 S185 ; set temperature
G28 Z0
G32
M83
M109 S185 ; wait for temperature to be reached
G90 ; use absolute coordinates
M83 ; use relative distances for extrusion
G1 F3600.000 E-2.40000
G1 Z0.200 F600.000
G1 X147.171 Y33.597 F600.000
G1 E2.40000 F3600.000
G1 X147.573 Y33.180 E0.03651 F1200.000
G1 X147.970 Y32.817 E0.03381
G1 X148.401 Y32.470 E0.03485
G1 X148.915 Y32.112 E0.03944
G1 X149.322 Y31.862 E0.03010
G1 X149.814 Y31.601 E0.03501
G1 X150.438 Y31.326 E0.04298
G1 X150.834 Y31.178 E0.02657
G1 X151.365 Y31.015 E0.03497
G1 X152.086 Y30.852 E0.04654
G1 X152.999 Y30.732 E0.05797
G1 X153.785 Y30.707 E0.04953
G1 X154.381 Y30.736 E0.03753
G1 X154.887 Y30.791 E0.03205
G1 X155.433 Y30.885 E0.03489
G1 X156.066 Y31.041 E0.04103
G1 X156.497 Y31.174 E0.02842
G1 X157.015 Y31.369 E0.03484
G1 X157.660 Y31.668 E0.04471
G1 X158.008 Y31.855 E0.02491
G1 X158.479 Y32.144 E0.03478
G1 X159.101 Y32.593 E0.04829
G1 X159.772 Y33.182 E0.05620
G1 X160.317 Y33.760 E0.05000
G1 X160.700 Y34.241 E0.03868
G1 X160.982 Y34.642 E0.03092
G1 X161.272 Y35.113 E0.03478
G1 X161.582 Y35.709 E0.04227
G1 X161.759 Y36.105 E0.02735
G1 X161.955 Y36.623 E0.03484
G1 X162.161 Y37.320 E0.04580
G1 X162.341 Y38.233 E0.05852
G1 X162.416 Y39.014 E0.04942
G1 X162.427 Y39.585 E0.03597
G1 X162.403 Y40.127 E0.03415
G1 X162.343 Y40.679 E0.03492
G1 X162.233 Y41.297 E0.03951
G1 X162.121 Y41.762 E0.03013
G1 X161.958 Y42.294 E0.03499
G1 X161.764 Y42.809 E0.03471
G1 X161.536 Y43.314 E0.03484
G1 X161.276 Y43.805 E0.03501
G1 X160.882 Y44.430 E0.04652
G1 X160.542 Y44.891 E0.03604
G1 X160.242 Y45.252 E0.02957
G1 X52.829 Y166.403 E10.19247
G1 X52.427 Y166.820 E0.03651
G1 X52.030 Y167.183 E0.03381
G1 X51.599 Y167.530 E0.03485
G1 X51.085 Y167.888 E0.03944
G1 X50.678 Y168.138 E0.03010
G1 X50.186 Y168.399 E0.03501
G1 X49.562 Y168.674 E0.04298
G1 X49.166 Y168.822 E0.02655
G1 X48.635 Y168.985 E0.03499
G1 X47.914 Y169.148 E0.04654
G1 X47.001 Y169.268 E0.05800
G1 X46.215 Y169.293 E0.04948
G1 X45.619 Y169.264 E0.03754
G1 X45.113 Y169.209 E0.03205
G1 X44.567 Y169.115 E0.03489
G1 X43.934 Y168.959 E0.04103
G1 X43.503 Y168.826 E0.02842
G1 X42.985 Y168.631 E0.03484
G1 X42.340 Y168.332 E0.04471
G1 X41.992 Y168.145 E0.02491
G1 X41.521 Y167.856 E0.03478
G1 X40.899 Y167.407 E0.04829
G1 X40.228 Y166.818 E0.05620
G1 X39.683 Y166.240 E0.05000
G1 X39.300 Y165.759 E0.03868
G1 X39.018 Y165.358 E0.03092
G1 X38.728 Y164.887 E0.03478
G1 X38.418 Y164.291 E0.04227
G1 X38.241 Y163.895 E0.02735
G1 X38.045 Y163.377 E0.03484
G1 X37.839 Y162.680 E0.04580
G1 X37.659 Y161.767 E0.05852
G1 X37.584 Y160.986 E0.04942
G1 X37.573 Y160.415 E0.03597
G1 X37.597 Y159.872 E0.03418
G1 X37.657 Y159.321 E0.03489
G1 X37.767 Y158.703 E0.03951
G1 X37.879 Y158.238 E0.03013
G1 X38.041 Y157.707 E0.03497
G1 X38.236 Y157.191 E0.03473
G1 X38.464 Y156.686 E0.03484
G1 X38.724 Y156.195 E0.03501
G1 X39.118 Y155.570 E0.04652
G1 X39.458 Y155.109 E0.03604
G1 X39.758 Y154.748 E0.02957
G1 X147.121 Y33.653 E10.18775
G1 F3600.000 E-2.40000
G1 X41.807 Y160.537 F600.000
G1 E2.40000 F3600.000
G1 X41.916 Y159.659 E0.05568 F1350.000
G1 X42.007 Y159.287 E0.02415
G1 X42.120 Y158.949 E0.02245
G1 X42.244 Y158.652 E0.02021
G1 X42.432 Y158.288 E0.02582
G1 X42.716 Y157.855 E0.03257
G1 X42.945 Y157.571 E0.02301
G1 X43.396 Y157.125 E0.03986
G1 X43.647 Y156.925 E0.02022
G1 X44.079 Y156.641 E0.03257
G1 X44.476 Y156.438 E0.02806
G1 X44.882 Y156.277 E0.02751
G1 X45.389 Y156.137 E0.03312
G1 X45.828 Y156.068 E0.02797
G1 X46.328 Y155.538 E0.04586
G1 F3600.000 E-2.40000
G1 X50.328 Y160.537 F600.000
G1 E2.40000 F3600.000
G1 X50.798 Y161.037 E0.04319 F1350.000
G1 X50.728 Y161.476 E0.02795
G1 X50.588 Y161.983 E0.03314
G1 X50.363 Y162.527 E0.03704
G1 X50.069 Y163.037 E0.03703
G1 X49.711 Y163.504 E0.03705
G1 X49.295 Y163.920 E0.03708
G1 X49.039 Y164.128 E0.02077
G1 X48.578 Y164.433 E0.03481
G1 X48.213 Y164.622 E0.02584
G1 X47.774 Y164.797 E0.02974
G1 X47.302 Y164.929 E0.03087
G1 X46.916 Y164.998 E0.02470
G1 X46.328 Y165.059 E0.03718
G1 F3600.000 E-2.40000
G1 X46.978 Y160.137 F600.000
G1 E2.40000 F3600.000
G1 X46.905 Y160.692 E0.03520 F1350.000
G1 X46.845 Y160.836 E0.00980
G1 X46.750 Y160.959 E0.00980
G1 X46.627 Y161.054 E0.00981
G1 X46.483 Y161.114 E0.00980
G1 X45.928 Y161.187 E0.03520
G1 X45.928 Y165.131 E0.24831
G1 X45.138 Y164.980 E0.05067
G1 X44.568 Y164.787 E0.03787
G1 X44.294 Y164.663 E0.01894
G1 X43.773 Y164.362 E0.03787
G1 X43.528 Y164.187 E0.01894
G1 X43.076 Y163.790 E0.03790
G1 X42.679 Y163.337 E0.03790
G1 X42.504 Y163.093 E0.01894
G1 X42.203 Y162.572 E0.03787
G1 X42.079 Y162.298 E0.01894
G1 X41.885 Y161.728 E0.03787
G1 X41.735 Y160.937 E0.05067
G1 X45.679 Y160.937 E0.24831
G1 X45.752 Y160.383 E0.03520
G1 X45.812 Y160.239 E0.00980
G1 X45.907 Y160.116 E0.00980
G1 X46.030 Y160.021 E0.00981
G1 X46.174 Y159.961 E0.00980
G1 X46.728 Y159.888 E0.03520
G1 X46.728 Y155.944 E0.24831
G1 X47.519 Y156.094 E0.05067
G1 X48.089 Y156.288 E0.03787
G1 X48.363 Y156.412 E0.01894
G1 X48.884 Y156.713 E0.03787
G1 X49.128 Y156.888 E0.01894
G1 X49.581 Y157.285 E0.03790
G1 X49.978 Y157.737 E0.03790
G1 X50.153 Y157.982 E0.01894
G1 X50.454 Y158.503 E0.03787
G1 X50.578 Y158.777 E0.01894
G1 X50.771 Y159.347 E0.03787
G1 X50.922 Y160.137 E0.05067
G1 X47.053 Y160.137 E0.24358
G1 X46.479 Y160.094 F600.000
G1 X47.485 Y159.380 F600.000
G1 X47.485 Y156.845 E0.15957 F1350.000
G1 X48.028 Y157.091 E0.03747
G1 X48.463 Y157.342 E0.03164
G1 X48.861 Y157.648 E0.03163
G1 X49.045 Y157.820 E0.01586
G1 X49.217 Y158.004 E0.01586
G1 X49.523 Y158.403 E0.03163
G1 X49.775 Y158.838 E0.03164
G1 X50.020 Y159.380 E0.03747
G1 X47.560 Y159.380 E0.15485
G1 F3600.000 E-2.40000
G1 X45.171 Y161.694 F600.000
G1 E2.40000 F3600.000
G1 X45.171 Y164.229 E0.15957 F1350.000
G1 X44.629 Y163.984 E0.03747
G1 X44.194 Y163.732 E0.03164
G1 X43.795 Y163.426 E0.03163
G1 X43.611 Y163.254 E0.01586
G1 X43.439 Y163.070 E0.01586
G1 X43.133 Y162.672 E0.03163
G1 X42.882 Y162.237 E0.03164
G1 X42.636 Y161.694 E0.03747
G1 X45.096 Y161.694 E0.15485
G1 X44.622 Y162.251 F600.000
G1 X44.303 Y162.571 E0.02847 F1200.000
G1 X43.975 Y162.243 E0.02917
G1 X43.560 Y162.243 F600.000
G1 X43.524 Y162.279 E0.00319 F1200.000
G1 F3600.000 E-2.40000
G1 X48.042 Y158.831 F600.000
G1 E2.40000 F3600.000
G1 X48.585 Y158.288 E0.04836 F1200.000
G1 X48.050 Y157.753 E0.04766
G1 X49.121 Y158.824 F600.000
G1 X49.113 Y158.831 E0.00070 F1200.000
G1 F3600.000 E-2.40000
G1 X149.150 Y39.463 F600.000
G1 E2.40000 F3600.000
G1 X149.259 Y38.585 E0.05568 F1350.000
G1 X149.350 Y38.212 E0.02415
G1 X149.463 Y37.874 E0.02245
G1 X149.587 Y37.578 E0.02021
G1 X149.776 Y37.213 E0.02582
G1 X150.059 Y36.781 E0.03257
G1 X150.289 Y36.496 E0.02301
G1 X150.739 Y36.051 E0.03986
G1 X150.990 Y35.851 E0.02022
G1 X151.422 Y35.567 E0.03257
G1 X151.819 Y35.363 E0.02806
G1 X152.226 Y35.203 E0.02751
G1 X152.733 Y35.063 E0.03312
G1 X153.172 Y34.993 E0.02797
G1 X153.672 Y34.463 E0.04586
G1 F3600.000 E-2.40000
G1 X157.672 Y39.463 F600.000
G1 E2.40000 F3600.000
G1 X158.141 Y39.963 E0.04319 F1350.000
G1 X158.072 Y40.401 E0.02795
G1 X157.932 Y40.909 E0.03314
G1 X157.706 Y41.452 E0.03704
G1 X157.413 Y41.962 E0.03703
G1 X157.055 Y42.429 E0.03705
G1 X156.638 Y42.846 E0.03708
G1 X156.382 Y43.054 E0.02077
G1 X155.921 Y43.359 E0.03481
G1 X155.556 Y43.547 E0.02584
G1 X155.118 Y43.723 E0.02974
G1 X154.645 Y43.855 E0.03087
G1 X154.259 Y43.923 E0.02470
G1 X153.672 Y43.984 E0.03718
G1 F3600.000 E-2.40000
G1 X153.022 Y39.863 F600.000
G1 E2.40000 F3600.000
G1 X153.095 Y39.308 E0.03520 F1350.000
G1 X153.155 Y39.164 E0.00980
G1 X153.250 Y39.041 E0.00980
G1 X153.373 Y38.946 E0.00981
G1 X153.517 Y38.886 E0.00980
G1 X154.072 Y38.813 E0.03520
G1 X154.072 Y34.869 E0.24831
G1 X154.862 Y35.020 E0.05067
G1 X155.432 Y35.213 E0.03787
G1 X155.706 Y35.337 E0.01894
G1 X156.227 Y35.638 E0.03787
G1 X156.472 Y35.813 E0.01894
G1 X156.924 Y36.210 E0.03790
G1 X157.321 Y36.663 E0.03790
G1 X157.496 Y36.907 E0.01894
G1 X157.797 Y37.428 E0.03787
G1 X157.921 Y37.702 E0.01894
G1 X158.115 Y38.272 E0.03787
G1 X158.265 Y39.063 E0.05067
G1 X154.321 Y39.063 E0.24831
G1 X154.248 Y39.617 E0.03520
G1 X154.188 Y39.761 E0.00980
G1 X154.093 Y39.885 E0.00980
G1 X153.970 Y39.979 E0.00981
G1 X153.826 Y40.039 E0.00980
G1 X153.272 Y40.112 E0.03520
G1 X153.272 Y44.056 E0.24831
G1 X152.481 Y43.906 E0.05067
G1 X151.911 Y43.712 E0.03787
G1 X151.637 Y43.588 E0.01894
G1 X151.116 Y43.288 E0.03787
G1 X150.872 Y43.112 E0.01894
G1 X150.419 Y42.715 E0.03790
G1 X150.022 Y42.263 E0.03790
G1 X149.847 Y42.018 E0.01894
G1 X149.546 Y41.497 E0.03787
G1 X149.422 Y41.223 E0.01894
G1 X149.229 Y40.653 E0.03787
G1 X149.078 Y39.863 E0.05067
G1 X152.947 Y39.863 E0.24358
G1 X153.521 Y39.906 F600.000
G1 F3600.000 E-2.40000
G1 X154.829 Y38.306 F600.000
G1 E2.40000 F3600.000
G1 X154.829 Y35.771 E0.15957 F1350.000
G1 X155.371 Y36.016 E0.03747
G1 X155.806 Y36.268 E0.03164
G1 X156.205 Y36.574 E0.03163
G1 X156.389 Y36.746 E0.01586
G1 X156.561 Y36.930 E0.01586
G1 X156.867 Y37.328 E0.03163
G1 X157.118 Y37.763 E0.03164
G1 X157.364 Y38.306 E0.03747
G1 X154.904 Y38.306 E0.15485
G1 F3600.000 E-2.40000
G1 X152.515 Y40.620 F600.000
G1 E2.40000 F3600.000
G1 X152.515 Y43.155 E0.15957 F1350.000
G1 X151.972 Y42.909 E0.03747
G1 X151.537 Y42.658 E0.03164
G1 X151.139 Y42.352 E0.03163
G1 X150.955 Y42.180 E0.01586
G1 X150.783 Y41.996 E0.01586
G1 X150.477 Y41.597 E0.03163
G1 X150.225 Y41.162 E0.03164
G1 X149.980 Y40.620 E0.03747
G1 X152.440 Y40.620 E0.15485
G1 X151.966 Y41.176 F600.000
G1 X151.646 Y41.496 E0.02847 F1200.000
G1 X151.318 Y41.169 E0.02917
G1 X150.903 Y41.169 F600.000
G1 X150.867 Y41.204 E0.00319 F1200.000
G1 F3600.000 E-2.40000
G1 X155.385 Y37.757 F600.000
G1 E2.40000 F3600.000
G1 X155.929 Y37.214 E0.04836 F1200.000
G1 X155.393 Y36.678 E0.04766
G1 X156.464 Y37.749 F600.000
G1 X156.456 Y37.757 E0.00070 F1200.000
M104 S170 ; set temperature
M140 S55 ; set bed temperature
G1 F3600.000 E-2.40000
G1 Z0.300 F600.000
G1 X42.949 Y163.874 F600.000
G1 E2.40000 F3600.000
G1 X42.563 Y163.433 E0.01220 F784.352
G1 X42.383 Y163.182 E0.00641
G1 X42.074 Y162.649 E0.01281
G1 X41.935 Y162.341 E0.00702
G1 X41.746 Y161.786 E0.01220
G1 X41.668 Y161.457 E0.00702
G1 X41.591 Y160.875 E0.01220
G1 X41.578 Y160.538 E0.00702
G1 X41.590 Y160.217 E0.00668
G1 X41.669 Y159.613 E0.01265
G1 X41.829 Y159.015 E0.01288
G1 X41.942 Y158.715 E0.00666
G1 X42.211 Y158.169 E0.01265
G1 X42.380 Y157.896 E0.00666
G1 X42.751 Y157.413 E0.01265
G1 X42.970 Y157.179 E0.00667
G1 X43.204 Y156.960 E0.00667
G1 X43.687 Y156.589 E0.01265
G1 X43.960 Y156.420 E0.00666
G1 X44.506 Y156.151 E0.01265
G1 X44.806 Y156.038 E0.00666
G1 X45.404 Y155.878 E0.01288
G1 X46.008 Y155.799 E0.01265
G1 X46.329 Y155.787 E0.00668
G1 X46.666 Y155.800 E0.00702
G1 X47.248 Y155.877 E0.01220
G1 X47.843 Y156.036 E0.01281
G1 X48.160 Y156.155 E0.00702
G1 X48.686 Y156.414 E0.01220
G1 X48.973 Y156.592 E0.00702
G1 X49.439 Y156.949 E0.01220
G1 X49.687 Y157.179 E0.00703
G1 X49.917 Y157.427 E0.00703
G1 X50.274 Y157.892 E0.01220
G1 X50.451 Y158.180 E0.00702
G1 X50.711 Y158.706 E0.01220
G1 X50.830 Y159.022 E0.00702
G1 X50.988 Y159.618 E0.01281
G1 X51.066 Y160.199 E0.01220
G1 X51.078 Y160.537 E0.00702
G1 X51.067 Y160.858 E0.00668
G1 X50.987 Y161.462 E0.01265
G1 X50.828 Y162.060 E0.01288
G1 X50.715 Y162.360 E0.00666
G1 X50.445 Y162.906 E0.01265
G1 X50.276 Y163.178 E0.00666
G1 X49.906 Y163.661 E0.01265
G1 X49.687 Y163.896 E0.00667
G1 X49.452 Y164.115 E0.00667
G1 X48.969 Y164.485 E0.01265
G1 X48.697 Y164.654 E0.00666
G1 X48.151 Y164.924 E0.01265
G1 X47.851 Y165.037 E0.00666
G1 X47.253 Y165.196 E0.01288
G1 X46.649 Y165.276 E0.01265
G1 X46.328 Y165.287 E0.00668
G1 X45.990 Y165.275 E0.00702
G1 X45.409 Y165.197 E0.01220
G1 X45.080 Y165.120 E0.00702
G1 X44.524 Y164.931 E0.01220
G1 X44.217 Y164.792 E0.00702
G1 X43.683 Y164.483 E0.01281
G1 X43.433 Y164.303 E0.00641
G1 X43.003 Y163.927 E0.01188
G1 X43.090 Y163.395 F600.000
G1 F3600.000 E-2.40000
G1 X47.078 Y159.787 F600.000
G1 E2.40000 F3600.000
G1 X47.078 Y156.351 E0.07144 F784.352
G1 X47.689 Y156.511 E0.01313
G1 X48.213 Y156.728 E0.01178
G1 X48.457 Y156.859 E0.00576
G1 X48.906 Y157.159 E0.01123
G1 X49.333 Y157.532 E0.01180
G1 X49.707 Y157.960 E0.01180
G1 X50.007 Y158.409 E0.01123
G1 X50.137 Y158.653 E0.00576
G1 X50.354 Y159.176 E0.01178
G1 X50.515 Y159.787 E0.01313
G1 X47.153 Y159.787 E0.06988
G1 X46.609 Y160.257 F600.000
G1 X46.564 Y160.600 E0.00720 F784.352
G1 X46.539 Y160.659 E0.00132
G1 X46.501 Y160.710 E0.00132
G1 X46.391 Y160.773 E0.00262
G1 X46.048 Y160.818 E0.00720
G1 X46.093 Y160.474 E0.00720
G1 X46.156 Y160.365 E0.00262
G1 X46.207 Y160.326 E0.00132
G1 X46.265 Y160.302 E0.00132
G1 X46.534 Y160.267 E0.00564
G1 X45.578 Y161.287 F600.000
G1 X45.578 Y164.724 E0.07144 F784.352
G1 X44.967 Y164.563 E0.01313
G1 X44.444 Y164.346 E0.01178
G1 X44.200 Y164.216 E0.00576
G1 X43.751 Y163.916 E0.01123
G1 X43.323 Y163.542 E0.01180
G1 X42.950 Y163.115 E0.01180
G1 X42.650 Y162.666 E0.01123
G1 X42.519 Y162.422 E0.00576
G1 X42.302 Y161.898 E0.01178
G1 X42.142 Y161.287 E0.01313
G1 X45.503 Y161.287 E0.06988
G1 X46.078 Y161.318 F600.000
G1 X46.522 Y161.260 E0.00930 F784.352
G1 X46.702 Y161.185 E0.00406
G1 X46.857 Y161.066 E0.00406
G1 X46.976 Y160.911 E0.00406
G1 X47.051 Y160.731 E0.00406
G1 X47.109 Y160.287 E0.00930
G1 X50.587 Y160.287 E0.07231
G1 X50.568 Y160.841 E0.01151
G1 X50.535 Y161.142 E0.00631
G1 X50.406 Y161.735 E0.01261
G1 X50.311 Y162.023 E0.00631
G1 X50.059 Y162.574 E0.01261
G1 X49.731 Y163.084 E0.01261
G1 X49.334 Y163.543 E0.01261
G1 X49.112 Y163.749 E0.00631
G1 X48.626 Y164.113 E0.01261
G1 X48.118 Y164.391 E0.01205
G1 X47.814 Y164.519 E0.00686
G1 X47.232 Y164.690 E0.01261
G1 X46.632 Y164.777 E0.01261
G1 X46.078 Y164.796 E0.01151
G1 X46.078 Y161.393 E0.07075
G1 X46.039 Y160.872 F600.000
G1 X45.548 Y160.787 F600.000
G1 X42.069 Y160.787 E0.07231 F784.352
G1 X42.089 Y160.234 E0.01151
G1 X42.121 Y159.932 E0.00631
G1 X42.250 Y159.340 E0.01261
G1 X42.346 Y159.052 E0.00631
G1 X42.598 Y158.500 E0.01261
G1 X42.753 Y158.240 E0.00631
G1 X43.100 Y157.775 E0.01205
G1 X43.545 Y157.325 E0.01316
G1 X43.781 Y157.135 E0.00631
G1 X44.268 Y156.821 E0.01205
G1 X44.843 Y156.555 E0.01316
G1 X45.131 Y156.459 E0.00631
G1 X45.723 Y156.330 E0.01260
G1 X46.025 Y156.298 E0.00631
G1 X46.578 Y156.278 E0.01151
G1 X46.578 Y159.757 E0.07231
G1 X46.135 Y159.815 E0.00930
G1 X45.954 Y159.890 E0.00406
G1 X45.800 Y160.009 E0.00406
G1 X45.681 Y160.163 E0.00406
G1 X45.606 Y160.344 E0.00406
G1 X45.557 Y160.713 E0.00774
G1 X45.526 Y161.287 F600.000
G1 F3600.000 E-2.40000
G1 X43.105 Y161.959 F600.000
G1 E2.40000 F3600.000
G1 X43.069 Y161.994 E0.00172 F697.202
G1 X43.519 Y162.746 E0.03017
G1 X44.306 Y161.959 E0.03832
G1 X44.907 Y162.560 E0.02926
G1 X44.120 Y163.346 E0.03832
G1 X44.871 Y163.796 E0.03017
G1 X44.907 Y163.761 E0.00172
G1 F3600.000 E-2.40000
G1 X49.588 Y159.080 F600.000
G1 E2.40000 F3600.000
G1 X49.553 Y159.116 E0.00172 F697.202
G1 X49.134 Y158.332 E0.03060
G1 X48.351 Y159.116 E0.03819
G1 X47.750 Y158.514 E0.02928
G1 X48.534 Y157.731 E0.03816
G1 X47.785 Y157.277 E0.03015
G1 X47.750 Y157.312 E0.00170
G1 F3600.000 E-2.40000
G1 X149.180 Y41.006 F600.000
G1 E2.40000 F3600.000
G1 X149.012 Y40.382 E0.01342 F784.352
G1 X148.934 Y39.801 E0.01220
G1 X148.922 Y39.463 E0.00702
G1 X148.933 Y39.142 E0.00668
G1 X149.013 Y38.538 E0.01265
G1 X149.172 Y37.940 E0.01288
G1 X149.285 Y37.640 E0.00666
G1 X149.555 Y37.094 E0.01265
G1 X149.724 Y36.822 E0.00666
G1 X150.094 Y36.339 E0.01265
G1 X150.313 Y36.104 E0.00667
G1 X150.548 Y35.885 E0.00667
G1 X151.031 Y35.515 E0.01265
G1 X151.567 Y35.205 E0.01288
G1 X151.859 Y35.072 E0.00666
G1 X152.435 Y34.877 E0.01265
G1 X152.747 Y34.804 E0.00666
G1 X153.351 Y34.724 E0.01265
G1 X153.672 Y34.713 E0.00668
G1 X154.010 Y34.725 E0.00702
G1 X154.591 Y34.803 E0.01220
G1 X155.187 Y34.961 E0.01281
G1 X155.503 Y35.080 E0.00702
G1 X156.029 Y35.340 E0.01220
