; generated by Slic3r 1.1.7 on 2015-02-15 at 17:52:25

; perimeters extrusion width = 0.50mm
; infill extrusion width = 1.98mm
; solid infill extrusion width = 0.85mm
; top infill extrusion width = 0.85mm

G21 ; set units to millimeters
M107
M190 S65 ; wait for bed temperature to be reached
M104 S185 ; set temperature
G28 Z0
M83
M109 S185 ; wait for temperature to be reached
G90 ; use absolute coordinates
M83 ; use relative distances for extrusion
G1 F3600.000 E-2.40000
G1 Z0.200 F600.000
G1 X60.388 Y58.075 F600.000
G1 E2.40000 F3600.000
G1 X62.438 Y57.024 E0.14499 F1200.000
G1 X125.128 Y46.827 E3.99835
G1 X125.943 Y46.876 E0.05138
G1 X126.705 Y46.991 E0.04849
G1 X127.220 Y47.108 E0.03328
G1 X127.728 Y47.257 E0.03331
G1 X128.226 Y47.436 E0.03329
G1 X128.711 Y47.644 E0.03327
G1 X129.184 Y47.882 E0.03333
G1 X129.641 Y48.148 E0.03329
G1 X130.082 Y48.441 E0.03330
G1 X130.725 Y48.944 E0.05140
G1 X131.286 Y49.471 E0.04847
G1 X131.643 Y49.860 E0.03324
G1 X131.986 Y50.284 E0.03431
G1 X132.285 Y50.701 E0.03231
G1 X132.566 Y51.150 E0.03333
G1 X132.820 Y51.614 E0.03329
G1 X133.046 Y52.092 E0.03330
G1 X133.246 Y52.598 E0.03424
G1 X133.407 Y53.085 E0.03231
G1 X133.543 Y53.597 E0.03333
G1 X133.647 Y54.115 E0.03330
G1 X145.662 Y133.341 E5.04439
G1 X145.711 Y134.155 E0.05134
G1 X145.367 Y135.843 E0.10841
G1 X144.612 Y136.925 E0.08309
G1 X139.612 Y141.925 E0.44513
G1 X137.568 Y142.975 E0.14464
G1 X75.469 Y153.173 E3.96162
G1 X74.654 Y153.124 E0.05138
G1 X73.892 Y153.009 E0.04849
G1 X73.377 Y152.892 E0.03329
G1 X72.869 Y152.743 E0.03331
G1 X72.357 Y152.558 E0.03424
G1 X71.886 Y152.356 E0.03232
G1 X71.413 Y152.118 E0.03329
G1 X70.956 Y151.852 E0.03332
G1 X70.515 Y151.559 E0.03330
G1 X70.093 Y151.240 E0.03329
G1 X69.691 Y150.896 E0.03329
G1 X69.311 Y150.529 E0.03330
G1 X68.954 Y150.140 E0.03324
G1 X68.611 Y149.716 E0.03430
G1 X68.312 Y149.298 E0.03235
G1 X68.031 Y148.850 E0.03329
G1 X67.777 Y148.386 E0.03329
G1 X67.551 Y147.908 E0.03331
G1 X67.351 Y147.402 E0.03424
G1 X67.185 Y146.900 E0.03331
G1 X67.054 Y146.403 E0.03233
G1 X66.954 Y145.910 E0.03165
G1 X54.340 Y66.674 E5.05085
G1 X54.289 Y65.845 E0.05229
G1 X54.633 Y64.157 E0.10841
G1 X55.388 Y63.075 E0.08309
G1 X60.335 Y58.128 E0.44041
G1 F3600.000 E-2.40000
G1 X80.172 Y144.018 F600.000
G1 E2.40000 F3600.000
G1 X75.982 Y144.018 E0.26375 F1350.000
G1 X75.982 Y139.828 E0.26375
G1 X76.683 Y139.952 E0.04480
G1 X76.950 Y140.026 E0.01748
G1 X77.470 Y140.223 E0.03498
G1 X77.720 Y140.345 E0.01749
G1 X78.195 Y140.632 E0.03496
G1 X78.632 Y140.975 E0.03496
G1 X78.835 Y141.165 E0.01750
G1 X79.025 Y141.368 E0.01750
G1 X79.368 Y141.805 E0.03496
G1 X79.655 Y142.280 E0.03496
G1 X79.777 Y142.530 E0.01749
G1 X79.974 Y143.049 E0.03497
G1 X80.048 Y143.317 E0.01749
G1 X80.161 Y143.944 E0.04008
G1 X79.725 Y143.794 F600.000
G1 X79.290 Y143.261 F600.000
G1 X76.739 Y143.261 E0.16061 F1350.000
G1 X76.739 Y140.710 E0.16061
G1 X77.570 Y141.130 E0.05860
G1 X77.952 Y141.393 E0.02921
G1 X78.299 Y141.701 E0.02921
G1 X78.607 Y142.048 E0.02921
G1 X78.870 Y142.430 E0.02920
G1 X79.258 Y143.193 E0.05388
G1 F3600.000 E-2.40000
G1 X75.182 Y144.818 F600.000
G1 E2.40000 F3600.000
G1 X75.182 Y149.008 E0.26375 F1350.000
G1 X74.481 Y148.884 E0.04480
G1 X74.214 Y148.809 E0.01749
G1 X73.694 Y148.612 E0.03497
G1 X73.444 Y148.491 E0.01749
G1 X72.969 Y148.204 E0.03496
G1 X72.532 Y147.861 E0.03497
G1 X72.330 Y147.670 E0.01749
G1 X72.139 Y147.468 E0.01750
G1 X71.797 Y147.031 E0.03496
G1 X71.509 Y146.556 E0.03497
G1 X71.388 Y146.306 E0.01749
G1 X71.191 Y145.786 E0.03497
G1 X71.116 Y145.519 E0.01749
G1 X70.992 Y144.818 E0.04480
G1 X75.107 Y144.818 E0.25903
G1 X74.932 Y145.251 F600.000
G1 X74.425 Y145.575 F600.000
G1 X74.425 Y148.126 E0.16061 F1350.000
G1 X73.594 Y147.706 E0.05860
G1 X73.212 Y147.443 E0.02921
G1 X72.865 Y147.135 E0.02921
G1 X72.557 Y146.788 E0.02921
G1 X72.294 Y146.406 E0.02921
G1 X71.874 Y145.575 E0.05860
G1 X74.350 Y145.575 E0.15588
G1 X73.856 Y146.104 F600.000
G1 X73.896 Y146.144 E0.00356 F1200.000
G1 X73.488 Y146.980 E0.05858
G1 X73.020 Y146.512 E0.04169
G1 F3600.000 E-2.40000
G1 X77.268 Y142.692 F600.000
G1 E2.40000 F3600.000
G1 X77.308 Y142.732 E0.00356 F1200.000
G1 X78.131 Y142.309 E0.05822
G1 X77.682 Y141.861 E0.03992
G1 F3600.000 E-2.40000
G1 X137.355 Y133.869 F600.000
G1 E2.40000 F3600.000
G1 X137.355 Y129.679 E0.26375 F1350.000
G1 X138.056 Y129.803 E0.04480
G1 X138.324 Y129.877 E0.01748
G1 X138.843 Y130.074 E0.03498
G1 X139.093 Y130.196 E0.01749
G1 X139.568 Y130.483 E0.03496
G1 X140.005 Y130.826 E0.03496
G1 X140.208 Y131.016 E0.01750
G1 X140.398 Y131.219 E0.01750
G1 X140.741 Y131.656 E0.03496
G1 X141.028 Y132.131 E0.03496
G1 X141.150 Y132.381 E0.01749
G1 X141.347 Y132.900 E0.03497
G1 X141.421 Y133.168 E0.01749
G1 X141.545 Y133.869 E0.04480
G1 X137.430 Y133.869 E0.25903
G1 X137.605 Y133.436 F600.000
G1 X138.112 Y133.112 F600.000
G1 X138.112 Y130.560 E0.16061 F1350.000
G1 X138.943 Y130.980 E0.05860
G1 X139.325 Y131.244 E0.02921
G1 X139.672 Y131.552 E0.02921
G1 X139.980 Y131.899 E0.02921
G1 X140.243 Y132.281 E0.02920
G1 X140.664 Y133.112 E0.05860
G1 X138.187 Y133.112 E0.15588
G1 F3600.000 E-2.40000
G1 X136.555 Y134.669 F600.000
G1 E2.40000 F3600.000
G1 X136.555 Y138.858 E0.26375 F1350.000
G1 X135.854 Y138.735 E0.04480
G1 X135.587 Y138.660 E0.01749
G1 X135.067 Y138.463 E0.03497
G1 X134.818 Y138.342 E0.01749
G1 X134.342 Y138.054 E0.03496
G1 X133.905 Y137.712 E0.03497
G1 X133.703 Y137.521 E0.01749
G1 X133.512 Y137.319 E0.01750
G1 X133.170 Y136.882 E0.03496
G1 X132.882 Y136.406 E0.03497
G1 X132.761 Y136.157 E0.01749
G1 X132.564 Y135.637 E0.03497
G1 X132.489 Y135.370 E0.01749
G1 X132.365 Y134.669 E0.04480
G1 X136.480 Y134.669 E0.25903
G1 X136.305 Y135.102 F600.000
G1 X135.798 Y135.426 F600.000
G1 X135.798 Y137.977 E0.16061 F1350.000
G1 X134.967 Y137.557 E0.05860
G1 X134.586 Y137.293 E0.02921
G1 X134.238 Y136.986 E0.02921
G1 X133.931 Y136.638 E0.02921
G1 X133.667 Y136.256 E0.02921
G1 X133.247 Y135.426 E0.05860
G1 X135.723 Y135.426 E0.15588
G1 X135.229 Y135.955 F600.000
G1 X135.269 Y135.995 E0.00356 F1200.000
G1 X134.861 Y136.831 E0.05858
G1 X134.393 Y136.363 E0.04169
G1 F3600.000 E-2.40000
G1 X138.641 Y132.543 F600.000
G1 E2.40000 F3600.000
G1 X138.681 Y132.583 E0.00356 F1200.000
G1 X139.504 Y132.160 E0.05822
G1 X139.055 Y131.712 E0.03992
G1 F3600.000 E-2.40000
G1 X125.415 Y55.182 F600.000
G1 E2.40000 F3600.000
G1 X125.415 Y50.992 E0.26375 F1350.000
G1 X126.116 Y51.116 E0.04480
G1 X126.383 Y51.191 E0.01748
G1 X126.903 Y51.388 E0.03498
G1 X127.153 Y51.509 E0.01749
G1 X127.628 Y51.796 E0.03496
G1 X128.065 Y52.139 E0.03496
G1 X128.267 Y52.330 E0.01750
G1 X128.458 Y52.532 E0.01750
G1 X128.801 Y52.969 E0.03496
G1 X129.088 Y53.444 E0.03496
G1 X129.209 Y53.694 E0.01749
G1 X129.406 Y54.214 E0.03497
G1 X129.481 Y54.481 E0.01749
G1 X129.605 Y55.182 E0.04480
G1 X125.490 Y55.182 E0.25903
G1 X125.665 Y54.749 F600.000
G1 X126.172 Y54.425 F600.000
G1 X126.172 Y51.874 E0.16061 F1350.000
G1 X127.003 Y52.294 E0.05860
G1 X127.385 Y52.557 E0.02921
G1 X127.732 Y52.865 E0.02921
G1 X128.040 Y53.212 E0.02921
G1 X128.303 Y53.594 E0.02920
G1 X128.723 Y54.425 E0.05860
G1 X126.247 Y54.425 E0.15588
G1 F3600.000 E-2.40000
G1 X124.615 Y55.982 F600.000
G1 E2.40000 F3600.000
G1 X124.615 Y60.172 E0.26375 F1350.000
G1 X123.914 Y60.048 E0.04480
G1 X123.646 Y59.974 E0.01749
G1 X123.127 Y59.777 E0.03497
G1 X122.877 Y59.655 E0.01749
G1 X122.402 Y59.368 E0.03496
G1 X121.965 Y59.025 E0.03497
G1 X121.762 Y58.835 E0.01749
G1 X121.572 Y58.632 E0.01750
G1 X121.229 Y58.195 E0.03496
G1 X120.942 Y57.720 E0.03497
G1 X120.820 Y57.470 E0.01749
G1 X120.623 Y56.951 E0.03497
G1 X120.549 Y56.683 E0.01749
G1 X120.425 Y55.982 E0.04480
G1 X124.540 Y55.982 E0.25903
G1 X124.365 Y56.415 F600.000
G1 X123.858 Y56.739 F600.000
G1 X123.858 Y59.290 E0.16061 F1350.000
G1 X123.027 Y58.870 E0.05860
G1 X122.645 Y58.607 E0.02921
G1 X122.298 Y58.299 E0.02921
G1 X121.990 Y57.952 E0.02921
G1 X121.727 Y57.570 E0.02921
G1 X121.307 Y56.739 E0.05860
G1 X123.783 Y56.739 E0.15588
G1 X123.289 Y57.268 F600.000
G1 X123.329 Y57.308 E0.00356 F1200.000
G1 X122.921 Y58.144 E0.05858
G1 X122.453 Y57.676 E0.04169
G1 F3600.000 E-2.40000
G1 X126.701 Y53.856 F600.000
G1 E2.40000 F3600.000
G1 X126.741 Y53.896 E0.00356 F1200.000
G1 X127.563 Y53.474 E0.05822
G1 X127.115 Y53.025 E0.03992
G1 F3600.000 E-2.40000
G1 X63.445 Y65.331 F600.000
G1 E2.40000 F3600.000
G1 X63.445 Y61.142 E0.26375 F1350.000
G1 X64.146 Y61.265 E0.04480
G1 X64.413 Y61.340 E0.01748
G1 X64.933 Y61.537 E0.03498
G1 X65.182 Y61.658 E0.01749
G1 X65.658 Y61.946 E0.03496
G1 X66.095 Y62.288 E0.03496
G1 X66.297 Y62.479 E0.01750
G1 X66.488 Y62.681 E0.01750
G1 X66.830 Y63.118 E0.03496
G1 X67.118 Y63.594 E0.03496
G1 X67.239 Y63.843 E0.01749
G1 X67.436 Y64.363 E0.03497
G1 X67.511 Y64.630 E0.01749
G1 X67.635 Y65.331 E0.04480
G1 X63.520 Y65.331 E0.25903
G1 X63.695 Y64.898 F600.000
G1 X64.202 Y64.574 F600.000
G1 X64.202 Y62.023 E0.16061 F1350.000
G1 X65.033 Y62.443 E0.05860
G1 X65.414 Y62.707 E0.02921
G1 X65.762 Y63.014 E0.02921
G1 X66.069 Y63.362 E0.02921
G1 X66.333 Y63.744 E0.02920
G1 X66.753 Y64.574 E0.05860
G1 X64.277 Y64.574 E0.15588
G1 F3600.000 E-2.40000
G1 X62.645 Y66.131 F600.000
G1 E2.40000 F3600.000
G1 X62.645 Y70.321 E0.26375 F1350.000
G1 X61.944 Y70.197 E0.04480
G1 X61.676 Y70.123 E0.01749
G1 X61.157 Y69.926 E0.03497
G1 X60.907 Y69.804 E0.01749
G1 X60.432 Y69.517 E0.03496
G1 X59.995 Y69.174 E0.03497
G1 X59.792 Y68.984 E0.01749
G1 X59.602 Y68.782 E0.01750
G1 X59.259 Y68.344 E0.03496
G1 X58.972 Y67.869 E0.03497
G1 X58.850 Y67.619 E0.01749
G1 X58.653 Y67.100 E0.03497
G1 X58.579 Y66.832 E0.01749
G1 X58.455 Y66.131 E0.04480
G1 X62.570 Y66.131 E0.25903
G1 X62.395 Y66.564 F600.000
G1 X61.888 Y66.888 F600.000
G1 X61.888 Y69.440 E0.16061 F1350.000
G1 X61.057 Y69.020 E0.05860
G1 X60.675 Y68.756 E0.02921
G1 X60.328 Y68.448 E0.02921
G1 X60.020 Y68.101 E0.02921
G1 X59.757 Y67.719 E0.02921
G1 X59.336 Y66.888 E0.05860
G1 X61.813 Y66.888 E0.15588
G1 X61.319 Y67.417 F600.000
G1 X61.359 Y67.457 E0.00356 F1200.000
G1 X60.951 Y68.294 E0.05858
G1 X60.482 Y67.825 E0.04169
G1 F3600.000 E-2.40000
G1 X64.731 Y64.005 F600.000
G1 E2.40000 F3600.000
G1 X64.771 Y64.045 E0.00356 F1200.000
G1 X65.593 Y63.623 E0.05822
G1 X65.145 Y63.174 E0.03992
M104 S170 ; set temperature
M140 S55 ; set bed temperature
G1 F3600.000 E-2.40000
G1 Z0.300 F600.000
G1 X75.832 Y144.168 F600.000
G1 E2.40000 F3600.000
G1 X75.832 Y139.673 E0.09343 F1068.488
G1 X76.155 Y139.703 E0.00673
G1 X76.719 Y139.806 E0.01192
G1 X77.024 Y139.893 E0.00659
G1 X77.532 Y140.086 E0.01130
G1 X77.789 Y140.212 E0.00596
G1 X78.280 Y140.509 E0.01192
G1 X78.511 Y140.679 E0.00596
G1 X78.941 Y141.059 E0.01192
G1 X79.321 Y141.489 E0.01192
G1 X79.491 Y141.720 E0.00596
G1 X79.788 Y142.211 E0.01192
G1 X79.914 Y142.469 E0.00596
G1 X80.117 Y143.005 E0.01192
G1 X80.194 Y143.281 E0.00596
G1 X80.297 Y143.845 E0.01192
G1 X80.327 Y144.168 E0.00673
G1 X75.907 Y144.168 E0.09187
G1 X76.082 Y143.735 F600.000
G1 X76.332 Y143.668 F600.000
G1 X76.332 Y140.234 E0.07137 F1068.488
G1 X76.846 Y140.361 E0.01101
G1 X77.326 Y140.543 E0.01067
G1 X77.557 Y140.655 E0.00534
G1 X77.996 Y140.921 E0.01067
G1 X78.203 Y141.073 E0.00534
G1 X78.587 Y141.413 E0.01067
G1 X78.927 Y141.797 E0.01067
G1 X79.079 Y142.004 E0.00534
G1 X79.345 Y142.443 E0.01067
G1 X79.463 Y142.688 E0.00565
G1 X79.639 Y143.154 E0.01035
G1 X79.766 Y143.668 E0.01101
G1 X76.407 Y143.668 E0.06981
G1 X75.332 Y144.668 F600.000
G1 X75.332 Y149.162 E0.09343 F1068.488
G1 X75.010 Y149.133 E0.00673
G1 X74.445 Y149.030 E0.01192
G1 X74.169 Y148.953 E0.00596
G1 X73.633 Y148.749 E0.01192
G1 X73.348 Y148.609 E0.00659
G1 X72.884 Y148.327 E0.01130
G1 X72.653 Y148.157 E0.00596
G1 X72.223 Y147.777 E0.01192
G1 X71.843 Y147.347 E0.01192
G1 X71.673 Y147.116 E0.00596
G1 X71.376 Y146.625 E0.01192
G1 X71.251 Y146.367 E0.00596
G1 X71.047 Y145.831 E0.01192
G1 X70.970 Y145.555 E0.00596
G1 X70.867 Y144.990 E0.01192
G1 X70.838 Y144.668 E0.00673
G1 X75.257 Y144.668 E0.09187
G1 X75.082 Y145.101 F600.000
G1 X74.832 Y145.168 F600.000
G1 X74.832 Y148.601 E0.07137 F1068.488
G1 X74.318 Y148.475 E0.01101
G1 X73.838 Y148.293 E0.01067
G1 X73.607 Y148.181 E0.00534
G1 X73.168 Y147.915 E0.01067
G1 X72.950 Y147.754 E0.00565
G1 X72.577 Y147.423 E0.01035
G1 X72.237 Y147.039 E0.01067
G1 X72.085 Y146.832 E0.00534
G1 X71.819 Y146.393 E0.01067
G1 X71.707 Y146.162 E0.00534
G1 X71.525 Y145.682 E0.01067
G1 X71.399 Y145.168 E0.01101
G1 X74.757 Y145.168 E0.06981
G1 F3600.000 E-2.40000
G1 X72.352 Y145.840 F600.000
G1 E2.40000 F3600.000
G1 X72.316 Y145.875 E0.00173 F949.767
G1 X72.770 Y146.627 E0.03025
G1 X73.558 Y145.840 E0.03837
G1 X74.160 Y146.442 E0.02936
G1 X73.372 Y147.230 E0.03839
G1 X74.125 Y147.684 E0.03026
G1 X74.160 Y147.648 E0.00173
G1 F3600.000 E-2.40000
G1 X78.848 Y142.961 F600.000
G1 E2.40000 F3600.000
G1 X78.813 Y142.996 E0.00173 F949.767
G1 X78.395 Y142.210 E0.03067
G1 X77.609 Y142.996 E0.03831
G1 X77.004 Y142.397 E0.02932
G1 X77.794 Y141.608 E0.03848
G1 X77.039 Y141.159 E0.03025
G1 X77.004 Y141.194 E0.00171
G1 F3600.000 E-2.40000
G1 X137.205 Y134.019 F600.000
G1 E2.40000 F3600.000
G1 X137.205 Y129.524 E0.09343 F1068.488
G1 X137.528 Y129.553 E0.00673
G1 X138.092 Y129.657 E0.01192
G1 X138.397 Y129.744 E0.00659
G1 X138.905 Y129.937 E0.01130
G1 X139.163 Y130.063 E0.00596
G1 X139.653 Y130.360 E0.01192
G1 X139.885 Y130.530 E0.00596
G1 X140.314 Y130.910 E0.01192
G1 X140.694 Y131.339 E0.01192
G1 X140.864 Y131.570 E0.00596
G1 X141.161 Y132.061 E0.01192
G1 X141.287 Y132.319 E0.00596
G1 X141.490 Y132.856 E0.01192
G1 X141.567 Y133.132 E0.00596
G1 X141.670 Y133.696 E0.01192
G1 X141.700 Y134.019 E0.00673
G1 X137.280 Y134.019 E0.09187
G1 X137.455 Y133.586 F600.000
G1 X137.705 Y133.519 F600.000
G1 X137.705 Y130.085 E0.07137 F1068.488
G1 X138.220 Y130.211 E0.01101
G1 X138.699 Y130.393 E0.01067
G1 X138.930 Y130.506 E0.00534
G1 X139.369 Y130.771 E0.01067
G1 X139.576 Y130.923 E0.00534
G1 X139.960 Y131.264 E0.01067
G1 X140.300 Y131.648 E0.01067
G1 X140.453 Y131.855 E0.00534
G1 X140.718 Y132.294 E0.01067
G1 X140.836 Y132.538 E0.00565
G1 X141.012 Y133.004 E0.01035
G1 X141.139 Y133.519 E0.01101
G1 X137.780 Y133.519 E0.06981
G1 X136.705 Y134.519 F600.000
G1 X136.705 Y139.013 E0.09343 F1068.488
G1 X136.383 Y138.984 E0.00673
G1 X135.818 Y138.881 E0.01192
G1 X135.542 Y138.803 E0.00596
G1 X135.006 Y138.600 E0.01192
G1 X134.722 Y138.460 E0.00659
G1 X134.257 Y138.178 E0.01130
G1 X134.026 Y138.008 E0.00596
G1 X133.597 Y137.627 E0.01192
G1 X133.216 Y137.198 E0.01192
G1 X133.046 Y136.967 E0.00596
G1 X132.749 Y136.476 E0.01192
G1 X132.624 Y136.218 E0.00596
G1 X132.420 Y135.682 E0.01192
G1 X132.343 Y135.405 E0.00596
G1 X132.240 Y134.841 E0.01192
G1 X132.211 Y134.519 E0.00673
G1 X136.630 Y134.519 E0.09187
G1 X136.455 Y134.952 F600.000
G1 X136.205 Y135.019 F600.000
G1 X136.205 Y138.452 E0.07137 F1068.488
G1 X135.691 Y138.326 E0.01101
G1 X135.211 Y138.144 E0.01067
G1 X134.980 Y138.032 E0.00534
G1 X134.541 Y137.766 E0.01067
G1 X134.323 Y137.604 E0.00565
G1 X133.950 Y137.274 E0.01035
G1 X133.610 Y136.889 E0.01067
G1 X133.458 Y136.683 E0.00534
G1 X133.192 Y136.244 E0.01067
G1 X133.080 Y136.013 E0.00534
G1 X132.898 Y135.533 E0.01067
G1 X132.772 Y135.019 E0.01101
G1 X136.130 Y135.019 E0.06981
G1 F3600.000 E-2.40000
G1 X133.725 Y135.690 F600.000
G1 E2.40000 F3600.000
G1 X133.690 Y135.726 E0.00173 F949.767
G1 X134.143 Y136.478 E0.03025
G1 X134.931 Y135.690 E0.03837
G1 X135.533 Y136.293 E0.02936
G1 X134.745 Y137.081 E0.03839
G1 X135.498 Y137.534 E0.03026
G1 X135.533 Y137.499 E0.00173
G1 F3600.000 E-2.40000
G1 X140.221 Y132.811 F600.000
G1 E2.40000 F3600.000
G1 X140.186 Y132.847 E0.00173 F949.767
G1 X139.769 Y132.060 E0.03067
G1 X138.982 Y132.847 E0.03831
G1 X138.377 Y132.248 E0.02932
G1 X139.167 Y131.458 E0.03848
G1 X138.412 Y131.009 E0.03025
G1 X138.377 Y131.044 E0.00171
G1 F3600.000 E-2.40000
G1 X125.265 Y55.332 F600.000
G1 E2.40000 F3600.000
G1 X125.265 Y50.838 E0.09343 F1068.488
G1 X125.587 Y50.867 E0.00673
G1 X126.152 Y50.970 E0.01192
G1 X126.457 Y51.057 E0.00659
G1 X126.964 Y51.251 E0.01130
G1 X127.222 Y51.376 E0.00596
