; generated by Slic3r 1.1.7 on 2015-02-20 at 20:51:24

; perimeters extrusion width = 0.50mm
; infill extrusion width = 1.98mm
; solid infill extrusion width = 0.85mm
; top infill extrusion width = 0.85mm

G21 ; set units to millimeters
M107
M190 S65 ; wait for bed temperature to be reached
M104 S185 ; set temperature
G28 Z0
G32
M83
M109 S185 ; wait for temperature to be reached
G90 ; use absolute coordinates
M83 ; use relative distances for extrusion
G1 F3600.000 E-2.40000
G1 Z0.200 F600.000
G1 X38.216 Y27.897 F600.000
G1 E2.40000 F3600.000
G1 X38.658 Y27.306 E0.04645 F1200.000
G1 X39.159 Y26.755 E0.04685
G1 X39.700 Y26.263 E0.04606
G1 X40.137 Y25.924 E0.03477
G1 X40.920 Y25.435 E0.05815
G1 X41.590 Y25.110 E0.04685
G1 X42.275 Y24.854 E0.04606
G1 X42.988 Y24.662 E0.04645
G1 X43.715 Y24.539 E0.04647
G1 X44.451 Y24.486 E0.04645
G1 X45.188 Y24.503 E0.04639
G1 X45.928 Y24.592 E0.04692
G1 X46.643 Y24.747 E0.04606
G1 X47.172 Y24.906 E0.03479
G1 X48.023 Y25.260 E0.05801
G1 X48.673 Y25.614 E0.04658
G1 X49.284 Y26.027 E0.04646
G1 X49.859 Y26.501 E0.04686
G1 X50.376 Y27.018 E0.04606
G1 X50.696 Y27.389 E0.03082
G1 X161.563 Y163.109 E11.03204
G1 X161.977 Y163.720 E0.04646
G1 X162.250 Y164.201 E0.03479
G1 X162.622 Y165.046 E0.05812
G1 X162.847 Y165.749 E0.04646
G1 X163.005 Y166.468 E0.04638
G1 X163.093 Y167.202 E0.04653
G1 X163.111 Y167.940 E0.04645
G1 X163.059 Y168.676 E0.04646
G1 X162.937 Y169.404 E0.04645
G1 X162.747 Y170.117 E0.04647
G1 X162.489 Y170.809 E0.04646
G1 X162.167 Y171.473 E0.04645
G1 X161.784 Y172.103 E0.04643
G1 X161.342 Y172.694 E0.04647
G1 X160.846 Y173.241 E0.04646
G1 X160.295 Y173.741 E0.04686
G1 X159.711 Y174.180 E0.04598
G1 X159.080 Y174.565 E0.04653
G1 X158.410 Y174.890 E0.04685
G1 X157.725 Y175.146 E0.04606
G1 X157.192 Y175.298 E0.03489
G1 X156.285 Y175.461 E0.05804
G1 X155.732 Y175.509 E0.03489
G1 X154.812 Y175.497 E0.05793
G1 X154.072 Y175.408 E0.04696
G1 X153.357 Y175.253 E0.04606
G1 X152.828 Y175.094 E0.03479
G1 X151.977 Y174.740 E0.05801
G1 X151.327 Y174.386 E0.04658
G1 X150.711 Y173.969 E0.04686
G1 X150.141 Y173.499 E0.04646
G1 X149.624 Y172.982 E0.04606
G1 X149.304 Y172.611 E0.03082
G1 X38.437 Y36.891 E11.03204
G1 X38.020 Y36.274 E0.04686
G1 X37.669 Y35.632 E0.04606
G1 X37.378 Y34.954 E0.04645
G1 X37.151 Y34.245 E0.04686
G1 X36.995 Y33.531 E0.04605
G1 X36.907 Y32.791 E0.04686
G1 X36.889 Y32.060 E0.04606
G1 X36.941 Y31.324 E0.04646
G1 X37.064 Y30.590 E0.04685
G1 X37.253 Y29.884 E0.04600
G1 X37.511 Y29.191 E0.04652
G1 X37.745 Y28.690 E0.03484
G1 X38.177 Y27.961 E0.05336
G1 F3600.000 E-2.40000
G1 X41.103 Y32.239 F600.000
G1 E2.40000 F3600.000
G1 X41.226 Y31.488 E0.04790 F1350.000
G1 X41.395 Y30.939 E0.03616
G1 X41.533 Y30.636 E0.02095
G1 X41.698 Y30.347 E0.02096
G1 X41.891 Y30.076 E0.02096
G1 X42.110 Y29.825 E0.02096
G1 X42.351 Y29.596 E0.02095
G1 X42.613 Y29.390 E0.02095
G1 X43.099 Y29.100 E0.03561
G1 X43.497 Y28.932 E0.02722
G1 X43.817 Y28.839 E0.02096
G1 X44.140 Y28.777 E0.02072
G1 X44.625 Y28.243 E0.04540
G1 F3600.000 E-2.40000
G1 X47.642 Y32.239 F600.000
G1 E2.40000 F3600.000
G1 X48.102 Y32.738 E0.04275 F1350.000
G1 X47.998 Y33.224 E0.03128
G1 X47.805 Y33.731 E0.03414
G1 X47.590 Y34.124 E0.02821
G1 X47.359 Y34.442 E0.02470
G1 X47.135 Y34.693 E0.02119
G1 X46.800 Y34.991 E0.02819
G1 X46.479 Y35.215 E0.02469
G1 X46.134 Y35.403 E0.02469
G1 X45.786 Y35.546 E0.02369
G1 X45.467 Y35.639 E0.02096
G1 X44.642 Y35.791 E0.05281
G1 F3600.000 E-2.40000
G1 X45.291 Y31.839 F600.000
G1 E2.40000 F3600.000
G1 X45.218 Y32.393 E0.03520 F1350.000
G1 X45.158 Y32.537 E0.00980
G1 X45.064 Y32.661 E0.00980
G1 X44.940 Y32.755 E0.00980
G1 X44.796 Y32.815 E0.00980
G1 X44.242 Y32.888 E0.03520
G1 X44.242 Y35.823 E0.18478
G1 X43.793 Y35.737 E0.02876
G1 X43.464 Y35.640 E0.02156
G1 X43.146 Y35.513 E0.02156
G1 X42.842 Y35.356 E0.02156
G1 X42.554 Y35.171 E0.02156
G1 X42.285 Y34.959 E0.02157
G1 X42.037 Y34.723 E0.02156
G1 X41.812 Y34.464 E0.02156
G1 X41.614 Y34.185 E0.02157
G1 X41.442 Y33.888 E0.02156
G1 X41.300 Y33.577 E0.02157
G1 X41.188 Y33.253 E0.02156
G1 X41.039 Y32.639 E0.03978
G1 X43.993 Y32.639 E0.18593
G1 X44.066 Y32.084 E0.03520
G1 X44.125 Y31.941 E0.00980
G1 X44.220 Y31.817 E0.00980
G1 X44.344 Y31.722 E0.00980
G1 X44.487 Y31.663 E0.00980
G1 X45.042 Y31.590 E0.03520
G1 X45.042 Y28.654 E0.18478
G1 X45.490 Y28.741 E0.02876
G1 X45.819 Y28.837 E0.02156
G1 X46.137 Y28.965 E0.02156
G1 X46.442 Y29.121 E0.02156
G1 X46.730 Y29.307 E0.02157
G1 X46.999 Y29.518 E0.02157
G1 X47.247 Y29.755 E0.02156
G1 X47.471 Y30.014 E0.02156
G1 X47.670 Y30.293 E0.02156
G1 X47.841 Y30.589 E0.02156
G1 X47.983 Y30.901 E0.02156
G1 X48.096 Y31.225 E0.02156
G1 X48.245 Y31.839 E0.03978
G1 X45.366 Y31.839 E0.18121
G1 X44.793 Y31.795 F600.000
G1 X45.799 Y31.082 F600.000
G1 X45.799 Y29.608 E0.09275 F1350.000
G1 X46.290 Y29.924 E0.03676
G1 X46.503 Y30.091 E0.01702
G1 X46.698 Y30.278 E0.01702
G1 X46.875 Y30.482 E0.01702
G1 X47.302 Y31.082 E0.04633
G1 X45.874 Y31.082 E0.08992
G1 F3600.000 E-2.40000
G1 X43.485 Y33.396 F600.000
G1 E2.40000 F3600.000
G1 X43.485 Y34.869 E0.09275 F1350.000
G1 X42.994 Y34.554 E0.03676
G1 X42.781 Y34.386 E0.01703
G1 X42.585 Y34.200 E0.01702
G1 X42.408 Y33.995 E0.01702
G1 X41.981 Y33.396 E0.04633
G1 X43.410 Y33.396 E0.08992
G1 F3600.000 E-2.40000
G1 X151.820 Y167.761 F600.000
G1 E2.40000 F3600.000
G1 X151.942 Y167.010 E0.04790 F1350.000
G1 X152.111 Y166.461 E0.03616
G1 X152.249 Y166.158 E0.02095
G1 X152.414 Y165.869 E0.02096
G1 X152.607 Y165.598 E0.02096
G1 X152.826 Y165.347 E0.02096
G1 X153.068 Y165.118 E0.02095
G1 X153.330 Y164.912 E0.02095
G1 X153.815 Y164.622 E0.03561
G1 X154.214 Y164.454 E0.02722
G1 X154.533 Y164.361 E0.02096
G1 X154.857 Y164.300 E0.02072
G1 X155.342 Y163.766 E0.04540
G1 F3600.000 E-2.40000
G1 X158.358 Y167.761 F600.000
G1 E2.40000 F3600.000
G1 X158.818 Y168.261 E0.04275 F1350.000
G1 X158.714 Y168.747 E0.03128
G1 X158.521 Y169.254 E0.03414
G1 X158.306 Y169.647 E0.02821
G1 X158.076 Y169.964 E0.02470
G1 X157.851 Y170.215 E0.02119
G1 X157.517 Y170.513 E0.02819
G1 X157.195 Y170.738 E0.02469
G1 X156.851 Y170.925 E0.02469
G1 X156.503 Y171.068 E0.02369
G1 X156.183 Y171.161 E0.02096
G1 X155.358 Y171.314 E0.05281
G1 F3600.000 E-2.40000
G1 X154.958 Y168.410 F600.000
G1 E2.40000 F3600.000
G1 X154.958 Y171.346 E0.18478 F1350.000
G1 X154.510 Y171.259 E0.02876
G1 X154.181 Y171.163 E0.02156
G1 X153.863 Y171.035 E0.02156
G1 X153.558 Y170.878 E0.02156
G1 X153.270 Y170.693 E0.02156
G1 X153.001 Y170.482 E0.02157
G1 X152.753 Y170.245 E0.02156
G1 X152.529 Y169.986 E0.02156
G1 X152.330 Y169.707 E0.02157
G1 X152.159 Y169.411 E0.02156
G1 X152.017 Y169.099 E0.02157
G1 X151.904 Y168.775 E0.02156
G1 X151.755 Y168.161 E0.03978
G1 X154.709 Y168.161 E0.18593
G1 X154.782 Y167.607 E0.03520
G1 X154.842 Y167.463 E0.00980
G1 X154.936 Y167.339 E0.00980
G1 X155.060 Y167.245 E0.00980
G1 X155.204 Y167.185 E0.00980
G1 X155.758 Y167.112 E0.03520
G1 X155.758 Y164.177 E0.18478
G1 X156.207 Y164.263 E0.02876
G1 X156.536 Y164.360 E0.02156
G1 X156.854 Y164.487 E0.02156
G1 X157.158 Y164.644 E0.02156
G1 X157.446 Y164.829 E0.02157
G1 X157.715 Y165.041 E0.02157
G1 X157.963 Y165.277 E0.02156
G1 X158.188 Y165.536 E0.02156
G1 X158.386 Y165.815 E0.02156
G1 X158.558 Y166.112 E0.02156
G1 X158.700 Y166.423 E0.02156
G1 X158.812 Y166.747 E0.02156
G1 X158.961 Y167.361 E0.03978
G1 X156.007 Y167.361 E0.18593
G1 X155.934 Y167.916 E0.03520
G1 X155.875 Y168.059 E0.00980
G1 X155.780 Y168.183 E0.00980
G1 X155.656 Y168.278 E0.00980
G1 X155.513 Y168.337 E0.00980
G1 X155.033 Y168.401 E0.03048
G1 X154.459 Y168.432 F600.000
G1 F3600.000 E-2.40000
G1 X156.515 Y166.604 F600.000
G1 E2.40000 F3600.000
G1 X156.515 Y165.131 E0.09275 F1350.000
G1 X157.007 Y165.446 E0.03676
G1 X157.219 Y165.614 E0.01702
G1 X157.415 Y165.800 E0.01702
G1 X157.592 Y166.005 E0.01702
G1 X158.019 Y166.604 E0.04633
G1 X156.590 Y166.604 E0.08992
G1 F3600.000 E-2.40000
G1 X154.201 Y168.918 F600.000
G1 E2.40000 F3600.000
G1 X154.201 Y170.392 E0.09275 F1350.000
G1 X153.710 Y170.076 E0.03676
G1 X153.497 Y169.909 E0.01703
G1 X153.302 Y169.722 E0.01702
G1 X153.125 Y169.518 E0.01702
G1 X152.698 Y168.918 E0.04633
G1 X154.126 Y168.918 E0.08992
M104 S170 ; set temperature
M140 S55 ; set bed temperature
G1 F3600.000 E-2.40000
G1 Z0.300 F600.000
G1 X41.928 Y34.826 F600.000
G1 E2.40000 F3600.000
G1 X41.694 Y34.557 E0.00742 F600.000
G1 X41.493 Y34.274 E0.00721
G1 X41.309 Y33.957 E0.00762
G1 X41.161 Y33.632 E0.00742
G1 X41.047 Y33.305 E0.00721
G1 X40.960 Y32.948 E0.00762
G1 X40.910 Y32.605 E0.00721
G1 X40.892 Y32.239 E0.00762
G1 X40.909 Y31.882 E0.00742
G1 X40.962 Y31.520 E0.00762
G1 X41.044 Y31.182 E0.00721
G1 X41.161 Y30.845 E0.00742
G1 X41.305 Y30.530 E0.00721
G1 X41.487 Y30.212 E0.00762
G1 X41.694 Y29.921 E0.00742
G1 X41.922 Y29.659 E0.00721
G1 X42.186 Y29.405 E0.00762
G1 X42.475 Y29.179 E0.00762
G1 X42.767 Y28.991 E0.00721
G1 X43.075 Y28.832 E0.00721
G1 X43.415 Y28.695 E0.00762
G1 X43.758 Y28.595 E0.00742
G1 X44.108 Y28.527 E0.00742
G1 X44.463 Y28.493 E0.00742
G1 X44.820 Y28.493 E0.00742
G1 X45.175 Y28.527 E0.00742
G1 X45.526 Y28.595 E0.00742
G1 X45.859 Y28.693 E0.00721
G1 X46.199 Y28.828 E0.00762
G1 X46.517 Y28.991 E0.00742
G1 X46.817 Y29.184 E0.00742
G1 X47.097 Y29.405 E0.00742
G1 X47.356 Y29.651 E0.00742
G1 X47.589 Y29.921 E0.00742
G1 X47.796 Y30.212 E0.00742
G1 X47.979 Y30.530 E0.00762
G1 X48.123 Y30.845 E0.00721
G1 X48.240 Y31.182 E0.00742
G1 X48.324 Y31.529 E0.00742
G1 X48.375 Y31.882 E0.00742
G1 X48.392 Y32.239 E0.00742
G1 X48.375 Y32.595 E0.00742
G1 X48.324 Y32.948 E0.00742
G1 X48.240 Y33.295 E0.00742
G1 X48.123 Y33.632 E0.00742
G1 X47.975 Y33.957 E0.00742
G1 X47.796 Y34.266 E0.00742
G1 X47.589 Y34.557 E0.00742
G1 X47.356 Y34.826 E0.00742
G1 X47.097 Y35.073 E0.00742
G1 X46.817 Y35.293 E0.00742
G1 X46.517 Y35.486 E0.00742
G1 X46.190 Y35.653 E0.00762
G1 X45.868 Y35.782 E0.00721
G1 X45.516 Y35.885 E0.00762
G1 X45.175 Y35.950 E0.00721
G1 X44.810 Y35.984 E0.00762
G1 X44.463 Y35.984 E0.00721
G1 X44.108 Y35.950 E0.00742
G1 X43.758 Y35.883 E0.00742
G1 X43.406 Y35.779 E0.00762
G1 X43.084 Y35.650 E0.00721
G1 X42.767 Y35.486 E0.00742
G1 X42.459 Y35.287 E0.00762
G1 X42.186 Y35.073 E0.00721
G1 X41.982 Y34.878 E0.00586
G1 X42.034 Y34.486 F600.000
G1 F3600.000 E-2.40000
G1 X45.392 Y31.489 F600.000
G1 E2.40000 F3600.000
G1 X45.392 Y29.077 E0.05015 F600.000
G1 X45.704 Y29.168 E0.00677
G1 X45.992 Y29.283 E0.00643
G1 X46.266 Y29.425 E0.00643
G1 X46.526 Y29.592 E0.00643
G1 X46.770 Y29.783 E0.00643
G1 X46.993 Y29.997 E0.00643
G1 X47.196 Y30.230 E0.00643
G1 X47.375 Y30.482 E0.00643
G1 X47.530 Y30.750 E0.00643
G1 X47.658 Y31.031 E0.00643
G1 X47.817 Y31.489 E0.01007
G1 X45.467 Y31.489 E0.04885
G1 X44.922 Y31.958 F600.000
G1 X44.877 Y32.302 E0.00720 F600.000
G1 X44.814 Y32.411 E0.00262
G1 X44.705 Y32.474 E0.00262
G1 X44.361 Y32.519 E0.00720
G1 X44.407 Y32.176 E0.00720
G1 X44.470 Y32.067 E0.00262
G1 X44.579 Y32.004 E0.00262
G1 X44.848 Y31.968 E0.00564
G1 X43.892 Y32.989 F600.000
G1 X43.892 Y35.401 E0.05015 F600.000
G1 X43.579 Y35.309 E0.00677
G1 X43.292 Y35.194 E0.00643
G1 X43.017 Y35.053 E0.00643
G1 X42.757 Y34.886 E0.00643
G1 X42.514 Y34.694 E0.00643
G1 X42.290 Y34.481 E0.00643
G1 X42.088 Y34.247 E0.00643
G1 X41.908 Y33.995 E0.00643
G1 X41.754 Y33.728 E0.00643
G1 X41.625 Y33.446 E0.00643
G1 X41.467 Y32.989 E0.01007
G1 X43.817 Y32.989 E0.04885
G1 X44.392 Y33.020 F600.000
G1 X44.835 Y32.961 E0.00930 F600.000
G1 X45.016 Y32.886 E0.00406
G1 X45.171 Y32.768 E0.00406
G1 X45.289 Y32.613 E0.00406
G1 X45.364 Y32.432 E0.00406
G1 X45.423 Y31.989 E0.00930
G1 X47.906 Y31.989 E0.05163
G1 X47.872 Y32.603 E0.01278
G1 X47.811 Y32.962 E0.00758
G1 X47.710 Y33.312 E0.00758
G1 X47.570 Y33.649 E0.00758
G1 X47.394 Y33.968 E0.00758
G1 X47.183 Y34.265 E0.00758
G1 X46.940 Y34.537 E0.00758
G1 X46.668 Y34.780 E0.00758
G1 X46.371 Y34.991 E0.00758
G1 X46.052 Y35.167 E0.00758
G1 X45.715 Y35.307 E0.00758
G1 X45.365 Y35.408 E0.00758
G1 X45.006 Y35.469 E0.00758
G1 X44.392 Y35.503 E0.01278
G1 X44.392 Y33.095 E0.05007
G1 X44.353 Y32.574 F600.000
G1 X43.861 Y32.489 F600.000
G1 X41.377 Y32.489 E0.05163 F600.000
G1 X41.412 Y31.875 E0.01278
G1 X41.473 Y31.516 E0.00758
G1 X41.574 Y31.165 E0.00758
G1 X41.713 Y30.829 E0.00758
G1 X41.890 Y30.509 E0.00758
G1 X42.101 Y30.212 E0.00758
G1 X42.343 Y29.940 E0.00758
G1 X42.615 Y29.698 E0.00758
G1 X42.912 Y29.487 E0.00758
G1 X43.231 Y29.310 E0.00758
G1 X43.568 Y29.171 E0.00758
G1 X43.919 Y29.070 E0.00758
G1 X44.278 Y29.009 E0.00758
G1 X44.892 Y28.974 E0.01278
G1 X44.892 Y31.458 E0.05163
G1 X44.448 Y31.516 E0.00930
G1 X44.268 Y31.591 E0.00406
G1 X44.113 Y31.710 E0.00406
G1 X43.994 Y31.865 E0.00406
G1 X43.919 Y32.045 E0.00406
G1 X43.871 Y32.414 E0.00774
G1 X43.839 Y32.988 F600.000
G1 X42.553 Y33.661 F600.000
G1 X42.519 Y33.695 E0.00167 F600.000
G1 X43.186 Y34.362 E0.03249
G1 X43.220 Y34.328 E0.00168
G1 F3600.000 E-2.40000
G1 X46.764 Y30.783 F600.000
G1 E2.40000 F3600.000
G1 X46.730 Y30.817 E0.00167 F600.000
G1 X46.064 Y30.150 E0.03249
G1 X46.098 Y30.115 E0.00168
G1 F3600.000 E-2.40000
G1 X151.764 Y168.827 F600.000
G1 E2.40000 F3600.000
G1 X151.676 Y168.471 E0.00762 F600.000
G1 X151.627 Y168.127 E0.00721
G1 X151.608 Y167.761 E0.00762
G1 X151.625 Y167.405 E0.00742
G1 X151.679 Y167.042 E0.00762
G1 X151.760 Y166.705 E0.00721
G1 X151.877 Y166.368 E0.00742
G1 X152.021 Y166.052 E0.00721
G1 X152.204 Y165.734 E0.00762
G1 X152.411 Y165.443 E0.00742
G1 X152.638 Y165.181 E0.00721
G1 X152.903 Y164.927 E0.00762
G1 X153.192 Y164.701 E0.00762
G1 X153.483 Y164.514 E0.00721
G1 X153.792 Y164.355 E0.00721
G1 X154.132 Y164.218 E0.00762
G1 X154.474 Y164.117 E0.00742
G1 X154.825 Y164.050 E0.00742
G1 X155.180 Y164.016 E0.00742
G1 X155.537 Y164.016 E0.00742
G1 X155.892 Y164.050 E0.00742
G1 X156.242 Y164.117 E0.00742
G1 X156.575 Y164.215 E0.00721
G1 X156.916 Y164.350 E0.00762
G1 X157.233 Y164.514 E0.00742
G1 X157.533 Y164.707 E0.00742
G1 X157.814 Y164.927 E0.00742
G1 X158.072 Y165.174 E0.00742
G1 X158.306 Y165.443 E0.00742
G1 X158.513 Y165.734 E0.00742
G1 X158.695 Y166.052 E0.00762
G1 X158.839 Y166.368 E0.00721
G1 X158.956 Y166.705 E0.00742
G1 X159.040 Y167.052 E0.00742
G1 X159.091 Y167.405 E0.00742
G1 X159.108 Y167.761 E0.00742
G1 X159.091 Y168.118 E0.00742
G1 X159.040 Y168.471 E0.00742
G1 X158.956 Y168.818 E0.00742
G1 X158.839 Y169.155 E0.00742
G1 X158.691 Y169.479 E0.00742
G1 X158.513 Y169.788 E0.00742
G1 X158.306 Y170.079 E0.00742
G1 X158.072 Y170.349 E0.00742
G1 X157.814 Y170.595 E0.00742
G1 X157.533 Y170.816 E0.00742
G1 X157.233 Y171.009 E0.00742
G1 X156.925 Y171.168 E0.00721
G1 X156.585 Y171.305 E0.00762
G1 X156.233 Y171.407 E0.00762
G1 X155.892 Y171.473 E0.00721
G1 X155.547 Y171.506 E0.00721
G1 X155.180 Y171.507 E0.00762
G1 X154.825 Y171.473 E0.00742
G1 X154.474 Y171.405 E0.00742
G1 X154.141 Y171.307 E0.00721
G1 X153.800 Y171.172 E0.00762
G1 X153.483 Y171.009 E0.00742
G1 X153.192 Y170.821 E0.00721
G1 X152.903 Y170.595 E0.00762
G1 X152.644 Y170.349 E0.00742
G1 X152.411 Y170.079 E0.00742
G1 X152.199 Y169.780 E0.00762
G1 X152.025 Y169.479 E0.00721
G1 X151.877 Y169.155 E0.00742
G1 X151.788 Y168.898 E0.00565
G1 X152.020 Y168.565 F600.000
G1 F3600.000 E-2.40000
G1 X156.108 Y167.011 F600.000
G1 E2.40000 F3600.000
G1 X156.108 Y164.599 E0.05015 F600.000
G1 X156.421 Y164.691 E0.00677
G1 X156.708 Y164.806 E0.00643
G1 X156.983 Y164.947 E0.00643
G1 X157.243 Y165.114 E0.00643
G1 X157.486 Y165.306 E0.00643
G1 X157.710 Y165.519 E0.00643
G1 X157.912 Y165.753 E0.00643
G1 X158.092 Y166.005 E0.00643
G1 X158.246 Y166.272 E0.00643
G1 X158.375 Y166.554 E0.00643
G1 X158.533 Y167.011 E0.01007
G1 X156.183 Y167.011 E0.04885
G1 X155.639 Y167.481 F600.000
G1 X155.593 Y167.824 E0.00720 F600.000
G1 X155.530 Y167.933 E0.00262
G1 X155.421 Y167.996 E0.00262
G1 X155.078 Y168.042 E0.00720
G1 X155.123 Y167.698 E0.00720
G1 X155.186 Y167.589 E0.00262
G1 X155.295 Y167.526 E0.00262
G1 X155.564 Y167.491 E0.00564
G1 X154.608 Y168.511 F600.000
G1 X154.608 Y170.923 E0.05015 F600.000
G1 X154.296 Y170.832 E0.00677
G1 X154.008 Y170.717 E0.00643
G1 X153.734 Y170.575 E0.00643
G1 X153.474 Y170.408 E0.00643
G1 X153.230 Y170.217 E0.00643
G1 X153.007 Y170.003 E0.00643
