; generated by Slic3r 1.1.7 on 2015-02-15 at 18:25:39

; perimeters extrusion width = 0.50mm
; infill extrusion width = 1.98mm
; solid infill extrusion width = 0.85mm
; top infill extrusion width = 0.85mm

G21 ; set units to millimeters
M107
M190 S65 ; wait for bed temperature to be reached
M104 S185 ; set temperature
G28 Z0
M83
M109 S185 ; wait for temperature to be reached
G90 ; use absolute coordinates
M83 ; use relative distances for extrusion
G1 F3600.000 E-2.40000
G1 Z0.200 F600.000
G1 X32.079 Y37.100 F600.000
G1 E2.40000 F3600.000
G1 X32.541 Y36.725 E0.03748 F1200.000
G1 X33.014 Y36.385 E0.03671
G1 X33.513 Y36.070 E0.03711
G1 X34.035 Y35.784 E0.03748
G1 X34.893 Y35.398 E0.05919
G1 X35.667 Y35.131 E0.05160
G1 X36.238 Y34.979 E0.03720
G1 X36.814 Y34.862 E0.03695
G1 X37.400 Y34.780 E0.03725
G1 X37.993 Y34.733 E0.03747
G1 X38.576 Y34.722 E0.03672
G1 X39.164 Y34.747 E0.03703
G1 X39.751 Y34.807 E0.03717
G1 X40.339 Y34.904 E0.03748
G1 X40.908 Y35.033 E0.03672
G1 X41.472 Y35.197 E0.03701
G1 X42.028 Y35.396 E0.03719
G1 X42.570 Y35.628 E0.03710
G1 X43.096 Y35.892 E0.03708
G1 X43.607 Y36.188 E0.03712
G1 X44.098 Y36.514 E0.03710
G1 X44.567 Y36.867 E0.03701
G1 X44.958 Y37.197 E0.03219
G1 X168.091 Y148.296 E10.44019
G1 X168.516 Y148.705 E0.03710
G1 X168.915 Y149.138 E0.03710
G1 X169.290 Y149.600 E0.03748
G1 X169.630 Y150.074 E0.03671
G1 X169.944 Y150.573 E0.03711
G1 X170.227 Y151.087 E0.03697
G1 X170.480 Y151.622 E0.03723
G1 X170.699 Y152.169 E0.03710
G1 X170.885 Y152.728 E0.03710
G1 X171.036 Y153.298 E0.03710
G1 X171.153 Y153.873 E0.03695
G1 X171.235 Y154.459 E0.03725
G1 X171.282 Y155.045 E0.03700
G1 X171.293 Y155.636 E0.03720
G1 X171.268 Y156.225 E0.03709
G1 X171.208 Y156.811 E0.03710
G1 X171.112 Y157.392 E0.03710
G1 X170.982 Y157.967 E0.03710
G1 X170.817 Y158.533 E0.03710
G1 X170.619 Y159.088 E0.03710
G1 X170.387 Y159.630 E0.03710
G1 X170.123 Y160.156 E0.03710
G1 X169.827 Y160.666 E0.03710
G1 X169.501 Y161.157 E0.03710
G1 X169.147 Y161.627 E0.03701
G1 X168.764 Y162.076 E0.03718
G1 X168.356 Y162.500 E0.03704
G1 X167.921 Y162.900 E0.03716
G1 X167.466 Y163.270 E0.03695
G1 X166.981 Y163.619 E0.03763
G1 X166.487 Y163.930 E0.03671
G1 X165.970 Y164.213 E0.03710
G1 X165.438 Y164.465 E0.03710
G1 X164.552 Y164.801 E0.05961
G1 X163.762 Y165.021 E0.05167
G1 X163.178 Y165.139 E0.03748
G1 X162.600 Y165.220 E0.03672
G1 X162.013 Y165.267 E0.03709
G1 X161.424 Y165.278 E0.03710
G1 X160.835 Y165.253 E0.03709
G1 X160.249 Y165.193 E0.03711
G1 X159.661 Y165.096 E0.03747
G1 X159.092 Y164.967 E0.03672
G1 X158.527 Y164.802 E0.03710
G1 X157.966 Y164.601 E0.03748
G1 X157.430 Y164.372 E0.03672
G1 X156.903 Y164.108 E0.03710
G1 X156.393 Y163.812 E0.03710
G1 X155.902 Y163.486 E0.03710
G1 X155.433 Y163.133 E0.03700
G1 X155.042 Y162.803 E0.03220
G1 X31.909 Y51.704 E10.44019
G1 X31.485 Y51.296 E0.03704
G1 X31.085 Y50.862 E0.03716
G1 X30.713 Y50.405 E0.03709
G1 X30.370 Y49.926 E0.03709
G1 X30.056 Y49.427 E0.03711
G1 X29.773 Y48.913 E0.03697
G1 X29.520 Y48.378 E0.03723
G1 X29.301 Y47.831 E0.03710
G1 X29.116 Y47.273 E0.03700
G1 X28.964 Y46.702 E0.03720
G1 X28.847 Y46.124 E0.03709
G1 X28.765 Y45.541 E0.03710
G1 X28.718 Y44.955 E0.03700
G1 X28.707 Y44.364 E0.03720
G1 X28.732 Y43.776 E0.03703
G1 X28.792 Y43.189 E0.03717
G1 X28.889 Y42.602 E0.03748
G1 X29.018 Y42.033 E0.03672
G1 X29.182 Y41.468 E0.03701
G1 X29.381 Y40.912 E0.03719
G1 X29.613 Y40.370 E0.03710
G1 X29.880 Y39.838 E0.03748
G1 X30.173 Y39.334 E0.03672
G1 X30.499 Y38.843 E0.03710
G1 X30.853 Y38.373 E0.03701
G1 X31.236 Y37.924 E0.03719
G1 X31.644 Y37.500 E0.03704
G1 X32.023 Y37.151 E0.03244
G1 F3600.000 E-2.40000
G1 X32.941 Y44.478 F600.000
G1 E2.40000 F3600.000
G1 X33.004 Y43.815 E0.04191 F1350.000
G1 X33.066 Y43.423 E0.02499
G1 X33.157 Y43.034 E0.02514
G1 X33.321 Y42.528 E0.03350
G1 X33.531 Y42.045 E0.03313
G1 X33.757 Y41.633 E0.02959
G1 X34.090 Y41.143 E0.03729
G1 X34.346 Y40.831 E0.02543
G1 X34.590 Y40.573 E0.02233
G1 X35.071 Y40.149 E0.04039
G1 X35.392 Y39.916 E0.02499
G1 X35.715 Y39.714 E0.02394
G1 X36.206 Y39.463 E0.03470
G1 X36.827 Y39.228 E0.04180
G1 X37.408 Y39.081 E0.03772
G1 X37.963 Y39.003 E0.03528
G1 X38.442 Y38.478 E0.04474
G1 F3600.000 E-2.40000
G1 X43.463 Y44.478 F600.000
G1 E2.40000 F3600.000
G1 X43.937 Y44.978 E0.04338 F1350.000
G1 X43.872 Y45.469 E0.03120
G1 X43.802 Y45.794 E0.02091
G1 X43.604 Y46.427 E0.04180
G1 X43.332 Y47.033 E0.04179
G1 X42.988 Y47.601 E0.04180
G1 X42.579 Y48.125 E0.04181
G1 X42.110 Y48.594 E0.04181
G1 X41.797 Y48.850 E0.02543
G1 X41.307 Y49.183 E0.03728
G1 X40.719 Y49.492 E0.04180
G1 X40.237 Y49.682 E0.03265
G1 X39.779 Y49.817 E0.03006
G1 X39.189 Y49.928 E0.03777
G1 X38.463 Y50.000 E0.04595
G1 F3600.000 E-2.40000
G1 X38.063 Y45.127 F600.000
G1 E2.40000 F3600.000
G1 X38.063 Y50.078 E0.31171 F1350.000
G1 X37.453 Y49.986 E0.03881
G1 X37.123 Y49.915 E0.02129
G1 X36.797 Y49.824 E0.02130
G1 X36.164 Y49.584 E0.04257
G1 X35.860 Y49.436 E0.02130
G1 X35.282 Y49.086 E0.04256
G1 X35.009 Y48.886 E0.02130
G1 X34.503 Y48.437 E0.04257
G1 X34.055 Y47.931 E0.04257
G1 X33.854 Y47.659 E0.02130
G1 X33.670 Y47.375 E0.02129
G1 X33.356 Y46.776 E0.04257
G1 X33.116 Y46.144 E0.04257
G1 X33.026 Y45.818 E0.02129
G1 X32.955 Y45.487 E0.02130
G1 X32.862 Y44.878 E0.03880
G1 X37.813 Y44.878 E0.31171
G1 X37.886 Y44.323 E0.03520
G1 X37.946 Y44.179 E0.00980
G1 X38.041 Y44.056 E0.00980
G1 X38.164 Y43.961 E0.00981
G1 X38.308 Y43.901 E0.00980
G1 X38.863 Y43.828 E0.03520
G1 X38.863 Y38.877 E0.31171
G1 X39.472 Y38.970 E0.03880
G1 X39.803 Y39.041 E0.02129
G1 X40.129 Y39.131 E0.02130
G1 X40.761 Y39.371 E0.04257
G1 X41.065 Y39.519 E0.02130
G1 X41.644 Y39.869 E0.04256
G1 X41.916 Y40.070 E0.02130
G1 X42.422 Y40.518 E0.04257
G1 X42.654 Y40.764 E0.02129
G1 X43.071 Y41.297 E0.04257
G1 X43.255 Y41.581 E0.02129
G1 X43.569 Y42.179 E0.04257
G1 X43.809 Y42.812 E0.04257
G1 X43.900 Y43.137 E0.02129
G1 X43.971 Y43.468 E0.02130
G1 X44.064 Y44.078 E0.03880
G1 X39.112 Y44.078 E0.31171
G1 X39.039 Y44.632 E0.03520
G1 X38.979 Y44.776 E0.00980
G1 X38.885 Y44.899 E0.00980
G1 X38.761 Y44.994 E0.00981
G1 X38.617 Y45.054 E0.00980
G1 X38.137 Y45.117 E0.03048
G1 X37.563 Y45.149 F600.000
G1 F3600.000 E-2.40000
G1 X39.620 Y43.321 F600.000
G1 E2.40000 F3600.000
G1 X39.620 Y39.757 E0.22435 F1350.000
G1 X40.450 Y40.062 E0.05569
G1 X40.968 Y40.334 E0.03681
G1 X41.449 Y40.666 E0.03681
G1 X41.887 Y41.054 E0.03681
G1 X42.275 Y41.491 E0.03681
G1 X42.607 Y41.972 E0.03681
G1 X42.878 Y42.490 E0.03681
G1 X43.184 Y43.321 E0.05569
G1 X39.695 Y43.321 E0.21963
G1 F3600.000 E-2.40000
G1 X37.306 Y45.635 F600.000
G1 E2.40000 F3600.000
G1 X37.306 Y49.199 E0.22435 F1350.000
G1 X36.475 Y48.893 E0.05568
G1 X35.958 Y48.622 E0.03681
G1 X35.476 Y48.289 E0.03681
G1 X35.039 Y47.902 E0.03681
G1 X34.651 Y47.464 E0.03681
G1 X34.319 Y46.983 E0.03681
G1 X34.047 Y46.465 E0.03681
G1 X33.742 Y45.635 E0.05569
G1 X37.231 Y45.635 E0.21963
G1 X36.737 Y46.164 F600.000
G1 X36.777 Y46.204 E0.00356 F1200.000
G1 X36.777 Y47.533 E0.08368
G1 X35.407 Y46.164 E0.12191
G1 X35.193 Y47.279 E0.07148
G1 X35.662 Y47.747 E0.04170
G1 F3600.000 E-2.40000
G1 X40.189 Y42.792 F600.000
G1 E2.40000 F3600.000
G1 X40.149 Y42.752 E0.00356 F1200.000
G1 X40.149 Y41.428 E0.08333
G1 X41.512 Y42.792 E0.12141
G1 X41.793 Y41.748 E0.06801
G1 X41.192 Y41.147 E0.05352
G1 F3600.000 E-2.40000
G1 X156.015 Y155.522 F600.000
G1 E2.40000 F3600.000
G1 X156.078 Y154.860 E0.04191 F1350.000
G1 X156.140 Y154.467 E0.02499
G1 X156.232 Y154.079 E0.02514
G1 X156.396 Y153.573 E0.03350
G1 X156.606 Y153.090 E0.03313
G1 X156.832 Y152.678 E0.02959
G1 X157.165 Y152.188 E0.03729
G1 X157.421 Y151.875 E0.02543
G1 X157.665 Y151.618 E0.02233
G1 X158.146 Y151.193 E0.04039
G1 X158.467 Y150.960 E0.02499
G1 X158.790 Y150.759 E0.02394
G1 X159.281 Y150.508 E0.03470
G1 X159.901 Y150.273 E0.04180
G1 X160.482 Y150.126 E0.03772
G1 X161.037 Y150.048 E0.03528
G1 X161.517 Y149.523 E0.04474
G1 F3600.000 E-2.40000
G1 X166.537 Y155.523 F600.000
G1 E2.40000 F3600.000
G1 X167.012 Y156.022 E0.04338 F1350.000
G1 X166.946 Y156.514 E0.03120
G1 X166.876 Y156.838 E0.02091
G1 X166.679 Y157.472 E0.04180
G1 X166.406 Y158.078 E0.04179
G1 X166.063 Y158.646 E0.04180
G1 X165.654 Y159.169 E0.04181
G1 X165.184 Y159.639 E0.04181
G1 X164.872 Y159.895 E0.02543
G1 X164.382 Y160.228 E0.03728
G1 X163.794 Y160.537 E0.04180
G1 X163.311 Y160.727 E0.03265
G1 X162.853 Y160.861 E0.03006
G1 X162.264 Y160.973 E0.03777
G1 X161.537 Y161.044 E0.04595
G1 F3600.000 E-2.40000
G1 X160.888 Y155.922 F600.000
G1 E2.40000 F3600.000
G1 X160.961 Y155.368 E0.03520 F1350.000
G1 X161.021 Y155.224 E0.00980
G1 X161.115 Y155.101 E0.00980
G1 X161.239 Y155.006 E0.00981
G1 X161.383 Y154.946 E0.00980
G1 X161.937 Y154.873 E0.03520
G1 X161.937 Y149.922 E0.31171
G1 X162.547 Y150.014 E0.03880
G1 X162.877 Y150.085 E0.02129
G1 X163.203 Y150.176 E0.02130
G1 X163.836 Y150.416 E0.04257
G1 X164.140 Y150.564 E0.02130
G1 X164.718 Y150.914 E0.04256
G1 X164.991 Y151.114 E0.02130
G1 X165.497 Y151.563 E0.04257
G1 X165.729 Y151.809 E0.02129
G1 X166.146 Y152.341 E0.04257
G1 X166.330 Y152.625 E0.02129
G1 X166.644 Y153.224 E0.04257
G1 X166.884 Y153.856 E0.04257
G1 X166.974 Y154.182 E0.02129
G1 X167.045 Y154.513 E0.02130
G1 X167.138 Y155.122 E0.03880
G1 X162.187 Y155.122 E0.31171
G1 X162.114 Y155.677 E0.03520
G1 X162.054 Y155.821 E0.00980
G1 X161.959 Y155.944 E0.00980
G1 X161.836 Y156.039 E0.00981
G1 X161.692 Y156.099 E0.00980
G1 X161.137 Y156.172 E0.03520
G1 X161.137 Y161.123 E0.31171
G1 X160.528 Y161.030 E0.03881
G1 X160.197 Y160.959 E0.02129
G1 X159.871 Y160.869 E0.02130
G1 X159.239 Y160.629 E0.04257
G1 X158.935 Y160.481 E0.02130
G1 X158.356 Y160.131 E0.04256
G1 X158.084 Y159.930 E0.02130
G1 X157.578 Y159.482 E0.04257
G1 X157.129 Y158.976 E0.04257
G1 X156.929 Y158.703 E0.02130
G1 X156.745 Y158.419 E0.02129
G1 X156.431 Y157.821 E0.04257
G1 X156.191 Y157.188 E0.04257
G1 X156.100 Y156.863 E0.02129
G1 X156.029 Y156.532 E0.02130
G1 X155.936 Y155.922 E0.03880
G1 X160.813 Y155.922 E0.30699
G1 X161.386 Y155.966 F600.000
G1 F3600.000 E-2.40000
G1 X162.694 Y154.365 F600.000
G1 E2.40000 F3600.000
G1 X162.694 Y150.801 E0.22435 F1350.000
G1 X163.525 Y151.107 E0.05569
G1 X164.042 Y151.378 E0.03681
G1 X164.524 Y151.711 E0.03681
G1 X164.961 Y152.098 E0.03681
G1 X165.349 Y152.536 E0.03681
G1 X165.681 Y153.017 E0.03681
G1 X165.953 Y153.535 E0.03681
G1 X166.258 Y154.365 E0.05569
G1 X162.769 Y154.365 E0.21963
G1 F3600.000 E-2.40000
G1 X160.380 Y156.679 F600.000
G1 E2.40000 F3600.000
G1 X160.380 Y160.243 E0.22435 F1350.000
G1 X159.550 Y159.938 E0.05568
G1 X159.032 Y159.666 E0.03681
G1 X158.551 Y159.334 E0.03681
G1 X158.113 Y158.946 E0.03681
G1 X157.725 Y158.509 E0.03681
G1 X157.393 Y158.028 E0.03681
G1 X157.122 Y157.510 E0.03681
G1 X156.816 Y156.679 E0.05569
G1 X160.305 Y156.679 E0.21963
G1 X159.811 Y157.208 F600.000
G1 X159.851 Y157.248 E0.00356 F1200.000
G1 X159.851 Y158.578 E0.08368
G1 X158.482 Y157.208 E0.12191
G1 X158.268 Y158.323 E0.07148
G1 X158.736 Y158.792 E0.04170
G1 F3600.000 E-2.40000
G1 X163.263 Y153.836 F600.000
G1 E2.40000 F3600.000
G1 X163.223 Y153.796 E0.00356 F1200.000
G1 X163.223 Y152.473 E0.08333
G1 X164.587 Y153.836 E0.12141
G1 X164.868 Y152.793 E0.06801
G1 X164.266 Y152.192 E0.05352
M104 S170 ; set temperature
M140 S55 ; set bed temperature
G1 F3600.000 E-2.40000
G1 Z0.300 F600.000
G1 X34.392 Y48.538 F600.000
G1 E2.40000 F3600.000
G1 X33.936 Y48.024 E0.01428 F1048.779
G1 X33.542 Y47.452 E0.01443
G1 X33.219 Y46.837 E0.01443
G1 X33.086 Y46.517 E0.00722
G1 X32.880 Y45.854 E0.01443
G1 X32.807 Y45.514 E0.00722
G1 X32.755 Y45.171 E0.00722
G1 X32.713 Y44.478 E0.01443
G1 X32.755 Y43.785 E0.01443
G1 X32.880 Y43.102 E0.01443
G1 X33.086 Y42.439 E0.01443
G1 X33.219 Y42.118 E0.00722
G1 X33.542 Y41.503 E0.01443
G1 X33.731 Y41.211 E0.00722
G1 X34.159 Y40.665 E0.01443
G1 X34.397 Y40.412 E0.00722
G1 X34.650 Y40.174 E0.00722
G1 X35.196 Y39.746 E0.01443
G1 X35.791 Y39.386 E0.01443
G1 X36.417 Y39.104 E0.01428
G1 X36.752 Y38.988 E0.00738
G1 X37.426 Y38.822 E0.01443
G1 X37.770 Y38.770 E0.00722
G1 X38.463 Y38.728 E0.01443
G1 X39.156 Y38.770 E0.01443
G1 X39.839 Y38.895 E0.01443
G1 X40.502 Y39.101 E0.01443
G1 X40.823 Y39.234 E0.00722
G1 X41.437 Y39.557 E0.01443
G1 X41.729 Y39.746 E0.00722
G1 X42.276 Y40.174 E0.01443
G1 X42.528 Y40.412 E0.00722
G1 X42.771 Y40.671 E0.00738
G1 X43.195 Y41.211 E0.01428
G1 X43.550 Y41.799 E0.01428
G1 X43.706 Y42.118 E0.00738
G1 X43.841 Y42.446 E0.00738
G1 X44.045 Y43.102 E0.01428
G1 X44.171 Y43.785 E0.01443
G1 X44.213 Y44.478 E0.01443
G1 X44.171 Y45.171 E0.01443
G1 X44.045 Y45.854 E0.01443
G1 X43.841 Y46.509 E0.01428
G1 X43.706 Y46.837 E0.00738
G1 X43.383 Y47.452 E0.01443
G1 X43.195 Y47.744 E0.00722
G1 X42.767 Y48.290 E0.01443
G1 X42.528 Y48.543 E0.00722
G1 X42.009 Y49.004 E0.01443
G1 X41.723 Y49.214 E0.00738
G1 X41.135 Y49.569 E0.01428
G1 X40.502 Y49.854 E0.01443
G1 X40.166 Y49.969 E0.00738
G1 X39.499 Y50.133 E0.01428
G1 X39.148 Y50.186 E0.00738
G1 X38.463 Y50.227 E0.01428
G1 X37.777 Y50.186 E0.01428
G1 X37.426 Y50.133 E0.00738
G1 X37.079 Y50.058 E0.00738
G1 X36.424 Y49.854 E0.01428
G1 X36.096 Y49.718 E0.00738
G1 X35.488 Y49.398 E0.01428
G1 X34.917 Y49.004 E0.01443
G1 X34.446 Y48.590 E0.01303
G1 X34.531 Y48.058 F600.000
G1 F3600.000 E-2.40000
G1 X39.213 Y43.728 F600.000
G1 E2.40000 F3600.000
G1 X39.213 Y39.272 E0.09263 F1048.779
G1 X40.024 Y39.466 E0.01735
G1 X40.324 Y39.569 E0.00659
G1 X40.902 Y39.829 E0.01318
G1 X41.445 Y40.157 E0.01318
G1 X41.700 Y40.345 E0.00659
G1 X42.175 Y40.766 E0.01318
G1 X42.595 Y41.240 E0.01318
G1 X42.783 Y41.495 E0.00659
G1 X43.111 Y42.038 E0.01318
G1 X43.250 Y42.323 E0.00659
G1 X43.475 Y42.916 E0.01318
G1 X43.668 Y43.728 E0.01735
G1 X39.288 Y43.728 E0.09107
G1 X38.743 Y44.197 F600.000
G1 X38.698 Y44.541 E0.00720 F1048.779
G1 X38.674 Y44.599 E0.00132
G1 X38.635 Y44.650 E0.00132
G1 X38.526 Y44.713 E0.00262
G1 X38.182 Y44.758 E0.00720
G1 X38.227 Y44.415 E0.00720
G1 X38.290 Y44.305 E0.00262
G1 X38.341 Y44.267 E0.00132
G1 X38.400 Y44.242 E0.00132
G1 X38.669 Y44.207 E0.00564
G1 X37.713 Y45.228 F600.000
G1 X37.713 Y49.683 E0.09263 F1048.779
G1 X36.901 Y49.490 E0.01735
G1 X36.308 Y49.265 E0.01318
G1 X36.023 Y49.126 E0.00659
G1 X35.481 Y48.798 E0.01318
G1 X34.982 Y48.407 E0.01318
G1 X34.751 Y48.190 E0.00659
G1 X34.330 Y47.715 E0.01318
G1 X34.142 Y47.460 E0.00659
G1 X33.814 Y46.917 E0.01318
G1 X33.676 Y46.632 E0.00659
G1 X33.451 Y46.039 E0.01318
G1 X33.257 Y45.228 E0.01735
G1 X37.638 Y45.228 E0.09107
G1 X38.213 Y45.258 F600.000
G1 X38.656 Y45.200 E0.00930 F1048.779
G1 X38.837 Y45.125 E0.00406
G1 X38.992 Y45.006 E0.00406
G1 X39.110 Y44.852 E0.00406
G1 X39.185 Y44.671 E0.00406
G1 X39.243 Y44.228 E0.00930
G1 X43.721 Y44.228 E0.09308
G1 X43.702 Y44.818 E0.01229
G1 X43.668 Y45.158 E0.00710
G1 X43.608 Y45.521 E0.00766
G1 X43.438 Y46.154 E0.01362
G1 X43.166 Y46.810 E0.01475
G1 X42.839 Y47.377 E0.01362
G1 X42.625 Y47.677 E0.00766
G1 X42.193 Y48.171 E0.01362
G1 X41.926 Y48.423 E0.00764
G1 X41.641 Y48.656 E0.00766
G1 X41.096 Y49.020 E0.01362
G1 X40.459 Y49.333 E0.01475
G1 X39.839 Y49.544 E0.01362
G1 X39.480 Y49.628 E0.00766
G1 X38.803 Y49.717 E0.01419
G1 X38.213 Y49.736 E0.01229
G1 X38.213 Y45.333 E0.09152
G1 X38.174 Y44.813 F600.000
G1 X37.682 Y44.728 F600.000
G1 X33.204 Y44.728 E0.09308 F1048.779
G1 X33.224 Y44.137 E0.01229
G1 X33.257 Y43.797 E0.00710
G1 X33.318 Y43.434 E0.00766
G1 X33.488 Y42.801 E0.01362
G1 X33.759 Y42.145 E0.01475
G1 X34.087 Y41.578 E0.01362
G1 X34.300 Y41.278 E0.00766
G1 X34.732 Y40.785 E0.01362
G1 X34.999 Y40.532 E0.00764
G1 X35.285 Y40.299 E0.00766
G1 X35.830 Y39.936 E0.01362
G1 X36.155 Y39.762 E0.00766
G1 X36.760 Y39.511 E0.01362
G1 X37.113 Y39.404 E0.00766
G1 X37.782 Y39.272 E0.01418
G1 X38.122 Y39.239 E0.00710
G1 X38.713 Y39.219 E0.01229
G1 X38.713 Y43.697 E0.09308
G1 X38.269 Y43.755 E0.00930
G1 X38.089 Y43.830 E0.00406
G1 X37.934 Y43.949 E0.00406
G1 X37.815 Y44.104 E0.00406
G1 X37.740 Y44.284 E0.00406
G1 X37.692 Y44.653 E0.00774
G1 X37.660 Y45.227 F600.000
G1 F3600.000 E-2.40000
G1 X34.130 Y45.935 F600.000
G1 E2.40000 F3600.000
G1 X34.165 Y45.899 E0.00173 F932.248
G1 X35.603 Y45.899 E0.04953
G1 X34.594 Y46.908 E0.04915
G1 X35.240 Y47.700 E0.03520
