; generated by Slic3r 1.1.7 on 2015-02-15 at 15:09:51

; perimeters extrusion width = 0.50mm
; infill extrusion width = 1.98mm
; solid infill extrusion width = 0.85mm
; top infill extrusion width = 0.85mm

G21 ; set units to millimeters
M107
M190 S65 ; wait for bed temperature to be reached
M104 S185 ; set temperature
G28 Z0
M83
M109 S185 ; wait for temperature to be reached
G90 ; use absolute coordinates
M83 ; use relative distances for extrusion
G1 F3600.000 E-2.40000
G1 Z0.200 F600.000
G1 X48.625 Y47.254 F600.000
G1 E2.40000 F3600.000
G1 X49.257 Y46.650 E0.05507 F1200.000
G1 X49.746 Y46.228 E0.04067
G1 X50.623 Y45.558 E0.06943
G1 X51.351 Y45.076 E0.05499
G1 X52.108 Y44.636 E0.05511
G1 X52.889 Y44.243 E0.05505
G1 X53.480 Y43.983 E0.04064
G1 X54.514 Y43.598 E0.06946
G1 X55.352 Y43.349 E0.05506
G1 X56.204 Y43.150 E0.05505
G1 X57.066 Y43.002 E0.05506
G1 X57.935 Y42.905 E0.05505
G1 X58.808 Y42.860 E0.05505
G1 X59.683 Y42.866 E0.05505
G1 X60.328 Y42.905 E0.04066
G1 X61.423 Y43.035 E0.06944
G1 X62.283 Y43.196 E0.05505
G1 X63.131 Y43.408 E0.05505
G1 X63.966 Y43.669 E0.05505
G1 X64.782 Y43.980 E0.05500
G1 X65.581 Y44.339 E0.05510
G1 X66.356 Y44.744 E0.05505
G1 X67.105 Y45.194 E0.05505
G1 X67.641 Y45.555 E0.04067
G1 X68.518 Y46.224 E0.06940
G1 X69.176 Y46.800 E0.05508
G1 X69.732 Y47.342 E0.04887
G1 X151.530 Y132.190 E7.41924
G1 X152.116 Y132.840 E0.05505
G1 X152.523 Y133.341 E0.04066
G1 X153.166 Y134.237 E0.06944
G1 X153.627 Y134.980 E0.05505
G1 X154.047 Y135.755 E0.05546
G1 X154.414 Y136.542 E0.05464
G1 X154.736 Y137.355 E0.05505
G1 X155.010 Y138.185 E0.05505
G1 X155.234 Y139.030 E0.05506
G1 X155.408 Y139.886 E0.05497
G1 X155.531 Y140.760 E0.05554
G1 X155.602 Y141.625 E0.05464
G1 X155.621 Y142.499 E0.05505
G1 X155.589 Y143.373 E0.05505
G1 X155.531 Y144.017 E0.04071
G1 X155.369 Y145.108 E0.06939
G1 X155.182 Y145.962 E0.05506
G1 X155.012 Y146.585 E0.04067
G1 X154.659 Y147.630 E0.06943
G1 X154.324 Y148.438 E0.05505
G1 X153.942 Y149.225 E0.05505
G1 X153.514 Y149.988 E0.05505
G1 X153.042 Y150.723 E0.05505
G1 X152.527 Y151.430 E0.05503
G1 X151.966 Y152.110 E0.05549
G1 X151.375 Y152.746 E0.05463
G1 X150.743 Y153.350 E0.05507
G1 X150.076 Y153.916 E0.05506
G1 X149.378 Y154.441 E0.05500
G1 X148.648 Y154.925 E0.05511
G1 X147.892 Y155.364 E0.05505
G1 X147.111 Y155.757 E0.05505
G1 X146.309 Y156.103 E0.05502
G1 X145.486 Y156.402 E0.05509
G1 X144.641 Y156.653 E0.05546
G1 X143.796 Y156.850 E0.05464
G1 X142.934 Y156.998 E0.05505
G1 X142.065 Y157.095 E0.05502
G1 X141.192 Y157.140 E0.05508
G1 X140.317 Y157.134 E0.05505
G1 X139.445 Y157.075 E0.05505
G1 X138.571 Y156.964 E0.05546
G1 X137.717 Y156.804 E0.05464
G1 X136.869 Y156.592 E0.05502
G1 X136.034 Y156.331 E0.05509
G1 X135.218 Y156.020 E0.05501
G1 X134.414 Y155.658 E0.05551
G1 X133.644 Y155.256 E0.05464
G1 X132.895 Y154.806 E0.05505
G1 X132.173 Y154.312 E0.05505
G1 X131.482 Y153.776 E0.05501
G1 X130.824 Y153.200 E0.05509
G1 X130.268 Y152.658 E0.04887
G1 X48.470 Y67.810 E7.41924
G1 X47.884 Y67.160 E0.05505
G1 X47.477 Y66.659 E0.04065
G1 X46.834 Y65.763 E0.06945
G1 X46.373 Y65.020 E0.05502
G1 X45.957 Y64.251 E0.05504
G1 X45.584 Y63.452 E0.05552
G1 X45.264 Y62.645 E0.05464
G1 X44.990 Y61.816 E0.05499
G1 X44.764 Y60.963 E0.05553
G1 X44.592 Y60.113 E0.05462
G1 X44.469 Y59.248 E0.05500
G1 X44.398 Y58.375 E0.05513
G1 X44.379 Y57.729 E0.04067
G1 X44.411 Y56.627 E0.06943
G1 X44.496 Y55.756 E0.05505
G1 X44.591 Y55.117 E0.04068
G1 X44.818 Y54.038 E0.06942
G1 X45.055 Y53.196 E0.05505
G1 X45.341 Y52.370 E0.05505
G1 X45.676 Y51.562 E0.05505
G1 X46.058 Y50.775 E0.05505
G1 X46.486 Y50.012 E0.05505
G1 X46.958 Y49.277 E0.05505
G1 X47.473 Y48.570 E0.05505
G1 X48.030 Y47.895 E0.05505
G1 X48.574 Y47.309 E0.05032
G1 F3600.000 E-2.40000
G1 X48.634 Y57.612 F600.000
G1 E2.40000 F3600.000
G1 X48.659 Y56.909 E0.04428 F1350.000
G1 X48.724 Y56.258 E0.04119
G1 X48.802 Y55.755 E0.03204
G1 X48.999 Y54.879 E0.05650
G1 X49.294 Y53.957 E0.06097
G1 X49.528 Y53.380 E0.03917
G1 X49.712 Y52.983 E0.02754
G1 X50.095 Y52.273 E0.05080
G1 X50.413 Y51.765 E0.03775
G1 X50.789 Y51.241 E0.04059
G1 X51.252 Y50.678 E0.04591
G1 X51.723 Y50.177 E0.04325
G1 X52.049 Y49.866 E0.02835
G1 X52.520 Y49.461 E0.03917
G1 X53.289 Y48.893 E0.06016
G1 X54.066 Y48.419 E0.05732
G1 X54.619 Y48.134 E0.03917
G1 X55.189 Y47.883 E0.03917
G1 X55.772 Y47.665 E0.03917
G1 X56.367 Y47.484 E0.03917
G1 X56.972 Y47.339 E0.03917
G1 X57.584 Y47.229 E0.03917
G1 X58.202 Y47.156 E0.03917
G1 X58.634 Y47.128 E0.02726
G1 X58.818 Y46.933 E0.01684
G1 X58.808 Y46.617 E0.01994
G1 F3600.000 E-2.40000
G1 X69.634 Y57.612 F600.000
G1 E2.40000 F3600.000
G1 X69.615 Y58.234 E0.03917 F1350.000
G1 X69.559 Y58.854 E0.03917
G1 X69.434 Y59.644 E0.05038
G1 X69.338 Y60.078 E0.02795
G1 X69.174 Y60.678 E0.03916
G1 X68.827 Y61.644 E0.06465
G1 X68.474 Y62.406 E0.05282
G1 X68.174 Y62.951 E0.03917
G1 X67.855 Y63.459 E0.03775
G1 X67.480 Y63.983 E0.04059
G1 X67.087 Y64.466 E0.03917
G1 X66.569 Y65.024 E0.04793
G1 X66.220 Y65.357 E0.03040
G1 X65.749 Y65.763 E0.03916
G1 X64.953 Y66.349 E0.06221
G1 X64.202 Y66.805 E0.05527
G1 X63.649 Y67.090 E0.03917
G1 X63.137 Y67.318 E0.03530
G1 X62.497 Y67.559 E0.04304
G1 X61.902 Y67.740 E0.03917
G1 X61.198 Y67.906 E0.04549
G1 X60.684 Y67.995 E0.03285
G1 X60.066 Y68.068 E0.03917
G1 X59.034 Y68.123 E0.06506
G1 F3600.000 E-2.40000
G1 X69.736 Y57.212 F600.000
G1 E2.40000 F3600.000
G1 X59.534 Y57.212 E0.64220 F1350.000
G1 X59.534 Y47.022 E0.64148
G1 X60.075 Y47.054 E0.03413
G1 X60.699 Y47.128 E0.03955
G1 X61.318 Y47.239 E0.03955
G1 X61.928 Y47.387 E0.03954
G1 X62.529 Y47.570 E0.03955
G1 X63.118 Y47.789 E0.03955
G1 X63.693 Y48.042 E0.03955
G1 X64.252 Y48.329 E0.03955
G1 X64.793 Y48.649 E0.03955
G1 X65.314 Y49.000 E0.03955
G1 X65.813 Y49.381 E0.03955
G1 X66.289 Y49.791 E0.03955
G1 X66.740 Y50.229 E0.03955
G1 X67.164 Y50.692 E0.03955
G1 X67.560 Y51.180 E0.03955
G1 X67.926 Y51.690 E0.03955
G1 X68.261 Y52.222 E0.03955
G1 X68.565 Y52.772 E0.03955
G1 X68.835 Y53.339 E0.03954
G1 X69.071 Y53.921 E0.03955
G1 X69.272 Y54.516 E0.03954
G1 X69.438 Y55.122 E0.03955
G1 X69.567 Y55.737 E0.03955
G1 X69.660 Y56.358 E0.03955
G1 X69.729 Y57.137 E0.04923
G1 X69.296 Y56.975 F600.000
G1 X68.909 Y56.455 F600.000
G1 X60.291 Y56.455 E0.54247 F1350.000
G1 X60.291 Y47.824 E0.54331
G1 X61.162 Y47.981 E0.05566
G1 X61.729 Y48.118 E0.03672
G1 X62.287 Y48.288 E0.03672
G1 X62.833 Y48.491 E0.03672
G1 X63.367 Y48.726 E0.03672
G1 X63.886 Y48.993 E0.03672
G1 X64.388 Y49.289 E0.03672
G1 X64.872 Y49.615 E0.03672
G1 X65.336 Y49.969 E0.03672
G1 X65.778 Y50.350 E0.03672
G1 X66.196 Y50.756 E0.03672
G1 X66.590 Y51.187 E0.03672
G1 X66.958 Y51.640 E0.03672
G1 X67.298 Y52.114 E0.03672
G1 X67.609 Y52.607 E0.03672
G1 X67.891 Y53.118 E0.03672
G1 X68.142 Y53.644 E0.03672
G1 X68.361 Y54.185 E0.03672
G1 X68.548 Y54.737 E0.03672
G1 X68.701 Y55.300 E0.03672
G1 X68.822 Y55.871 E0.03672
G1 X68.898 Y56.381 E0.03244
G1 F3600.000 E-2.40000
G1 X58.634 Y58.012 F600.000
G1 E2.40000 F3600.000
G1 X58.634 Y68.196 E0.64111 F1350.000
G1 X58.193 Y68.170 E0.02782
G1 X57.569 Y68.096 E0.03955
G1 X56.951 Y67.984 E0.03955
G1 X56.340 Y67.837 E0.03955
G1 X55.740 Y67.653 E0.03955
G1 X55.151 Y67.435 E0.03955
G1 X54.576 Y67.181 E0.03955
G1 X54.017 Y66.895 E0.03955
G1 X53.476 Y66.575 E0.03955
G1 X52.955 Y66.224 E0.03955
G1 X52.455 Y65.843 E0.03955
G1 X51.980 Y65.433 E0.03955
G1 X51.529 Y64.995 E0.03955
G1 X51.105 Y64.532 E0.03955
G1 X50.709 Y64.044 E0.03955
G1 X50.343 Y63.534 E0.03955
G1 X50.007 Y63.002 E0.03955
G1 X49.704 Y62.452 E0.03955
G1 X49.434 Y61.885 E0.03955
G1 X49.198 Y61.303 E0.03955
G1 X48.997 Y60.708 E0.03955
G1 X48.831 Y60.102 E0.03955
G1 X48.702 Y59.487 E0.03955
G1 X48.609 Y58.866 E0.03955
G1 X48.533 Y58.012 E0.05395
G1 X58.559 Y58.012 E0.63118
G1 X58.384 Y58.445 F600.000
G1 X57.877 Y58.769 F600.000
G1 X57.877 Y67.382 E0.54218 F1350.000
G1 X57.107 Y67.243 E0.04926
G1 X56.540 Y67.106 E0.03672
G1 X55.982 Y66.936 E0.03672
G1 X55.435 Y66.733 E0.03672
G1 X54.901 Y66.498 E0.03672
G1 X54.383 Y66.231 E0.03672
G1 X53.880 Y65.935 E0.03672
G1 X53.396 Y65.609 E0.03672
G1 X52.933 Y65.255 E0.03672
G1 X52.491 Y64.874 E0.03672
G1 X52.072 Y64.468 E0.03672
G1 X51.679 Y64.037 E0.03672
G1 X51.311 Y63.584 E0.03672
G1 X50.971 Y63.110 E0.03672
G1 X50.660 Y62.617 E0.03672
G1 X50.378 Y62.106 E0.03672
G1 X50.127 Y61.580 E0.03672
G1 X49.908 Y61.039 E0.03672
G1 X49.721 Y60.486 E0.03672
G1 X49.567 Y59.924 E0.03672
G1 X49.447 Y59.353 E0.03672
G1 X49.360 Y58.769 E0.03717
G1 X57.802 Y58.769 E0.53145
G1 X57.308 Y59.298 F600.000
G1 X57.348 Y59.338 E0.00356 F1200.000
G1 X57.348 Y60.542 E0.07577
G1 X56.105 Y59.298 E0.11072
G1 X54.901 Y59.298 E0.07577
G1 X57.348 Y61.745 E0.21788
G1 X57.348 Y62.949 E0.07577
G1 X53.697 Y59.298 E0.32504
G1 X52.494 Y59.298 E0.07577
G1 X57.348 Y64.153 E0.43220
G1 X57.348 Y65.356 E0.07577
G1 X51.290 Y59.298 E0.53936
G1 X50.086 Y59.298 E0.07577
G1 X57.348 Y66.560 E0.64652
G1 X55.941 Y66.357 E0.08949
G1 X50.386 Y60.801 E0.49462
G1 F3600.000 E-2.40000
G1 X52.148 Y63.767 F600.000
G1 E2.40000 F3600.000
G1 X52.969 Y64.588 E0.07309 F1200.000
G1 F3600.000 E-2.40000
G1 X60.820 Y55.886 F600.000
G1 E2.40000 F3600.000
G1 X60.860 Y55.926 E0.00356 F1200.000
G1 X61.941 Y55.926 E0.06805
G1 X60.820 Y54.805 E0.09980
G1 X60.820 Y53.724 E0.06805
G1 X63.022 Y55.926 E0.19604
G1 X64.103 Y55.926 E0.06805
G1 X60.820 Y52.643 E0.29229
G1 X60.820 Y51.562 E0.06805
G1 X65.184 Y55.926 E0.38853
G1 X66.265 Y55.926 E0.06805
G1 X60.820 Y50.481 E0.48477
G1 X60.820 Y49.400 E0.06805
G1 X67.347 Y55.926 E0.58101
G1 X68.257 Y55.755 E0.05830
G1 X60.988 Y48.487 E0.64708
G1 X62.522 Y48.940 E0.10069
G1 X67.806 Y54.223 E0.47035
G1 F3600.000 E-2.40000
G1 X66.121 Y51.457 F600.000
G1 E2.40000 F3600.000
G1 X65.300 Y50.636 E0.07309 F1200.000
G1 F3600.000 E-2.40000
G1 X130.366 Y142.388 F600.000
G1 E2.40000 F3600.000
G1 X130.391 Y141.685 E0.04428 F1350.000
G1 X130.455 Y141.034 E0.04119
G1 X130.533 Y140.531 E0.03204
G1 X130.730 Y139.655 E0.05650
G1 X131.025 Y138.733 E0.06097
G1 X131.259 Y138.156 E0.03917
G1 X131.443 Y137.760 E0.02754
G1 X131.826 Y137.049 E0.05080
G1 X132.145 Y136.541 E0.03775
G1 X132.520 Y136.017 E0.04059
G1 X132.983 Y135.454 E0.04591
G1 X133.454 Y134.953 E0.04325
G1 X133.780 Y134.643 E0.02835
G1 X134.251 Y134.237 E0.03917
G1 X135.020 Y133.669 E0.06016
G1 X135.797 Y133.195 E0.05732
G1 X136.351 Y132.910 E0.03917
G1 X136.920 Y132.659 E0.03917
G1 X137.503 Y132.441 E0.03917
G1 X138.098 Y132.260 E0.03917
G1 X138.703 Y132.115 E0.03917
G1 X139.316 Y132.005 E0.03917
G1 X139.934 Y131.932 E0.03917
G1 X140.366 Y131.904 E0.02726
G1 X140.549 Y131.709 E0.01684
G1 X140.540 Y131.393 E0.01994
G1 F3600.000 E-2.40000
G1 X151.366 Y142.388 F600.000
G1 E2.40000 F3600.000
G1 X151.346 Y143.010 E0.03917 F1350.000
G1 X151.290 Y143.630 E0.03917
G1 X151.165 Y144.420 E0.05038
G1 X151.069 Y144.854 E0.02795
G1 X150.905 Y145.454 E0.03916
G1 X150.558 Y146.420 E0.06465
G1 X150.205 Y147.182 E0.05282
G1 X149.905 Y147.727 E0.03917
G1 X149.587 Y148.235 E0.03775
G1 X149.211 Y148.759 E0.04059
G1 X148.819 Y149.242 E0.03917
G1 X148.301 Y149.800 E0.04793
G1 X147.951 Y150.134 E0.03040
G1 X147.480 Y150.539 E0.03916
G1 X146.684 Y151.125 E0.06221
G1 X145.934 Y151.581 E0.05527
G1 X145.381 Y151.866 E0.03917
G1 X144.868 Y152.094 E0.03530
G1 X144.228 Y152.335 E0.04304
G1 X143.633 Y152.516 E0.03917
G1 X142.930 Y152.682 E0.04549
G1 X142.416 Y152.771 E0.03285
G1 X141.798 Y152.844 E0.03917
G1 X140.766 Y152.900 E0.06506
G1 F3600.000 E-2.40000
G1 X141.266 Y141.988 F600.000
G1 E2.40000 F3600.000
G1 X141.266 Y131.798 E0.64148 F1350.000
G1 X141.807 Y131.830 E0.03413
G1 X142.431 Y131.904 E0.03955
G1 X143.049 Y132.016 E0.03955
G1 X143.660 Y132.163 E0.03954
G1 X144.260 Y132.347 E0.03955
G1 X144.849 Y132.565 E0.03955
G1 X145.424 Y132.819 E0.03955
G1 X145.983 Y133.105 E0.03955
G1 X146.524 Y133.425 E0.03955
G1 X147.045 Y133.776 E0.03955
G1 X147.544 Y134.157 E0.03955
G1 X148.020 Y134.567 E0.03955
G1 X148.471 Y135.005 E0.03955
G1 X148.895 Y135.468 E0.03955
G1 X149.291 Y135.956 E0.03955
G1 X149.657 Y136.467 E0.03955
G1 X149.993 Y136.998 E0.03955
G1 X150.296 Y137.548 E0.03955
G1 X150.566 Y138.115 E0.03954
G1 X150.802 Y138.697 E0.03955
G1 X151.003 Y139.292 E0.03954
G1 X151.169 Y139.898 E0.03955
G1 X151.298 Y140.513 E0.03955
G1 X151.391 Y141.134 E0.03955
G1 X151.467 Y141.988 E0.05395
G1 X141.341 Y141.988 E0.63748
G1 X141.516 Y141.555 F600.000
G1 X142.023 Y141.231 F600.000
G1 X142.023 Y132.600 E0.54331 F1350.000
G1 X142.893 Y132.757 E0.05566
G1 X143.460 Y132.894 E0.03672
G1 X144.018 Y133.064 E0.03672
G1 X144.565 Y133.267 E0.03672
G1 X145.099 Y133.502 E0.03672
G1 X145.617 Y133.769 E0.03672
G1 X146.120 Y134.065 E0.03672
G1 X146.604 Y134.391 E0.03672
G1 X147.067 Y134.745 E0.03672
G1 X147.509 Y135.126 E0.03672
G1 X147.928 Y135.532 E0.03672
G1 X148.321 Y135.963 E0.03672
G1 X148.689 Y136.416 E0.03672
G1 X149.029 Y136.890 E0.03672
G1 X149.340 Y137.383 E0.03672
G1 X149.622 Y137.894 E0.03672
G1 X149.873 Y138.420 E0.03672
G1 X150.092 Y138.961 E0.03672
G1 X150.279 Y139.514 E0.03672
G1 X150.433 Y140.076 E0.03672
G1 X150.553 Y140.647 E0.03672
G1 X150.640 Y141.231 E0.03717
G1 X142.098 Y141.231 E0.53775
G1 F3600.000 E-2.40000
G1 X140.366 Y142.788 F600.000
G1 E2.40000 F3600.000
G1 X140.366 Y152.972 E0.64111 F1350.000
G1 X139.924 Y152.946 E0.02782
G1 X139.301 Y152.872 E0.03955
G1 X138.682 Y152.761 E0.03955
G1 X138.072 Y152.613 E0.03955
G1 X137.471 Y152.430 E0.03955
G1 X136.882 Y152.211 E0.03955
G1 X136.307 Y151.958 E0.03955
G1 X135.748 Y151.671 E0.03955
G1 X135.207 Y151.351 E0.03955
G1 X134.686 Y151.000 E0.03955
G1 X134.187 Y150.619 E0.03955
G1 X133.711 Y150.209 E0.03955
G1 X133.260 Y149.771 E0.03955
G1 X132.836 Y149.308 E0.03955
G1 X132.440 Y148.820 E0.03955
G1 X132.074 Y148.310 E0.03955
G1 X131.739 Y147.778 E0.03955
G1 X131.435 Y147.228 E0.03955
G1 X131.165 Y146.661 E0.03955
G1 X130.929 Y146.079 E0.03955
G1 X130.728 Y145.484 E0.03955
G1 X130.562 Y144.878 E0.03955
G1 X130.433 Y144.263 E0.03955
G1 X130.340 Y143.642 E0.03955
G1 X130.264 Y142.788 E0.05395
G1 X140.291 Y142.788 E0.63118
G1 X140.116 Y143.221 F600.000
G1 X139.609 Y143.545 F600.000
G1 X139.609 Y152.158 E0.54218 F1350.000
G1 X138.838 Y152.019 E0.04926
G1 X138.271 Y151.882 E0.03672
G1 X137.713 Y151.712 E0.03672
G1 X137.167 Y151.509 E0.03672
G1 X136.633 Y151.274 E0.03672
G1 X136.114 Y151.007 E0.03672
G1 X135.612 Y150.711 E0.03672
G1 X135.128 Y150.385 E0.03672
G1 X134.664 Y150.031 E0.03672
G1 X134.222 Y149.650 E0.03672
G1 X133.804 Y149.244 E0.03672
G1 X133.410 Y148.813 E0.03672
G1 X133.042 Y148.360 E0.03672
G1 X132.702 Y147.886 E0.03672
G1 X132.391 Y147.393 E0.03672
G1 X132.109 Y146.882 E0.03672
G1 X131.858 Y146.356 E0.03672
G1 X131.639 Y145.815 E0.03672
G1 X131.452 Y145.263 E0.03672
G1 X131.299 Y144.700 E0.03672
G1 X131.178 Y144.129 E0.03672
G1 X131.091 Y143.545 E0.03717
G1 X139.534 Y143.545 E0.53145
G1 X139.040 Y144.074 F600.000
G1 X139.080 Y144.114 E0.00356 F1200.000
G1 X139.080 Y145.318 E0.07577
G1 X137.836 Y144.074 E0.11072
G1 X136.632 Y144.074 E0.07577
G1 X139.080 Y146.521 E0.21788
G1 X139.080 Y147.725 E0.07577
G1 X135.429 Y144.074 E0.32504
G1 X134.225 Y144.074 E0.07577
G1 X139.080 Y148.929 E0.43220
G1 X139.080 Y150.132 E0.07577
G1 X133.021 Y144.074 E0.53936
G1 X131.818 Y144.074 E0.07577
G1 X139.080 Y151.336 E0.64652
G1 X137.673 Y151.133 E0.08949
G1 X132.117 Y145.577 E0.49462
G1 F3600.000 E-2.40000
G1 X133.879 Y148.543 F600.000
G1 E2.40000 F3600.000
G1 X134.700 Y149.364 E0.07309 F1200.000
G1 F3600.000 E-2.40000
G1 X142.552 Y140.662 F600.000
G1 E2.40000 F3600.000
G1 X142.592 Y140.702 E0.00356 F1200.000
G1 X143.673 Y140.702 E0.06805
G1 X142.552 Y139.581 E0.09980
G1 X142.552 Y138.500 E0.06805
G1 X144.754 Y140.702 E0.19604
G1 X145.835 Y140.702 E0.06805
G1 X142.552 Y137.419 E0.29229
G1 X142.552 Y136.338 E0.06805
G1 X146.916 Y140.702 E0.38853
G1 X147.997 Y140.702 E0.06805
G1 X142.552 Y135.257 E0.48477
G1 X142.552 Y134.176 E0.06805
G1 X149.078 Y140.702 E0.58101
G1 X149.988 Y140.531 E0.05830
G1 X142.720 Y133.263 E0.64708
G1 X144.254 Y133.716 E0.10069
G1 X149.537 Y138.999 E0.47035
G1 F3600.000 E-2.40000
G1 X147.852 Y136.233 F600.000
G1 E2.40000 F3600.000
G1 X147.031 Y135.412 E0.07309 F1200.000
