; generated by Slic3r 1.1.7 on 2015-02-11 at 21:10:16

; perimeters extrusion width = 0.50mm
; infill extrusion width = 0.87mm
; solid infill extrusion width = 0.85mm
; top infill extrusion width = 0.85mm

G21 ; set units to millimeters
M107
M190 S65 ; wait for bed temperature to be reached
M104 S200 ; set temperature
G28 Z0
G32
M83
M109 S200 ; wait for temperature to be reached
G90 ; use absolute coordinates
M83 ; use relative distances for extrusion
G1 F3600.000 E-2.40000
G1 Z0.400 F15000.000
G1 X93.393 Y92.853 F15000.000
G1 E2.40000 F3600.000
G1 X94.062 Y92.288 E0.09116 F600.000
G1 X94.779 Y91.786 E0.09104
G1 X95.533 Y91.352 E0.09050
G1 X96.329 Y90.985 E0.09128
G1 X97.147 Y90.694 E0.09035
G1 X97.998 Y90.475 E0.09142
G1 X98.859 Y90.334 E0.09081
G1 X99.731 Y90.270 E0.09098
G1 X100.604 Y90.285 E0.09089
G1 X101.469 Y90.378 E0.09057
G1 X102.329 Y90.549 E0.09121
G1 X103.169 Y90.797 E0.09114
G1 X103.979 Y91.117 E0.09064
G1 X104.759 Y91.510 E0.09089
G1 X105.501 Y91.970 E0.09089
G1 X106.199 Y92.496 E0.09089
G1 X106.843 Y93.079 E0.09044
G1 X107.439 Y93.723 E0.09134
G1 X107.972 Y94.415 E0.09089
G1 X108.437 Y95.147 E0.09028
G1 X108.842 Y95.931 E0.09175
G1 X109.170 Y96.737 E0.09063
G1 X109.426 Y97.575 E0.09114
G1 X109.605 Y98.427 E0.09064
G1 X109.708 Y99.295 E0.09089
G1 X109.732 Y99.835 E0.05634
G1 X109.732 Y100.170 E0.03483
G1 X109.678 Y101.037 E0.09035
G1 X109.546 Y101.903 E0.09117
G1 X109.337 Y102.748 E0.09065
G1 X109.052 Y103.576 E0.09112
G1 X108.695 Y104.373 E0.09089
G1 X108.269 Y105.135 E0.09082
G1 X107.779 Y105.851 E0.09032
G1 X107.219 Y106.529 E0.09154
G1 X106.604 Y107.150 E0.09089
G1 X105.938 Y107.712 E0.09074
G1 X105.221 Y108.214 E0.09104
G1 X104.462 Y108.650 E0.09114
G1 X103.671 Y109.015 E0.09063
G1 X102.854 Y109.306 E0.09025
G1 X102.002 Y109.525 E0.09154
G1 X101.140 Y109.666 E0.09090
G1 X100.269 Y109.730 E0.09089
G1 X99.396 Y109.715 E0.09089
G1 X98.532 Y109.622 E0.09041
G1 X97.671 Y109.451 E0.09137
G1 X96.831 Y109.203 E0.09115
G1 X96.021 Y108.883 E0.09063
G1 X95.239 Y108.489 E0.09115
G1 X94.499 Y108.030 E0.09065
G1 X93.801 Y107.504 E0.09088
G1 X93.157 Y106.921 E0.09044
G1 X92.561 Y106.277 E0.09134
G1 X92.028 Y105.585 E0.09089
G1 X91.560 Y104.848 E0.09089
G1 X91.159 Y104.071 E0.09089
G1 X90.830 Y103.263 E0.09089
G1 X90.574 Y102.427 E0.09089
G1 X90.395 Y101.573 E0.09089
G1 X90.292 Y100.705 E0.09089
G1 X90.268 Y99.832 E0.09089
G1 X90.322 Y98.961 E0.09089
G1 X90.454 Y98.097 E0.09089
G1 X90.663 Y97.252 E0.09065
G1 X90.948 Y96.424 E0.09112
G1 X91.305 Y95.626 E0.09090
G1 X91.732 Y94.865 E0.09089
G1 X92.227 Y94.142 E0.09114
G1 X92.781 Y93.471 E0.09064
G1 X93.340 Y92.906 E0.08267
G1 F3600.000 E-2.40000
G1 X95.161 Y97.855 F15000.000
G1 E2.40000 F3600.000
G1 X94.897 Y97.679 E0.03308 F600.000
G1 X95.193 Y97.128 E0.06506
G1 X95.470 Y96.709 E0.05230
G1 X95.783 Y96.316 E0.05228
G1 X96.130 Y95.953 E0.05230
G1 X96.509 Y95.622 E0.05229
G1 X96.915 Y95.327 E0.05228
G1 X97.347 Y95.069 E0.05230
G1 X97.799 Y94.851 E0.05229
G1 X98.270 Y94.674 E0.05229
G1 X98.754 Y94.541 E0.05228
G1 X99.248 Y94.451 E0.05229
G1 X99.749 Y94.406 E0.05229
G1 X100.251 Y94.406 E0.05229
G1 X100.752 Y94.451 E0.05229
G1 X101.246 Y94.541 E0.05229
G1 X101.730 Y94.674 E0.05229
G1 X102.201 Y94.851 E0.05229
G1 X102.653 Y95.069 E0.05229
G1 X103.085 Y95.327 E0.05230
G1 X103.491 Y95.622 E0.05228
G1 X103.870 Y95.953 E0.05230
G1 X104.217 Y96.316 E0.05228
G1 X104.530 Y96.709 E0.05229
G1 X104.807 Y97.128 E0.05229
G1 X105.045 Y97.570 E0.05229
G1 X105.243 Y98.032 E0.05228
G1 X105.398 Y98.510 E0.05230
G1 X105.510 Y99.000 E0.05228
G1 X105.577 Y99.498 E0.05229
G1 X105.600 Y100.000 E0.05229
G1 X105.577 Y100.502 E0.05229
G1 X105.510 Y101.000 E0.05229
G1 X105.398 Y101.490 E0.05229
G1 X105.243 Y101.968 E0.05228
G1 X105.045 Y102.430 E0.05229
G1 X104.807 Y102.872 E0.05229
G1 X104.530 Y103.291 E0.05229
G1 X104.217 Y103.684 E0.05228
G1 X103.870 Y104.047 E0.05229
G1 X103.491 Y104.378 E0.05229
G1 X103.085 Y104.673 E0.05228
G1 X102.653 Y104.931 E0.05230
G1 X102.201 Y105.149 E0.05229
G1 X101.730 Y105.326 E0.05229
G1 X101.246 Y105.459 E0.05228
G1 X100.752 Y105.549 E0.05229
G1 X100.251 Y105.594 E0.05229
G1 X99.749 Y105.594 E0.05229
G1 X99.248 Y105.549 E0.05229
G1 X98.754 Y105.459 E0.05228
G1 X98.270 Y105.326 E0.05230
G1 X97.799 Y105.149 E0.05229
G1 X97.347 Y104.931 E0.05229
G1 X96.915 Y104.673 E0.05229
G1 X96.509 Y104.378 E0.05229
G1 X96.130 Y104.047 E0.05230
G1 X95.783 Y103.684 E0.05228
G1 X95.470 Y103.291 E0.05229
G1 X95.193 Y102.872 E0.05229
G1 X94.955 Y102.430 E0.05229
G1 X94.757 Y101.968 E0.05229
G1 X94.602 Y101.490 E0.05229
G1 X94.490 Y101.000 E0.05229
G1 X94.423 Y100.502 E0.05228
G1 X94.400 Y100.000 E0.05229
G1 X94.423 Y99.498 E0.05229
G1 X94.490 Y99.000 E0.05228
G1 X94.602 Y98.510 E0.05229
G1 X94.802 Y97.894 E0.06743
G1 X95.087 Y97.863 E0.02978
G1 X95.406 Y97.652 F15000.000
G1 X95.468 Y97.821 F15000.000
G1 X96.027 Y97.130 E0.09250 F600.000
G1 X96.203 Y96.860 E0.03349
G1 X96.724 Y96.356 E0.07547
G1 X97.128 Y96.030 E0.05407
G1 X97.539 Y95.763 E0.05099
G1 X97.990 Y95.531 E0.05282
G1 X98.477 Y95.343 E0.05428
G1 X98.982 Y95.207 E0.05444
G1 X99.485 Y95.127 E0.05300
G1 X100.072 Y95.099 E0.06121
G1 X100.225 Y95.155 E0.01691
G1 X101.120 Y95.249 E0.09363
G1 X102.461 Y95.764 E0.14947
G1 X102.889 Y96.042 E0.05314
G1 X103.280 Y96.360 E0.05244
G1 X103.649 Y96.729 E0.05426
G1 X103.952 Y97.104 E0.05021
G1 X104.251 Y97.563 E0.05701
G1 X104.472 Y97.996 E0.05057
G1 X104.658 Y98.479 E0.05390
G1 X104.791 Y98.971 E0.05305
G1 X104.899 Y99.653 E0.07188
G1 X104.919 Y99.655 E0.00207
G1 X104.874 Y100.512 E0.08923
G1 X104.790 Y101.032 E0.05479
G1 X104.589 Y101.786 E0.08122
G1 X104.606 Y101.797 E0.00212
G1 X103.646 Y103.274 E0.18337
G1 X103.283 Y103.638 E0.05346
G1 X102.894 Y103.954 E0.05212
G1 X102.451 Y104.243 E0.05508
G1 X101.970 Y104.486 E0.05615
G1 X101.514 Y104.661 E0.05081
G1 X101.016 Y104.794 E0.05363
G1 X100.515 Y104.873 E0.05276
G1 X99.980 Y104.900 E0.05579
G1 X99.453 Y104.869 E0.05491
G1 X98.984 Y104.794 E0.04944
G1 X98.479 Y104.659 E0.05436
G1 X98.009 Y104.477 E0.05245
G1 X97.543 Y104.240 E0.05439
G1 X97.059 Y103.916 E0.06060
G1 X96.701 Y103.623 E0.04820
G1 X96.344 Y103.262 E0.05283
G1 X96.037 Y102.882 E0.05086
G1 X95.740 Y102.420 E0.05714
G1 X95.521 Y101.989 E0.05033
G1 X95.340 Y101.515 E0.05271
G1 X95.206 Y101.015 E0.05392
G1 X95.075 Y100.191 E0.08687
G1 X95.128 Y99.476 E0.07456
G1 X95.205 Y98.989 E0.05137
G1 X95.338 Y98.493 E0.05343
G1 X95.600 Y97.807 E0.07642
G1 X95.543 Y97.813 E0.00600
G1 X95.011 Y97.618 F15000.000
M104 S190 ; set temperature
G1 F3600.000 E-2.40000
G1 Z0.640 F15000.000
G1 X104.268 Y100.063 F15000.000
G1 E2.40000 F3600.000
G1 X104.088 Y101.200 E0.04888 F834.111
G1 X104.061 Y101.282 E0.00366
G1 X103.977 Y101.459 E0.00831
G1 X103.905 Y101.531 E0.00430
G1 X103.555 Y101.782 E0.01830
G1 F3600.000 E-2.40000
G1 X94.820 Y97.505 F15000.000
G1 E2.40000 F3600.000
G1 X95.064 Y97.051 E0.02190 F834.111
G1 X95.348 Y96.620 E0.02189
G1 X95.670 Y96.217 E0.02190
G1 X96.027 Y95.844 E0.02190
G1 X96.415 Y95.505 E0.02190
G1 X96.832 Y95.201 E0.02190
G1 X97.275 Y94.937 E0.02189
G1 X97.740 Y94.713 E0.02190
G1 X98.223 Y94.532 E0.02190
G1 X98.721 Y94.394 E0.02190
G1 X99.228 Y94.302 E0.02190
G1 X99.742 Y94.256 E0.02190
G1 X100.258 Y94.256 E0.02190
G1 X100.772 Y94.302 E0.02190
G1 X101.279 Y94.394 E0.02190
G1 X101.777 Y94.532 E0.02190
G1 X102.260 Y94.713 E0.02190
G1 X102.725 Y94.937 E0.02190
G1 X103.168 Y95.201 E0.02189
G1 X103.585 Y95.505 E0.02190
G1 X103.973 Y95.844 E0.02190
G1 X104.330 Y96.217 E0.02190
G1 X104.652 Y96.620 E0.02189
G1 X104.936 Y97.051 E0.02190
G1 X105.180 Y97.505 E0.02190
G1 X105.383 Y97.980 E0.02189
G1 X105.543 Y98.470 E0.02190
G1 X105.657 Y98.973 E0.02190
G1 X105.727 Y99.485 E0.02190
G1 X105.750 Y100.000 E0.02190
G1 X105.727 Y100.515 E0.02190
G1 X105.657 Y101.027 E0.02190
G1 X105.543 Y101.530 E0.02190
G1 X105.383 Y102.020 E0.02189
G1 X105.180 Y102.495 E0.02190
G1 X104.936 Y102.949 E0.02190
G1 X104.652 Y103.380 E0.02189
G1 X104.330 Y103.783 E0.02190
G1 X103.973 Y104.156 E0.02190
G1 X103.585 Y104.495 E0.02190
G1 X103.168 Y104.799 E0.02190
G1 X102.725 Y105.063 E0.02189
G1 X102.260 Y105.287 E0.02190
G1 X101.777 Y105.468 E0.02190
G1 X101.279 Y105.606 E0.02190
G1 X100.772 Y105.698 E0.02190
G1 X100.258 Y105.744 E0.02190
G1 X99.742 Y105.744 E0.02190
G1 X99.228 Y105.698 E0.02190
G1 X98.721 Y105.606 E0.02190
G1 X98.223 Y105.468 E0.02190
G1 X97.740 Y105.287 E0.02190
G1 X97.275 Y105.063 E0.02190
G1 X96.832 Y104.799 E0.02189
G1 X96.415 Y104.495 E0.02190
G1 X96.027 Y104.156 E0.02190
G1 X95.670 Y103.783 E0.02190
G1 X95.348 Y103.380 E0.02189
G1 X95.064 Y102.949 E0.02190
G1 X94.820 Y102.495 E0.02190
G1 X94.617 Y102.020 E0.02190
G1 X94.457 Y101.530 E0.02190
G1 X94.343 Y101.027 E0.02189
G1 X94.273 Y100.515 E0.02190
G1 X94.250 Y100.000 E0.02190
G1 X94.273 Y99.485 E0.02190
G1 X94.343 Y98.973 E0.02190
G1 X94.457 Y98.470 E0.02190
G1 X94.617 Y97.980 E0.02189
G1 X94.790 Y97.574 E0.01871
G1 X95.319 Y97.475 F15000.000
G1 X95.692 Y98.009 F15000.000
G1 X95.918 Y97.566 E0.02109 F834.111
G1 X95.864 Y97.572 E0.00230
G1 X96.481 Y96.810 E0.04163
G1 X96.830 Y96.463 E0.02088
G1 X97.222 Y96.147 E0.02136
G1 X97.607 Y95.897 E0.01948
G1 X98.059 Y95.665 E0.02159
G1 X98.514 Y95.489 E0.02068
G1 X99.020 Y95.352 E0.02227
G1 X99.428 Y95.285 E0.01752
G1 X100.052 Y95.250 E0.02653
G1 X100.406 Y95.379 E0.01599
G1 X101.229 Y95.466 E0.03512
G1 X102.437 Y95.930 E0.05495
G1 X102.817 Y96.176 E0.01918
G1 X103.170 Y96.462 E0.01931
G1 X103.546 Y96.840 E0.02264
G1 X103.822 Y97.181 E0.01859
G1 X104.125 Y97.645 E0.02352
G1 X104.326 Y98.040 E0.01881
G1 X104.519 Y98.537 E0.02264
G1 X104.639 Y98.982 E0.01956
G1 X104.700 Y99.368 E0.01657
G1 X104.480 Y99.469 E0.01027
G1 X104.424 Y99.828 E0.01540
G1 X104.758 Y99.863 E0.01425
G1 X104.724 Y100.495 E0.02688
G1 X104.639 Y101.017 E0.02243
G1 X104.454 Y101.715 E0.03067
G1 X104.474 Y101.715 E0.00088
G1 X103.512 Y103.197 E0.07501
G1 X103.177 Y103.531 E0.02005
G1 X102.816 Y103.824 E0.01974
G1 X102.376 Y104.113 E0.02236
G1 X101.934 Y104.338 E0.02106
G1 X101.472 Y104.516 E0.02100
G1 X100.974 Y104.649 E0.02189
G1 X100.507 Y104.723 E0.02007
G1 X99.967 Y104.750 E0.02292
G1 X99.431 Y104.715 E0.02282
G1 X99.026 Y104.649 E0.01742
G1 X98.515 Y104.512 E0.02243
G1 X98.063 Y104.337 E0.02057
G1 X97.612 Y104.106 E0.02152
G1 X97.252 Y103.873 E0.01820
G1 X96.803 Y103.514 E0.02440
G1 X96.434 Y103.133 E0.02252
G1 X96.155 Y102.789 E0.01880
G1 X95.908 Y102.411 E0.01914
G1 X95.658 Y101.926 E0.02317
G1 X95.479 Y101.456 E0.02135
G1 X95.353 Y100.984 E0.02075
G1 X95.256 Y100.375 E0.02615
G1 X95.269 Y100.373 E0.00055
G1 X95.249 Y99.995 E0.01607
G1 X95.280 Y99.473 E0.02218
G1 X95.351 Y99.023 E0.01933
G1 X95.477 Y98.549 E0.02083
G1 X95.658 Y98.075 E0.02150
G1 X95.409 Y97.601 F15000.000
G1 F3600.000 E-2.40000
G1 X95.712 Y103.036 F15000.000
G1 E2.40000 F3600.000
G1 X96.071 Y103.478 E0.03373 F600.000
G1 X96.455 Y103.870 E0.03255
G1 X96.728 Y104.103 E0.02129
G1 X97.351 Y104.529 E0.04476
G1 X97.856 Y104.790 E0.03372
G1 X98.324 Y104.978 E0.02988
G1 X98.832 Y105.116 E0.03123
G1 X99.296 Y105.201 E0.02792
G1 X99.987 Y105.248 E0.04110
G1 X100.574 Y105.217 E0.03484
G1 X101.055 Y105.142 E0.02886
G1 X101.700 Y104.968 E0.03965
G1 X102.128 Y104.798 E0.02724
G1 X102.487 Y104.621 E0.02374
G1 X103.091 Y104.240 E0.04232
G1 X103.508 Y103.903 E0.03180
G1 X103.949 Y103.450 E0.03749
G1 X104.481 Y102.677 E0.05563
G1 X104.894 Y101.946 E0.04979
G1 X104.898 Y101.948 F15000.000
G1 X105.091 Y101.545 E0.01153 F600.000
G1 X105.123 Y101.430 E0.00308
G1 X104.941 Y101.332 E0.00534
G1 X104.818 Y101.322 E0.00318
G1 F3600.000 E-2.40000
G1 X95.633 Y102.911 F15000.000
G1 E2.40000 F3600.000
G1 X95.456 Y102.626 E0.01987 F600.000
G1 X95.273 Y102.277 E0.02339
G1 X95.088 Y101.843 E0.02791
G1 X94.997 Y101.582 E0.01645
G1 X94.873 Y101.121 E0.02828
G1 X94.775 Y100.514 E0.03647
G1 X94.737 Y100.167 F15000.000
G1 X94.783 Y99.434 E0.04353 F600.000
G1 X94.867 Y98.907 E0.03165
G1 X95.001 Y98.404 E0.03085
G1 X95.179 Y97.899 E0.03177
G1 X96.085 Y96.502 F15000.000
G1 X96.374 Y96.207 E0.02448 F600.000
G1 X96.728 Y95.897 E0.02792
G1 X97.110 Y95.621 E0.02791
G1 X97.360 Y95.465 E0.01753
G1 X97.937 Y95.174 E0.03830
G1 X98.337 Y95.019 E0.02541
G1 X98.832 Y94.884 E0.03045
G1 X99.426 Y94.783 E0.03571
G1 X100.068 Y94.750 E0.03811
G1 X100.531 Y94.836 E0.02795
G1 X101.160 Y94.918 E0.03757
G1 X101.385 Y94.966 E0.01366
G1 X101.612 Y95.040 E0.01412
G1 X102.049 Y95.206 E0.02774
G1 X102.642 Y95.471 E0.03849
G1 X103.098 Y95.765 E0.03219
G1 X103.626 Y96.208 E0.04084
G1 X103.920 Y96.510 E0.02502
G1 X104.206 Y96.861 E0.02688
G1 X104.559 Y97.400 E0.03815
G1 X104.776 Y97.825 E0.02830
G1 X104.911 Y98.157 E0.02124
G1 X105.001 Y98.409 E0.01585
G1 X105.120 Y98.851 E0.02714
G1 X105.244 Y99.623 E0.04637
G1 F3600.000 E-2.40000
G1 X95.904 Y96.334 F15000.000
G1 E2.40000 F3600.000
G1 X95.925 Y96.674 E0.00878 F600.000
G1 X95.474 Y97.296 E0.01981
G1 X95.079 Y97.910 E0.01881
G1 F3600.000 E-2.40000
G1 Z0.880 F15000.000
G1 X94.820 Y97.505 F15000.000
G1 E2.40000 F3600.000
G1 X95.064 Y97.051 E0.02190 F854.949
G1 X95.348 Y96.620 E0.02190
G1 X95.670 Y96.217 E0.02190
G1 X96.027 Y95.844 E0.02189
G1 X96.415 Y95.505 E0.02190
G1 X96.832 Y95.201 E0.02189
G1 X97.275 Y94.937 E0.02190
G1 X97.740 Y94.713 E0.02190
G1 X98.223 Y94.532 E0.02190
G1 X98.721 Y94.394 E0.02190
G1 X99.228 Y94.302 E0.02190
G1 X99.742 Y94.256 E0.02190
G1 X100.258 Y94.256 E0.02190
G1 X100.772 Y94.302 E0.02190
G1 X101.279 Y94.394 E0.02190
G1 X101.777 Y94.532 E0.02190
G1 X102.260 Y94.713 E0.02189
G1 X102.725 Y94.937 E0.02190
G1 X103.168 Y95.201 E0.02190
G1 X103.585 Y95.505 E0.02190
G1 X103.973 Y95.844 E0.02189
G1 X104.330 Y96.217 E0.02190
G1 X104.652 Y96.620 E0.02189
G1 X104.936 Y97.051 E0.02190
G1 X105.180 Y97.505 E0.02190
G1 X105.383 Y97.980 E0.02189
G1 X105.543 Y98.470 E0.02190
G1 X105.657 Y98.973 E0.02190
G1 X105.727 Y99.485 E0.02189
G1 X105.750 Y100.000 E0.02190
G1 X105.727 Y100.515 E0.02189
G1 X105.657 Y101.027 E0.02190
G1 X105.543 Y101.530 E0.02190
G1 X105.383 Y102.020 E0.02189
G1 X105.180 Y102.495 E0.02190
G1 X104.936 Y102.949 E0.02190
G1 X104.652 Y103.380 E0.02189
G1 X104.330 Y103.783 E0.02190
G1 X103.973 Y104.156 E0.02189
G1 X103.585 Y104.495 E0.02190
G1 X103.168 Y104.799 E0.02189
G1 X102.725 Y105.063 E0.02190
G1 X102.260 Y105.287 E0.02190
G1 X101.777 Y105.468 E0.02190
G1 X101.279 Y105.606 E0.02190
G1 X100.772 Y105.698 E0.02190
G1 X100.258 Y105.744 E0.02190
G1 X99.742 Y105.744 E0.02190
G1 X99.228 Y105.698 E0.02190
G1 X98.721 Y105.606 E0.02190
G1 X98.223 Y105.468 E0.02190
G1 X97.740 Y105.287 E0.02190
G1 X97.275 Y105.063 E0.02190
G1 X96.832 Y104.799 E0.02189
G1 X96.415 Y104.495 E0.02190
G1 X96.027 Y104.156 E0.02189
G1 X95.670 Y103.783 E0.02190
G1 X95.348 Y103.380 E0.02189
G1 X95.064 Y102.949 E0.02190
G1 X94.820 Y102.495 E0.02190
G1 X94.617 Y102.020 E0.02190
G1 X94.457 Y101.530 E0.02190
G1 X94.343 Y101.027 E0.02190
G1 X94.273 Y100.515 E0.02189
G1 X94.250 Y100.000 E0.02190
G1 X94.273 Y99.485 E0.02190
G1 X94.343 Y98.973 E0.02189
G1 X94.457 Y98.470 E0.02190
G1 X94.617 Y97.980 E0.02189
G1 X94.790 Y97.574 E0.01871
G1 X95.319 Y97.475 F15000.000
G1 F3600.000 E-2.40000
G1 X103.109 Y101.338 F15000.000
G1 E2.40000 F3600.000
G1 X103.990 Y101.110 E0.03864 F854.949
G1 X103.875 Y101.838 E0.03127
G1 X103.172 Y101.379 E0.03565
G1 X104.298 Y99.870 F15000.000
G1 X104.755 Y99.918 E0.01949 F854.949
G1 X104.724 Y100.495 E0.02454
G1 X104.632 Y101.043 E0.02358
G1 X104.444 Y101.754 E0.03122
G1 X103.499 Y103.209 E0.07365
G1 X103.175 Y103.533 E0.01942
G1 X102.826 Y103.816 E0.01909
G1 X102.376 Y104.113 E0.02286
G1 X101.936 Y104.337 E0.02096
G1 X101.475 Y104.515 E0.02098
G1 X100.967 Y104.650 E0.02233
G1 X100.512 Y104.722 E0.01954
G1 X99.955 Y104.749 E0.02365
G1 X99.400 Y104.711 E0.02363
G1 X99.033 Y104.651 E0.01579
G1 X98.508 Y104.510 E0.02308
G1 X98.039 Y104.326 E0.02136
G1 X97.607 Y104.103 E0.02064
G1 X97.116 Y103.770 E0.02517
G1 X96.800 Y103.511 E0.01735
G1 X96.417 Y103.112 E0.02346
G1 X96.153 Y102.787 E0.01779
G1 X95.919 Y102.428 E0.01819
G1 X95.657 Y101.925 E0.02407
G1 X95.477 Y101.449 E0.02159
G1 X95.353 Y100.983 E0.02046
G1 X95.264 Y100.424 E0.02403
