; generated by Slic3r 1.1.7 on 2014-12-09 at 22:15:46

; perimeters extrusion width = 0.50mm
; infill extrusion width = 0.87mm
; solid infill extrusion width = 0.85mm
; top infill extrusion width = 0.85mm

G21 ; set units to millimeters
M107
M104 S240 ; set temperature
G28 Z0
G32
M83
M109 S240 ; wait for temperature to be reached
G90 ; use absolute coordinates
M83 ; use relative distances for extrusion
G1 F2880.000 E-2.40000
G1 Z0.400 F15000.000
G1 X79.359 Y95.527 F15000.000
G1 E2.40000 F2880.000
G1 X80.240 Y95.116 E0.11893 F600.000
G1 X81.368 Y94.941 E0.13960
G1 X118.010 Y94.997 E4.48258
G1 X118.146 Y95.021 E0.01686
G1 X119.724 Y95.697 E0.21006
G1 X120.926 Y97.204 E0.23579
G1 X122.092 Y99.912 E0.36079
G1 X122.346 Y101.611 E0.21006
G1 X121.814 Y103.243 E0.21006
G1 X120.608 Y104.465 E0.21006
G1 X119.501 Y104.931 E0.14693
G1 X118.537 Y105.056 E0.11891
G1 X85.544 Y105.057 E4.03611
G1 X81.922 Y105.005 E0.44313
G1 X81.625 Y104.944 E0.03714
G1 X80.093 Y104.168 E0.21006
G1 X79.079 Y102.810 E0.20730
G1 X77.909 Y100.091 E0.36218
G1 X77.642 Y98.394 E0.21006
G1 X78.162 Y96.758 E0.21006
G1 X79.307 Y95.581 E0.20089
G1 F2880.000 E-2.40000
G1 Z0.640 F15000.000
G1 Z0.880 F15000.000
G1 X81.718 Y99.401 F15000.000
G1 E2.40000 F2880.000
G1 X81.906 Y99.811 E0.02251 F600.000
G1 X81.911 Y99.870 E0.00298
G1 X81.962 Y99.922 E0.00362
G1 X82.142 Y100.273 E0.01966
G1 X82.130 Y100.352 E0.00401
G1 X82.199 Y100.388 E0.00392
G1 X82.409 Y100.852 E0.02540
G1 F2880.000 E-2.40000
G1 X90.324 Y98.593 F15000.000
G1 E2.40000 F2880.000
G1 X90.533 Y99.077 E0.02628 F600.000
G1 X90.826 Y99.648 E0.03204
G1 X90.934 Y99.885 E0.01296
G1 X90.951 Y99.961 E0.00392
G1 F2880.000 E-2.40000
G1 X94.425 Y100.844 F15000.000
G1 E2.40000 F2880.000
G1 X94.199 Y100.388 E0.02536 F600.000
G1 X94.136 Y100.364 E0.00340
G1 X94.142 Y100.273 E0.00458
G1 X93.962 Y99.922 E0.01966
G1 X93.911 Y99.870 E0.00362
G1 X93.906 Y99.811 E0.00298
G1 X93.718 Y99.401 E0.02251
G1 F2880.000 E-2.40000
G1 X102.324 Y98.593 F15000.000
G1 E2.40000 F2880.000
G1 X102.533 Y99.077 E0.02628 F600.000
G1 X102.826 Y99.648 E0.03204
G1 X102.934 Y99.885 E0.01296
G1 X102.951 Y99.961 E0.00392
G1 F2880.000 E-2.40000
G1 X106.425 Y100.844 F15000.000
G1 E2.40000 F2880.000
G1 X106.199 Y100.388 E0.02536 F600.000
G1 X106.136 Y100.364 E0.00340
G1 X106.142 Y100.273 E0.00458
G1 X105.962 Y99.922 E0.01966
G1 X105.911 Y99.870 E0.00362
G1 X105.906 Y99.811 E0.00298
G1 X105.718 Y99.401 E0.02251
G1 F2880.000 E-2.40000
G1 X114.324 Y98.593 F15000.000
G1 E2.40000 F2880.000
G1 X114.533 Y99.077 E0.02628 F600.000
G1 X114.826 Y99.648 E0.03204
G1 X114.934 Y99.885 E0.01296
G1 X114.951 Y99.961 E0.00392
G1 F2880.000 E-2.40000
G1 X117.718 Y99.401 F15000.000
G1 E2.40000 F2880.000
G1 X117.906 Y99.811 E0.02251 F600.000
G1 X117.912 Y99.870 E0.00296
G1 X117.962 Y99.922 E0.00361
G1 X118.142 Y100.273 E0.01967
G1 X118.129 Y100.352 E0.00402
G1 X118.199 Y100.388 E0.00392
G1 X118.388 Y100.803 E0.02275
M106 S255
G1 F2880.000 E-2.40000
G1 Z1.120 F15000.000
G1 X118.878 Y101.713 F15000.000
G1 E2.40000 F2880.000
G1 X118.407 Y100.745 E0.05366 F600.000
G1 X117.613 Y99.292 E0.08265
G1 X117.382 Y98.837 E0.02542
G1 X117.243 Y98.490 E0.01867
G1 F2880.000 E-2.40000
G1 X113.772 Y97.378 F15000.000
G1 E2.40000 F2880.000
G1 X114.101 Y98.228 E0.04547 F600.000
G1 X114.503 Y99.069 E0.04651
G1 X114.892 Y99.803 E0.04143
G1 X114.951 Y99.971 E0.00891
G1 F2880.000 E-2.40000
G1 X109.796 Y101.584 F15000.000
G1 E2.40000 F2880.000
G1 X109.571 Y101.068 E0.02811 F600.000
G1 X109.067 Y100.119 E0.05362
G1 X109.050 Y100.034 E0.00429
G1 F2880.000 E-2.40000
G1 X106.504 Y100.950 F15000.000
G1 E2.40000 F2880.000
G1 X106.176 Y100.309 E0.03591 F600.000
G1 X105.613 Y99.292 E0.05804
G1 X105.228 Y98.497 E0.04406
G1 F2880.000 E-2.40000
G1 X106.671 Y101.269 F15000.000
G1 E2.40000 F2880.000
G1 X106.996 Y102.003 E0.04006 F600.000
G1 X107.130 Y102.356 E0.01885
G1 F2880.000 E-2.40000
G1 X101.752 Y97.384 F15000.000
G1 E2.40000 F2880.000
G1 X102.072 Y98.164 E0.04202 F600.000
G1 X102.284 Y98.627 E0.02541
G1 X102.844 Y99.705 E0.06062
G1 X102.933 Y99.891 E0.01030
G1 X102.951 Y99.971 E0.00409
G1 F2880.000 E-2.40000
G1 X97.796 Y101.584 F15000.000
G1 E2.40000 F2880.000
G1 X97.571 Y101.068 E0.02811 F600.000
G1 X97.067 Y100.119 E0.05362
G1 X97.050 Y100.034 E0.00429
G1 F2880.000 E-2.40000
G1 X94.504 Y100.950 F15000.000
G1 E2.40000 F2880.000
G1 X94.176 Y100.309 E0.03591 F600.000
G1 X93.613 Y99.292 E0.05804
G1 X93.228 Y98.497 E0.04406
G1 F2880.000 E-2.40000
G1 X94.671 Y101.269 F15000.000
G1 E2.40000 F2880.000
G1 X94.996 Y102.003 E0.04006 F600.000
G1 X95.130 Y102.356 E0.01885
G1 F2880.000 E-2.40000
G1 X89.752 Y97.384 F15000.000
G1 E2.40000 F2880.000
G1 X90.072 Y98.164 E0.04202 F600.000
G1 X90.284 Y98.627 E0.02541
G1 X90.844 Y99.705 E0.06062
G1 X90.933 Y99.891 E0.01030
G1 X90.951 Y99.971 E0.00409
G1 F2880.000 E-2.40000
G1 X85.796 Y101.584 F15000.000
G1 E2.40000 F2880.000
G1 X85.571 Y101.068 E0.02811 F600.000
G1 X85.067 Y100.119 E0.05362
G1 X85.050 Y100.034 E0.00429
G1 F2880.000 E-2.40000
G1 X82.504 Y100.950 F15000.000
G1 E2.40000 F2880.000
G1 X82.176 Y100.309 E0.03591 F600.000
G1 X81.613 Y99.292 E0.05804
G1 X81.382 Y98.837 E0.02542
G1 X81.243 Y98.490 E0.01867
G1 F2880.000 E-2.40000
G1 Z1.360 F15000.000
G1 X85.029 Y99.944 F15000.000
G1 E2.40000 F2880.000
G1 X85.074 Y100.115 E0.00884 F600.000
G1 X85.591 Y101.025 E0.05219
G1 X85.815 Y101.469 E0.02484
G1 X86.025 Y101.933 E0.02537
G1 X86.018 Y102.000 E0.00338
G1 X86.073 Y102.050 E0.00368
G1 X86.261 Y102.552 E0.02673
G1 F2880.000 E-2.40000
G1 X82.622 Y101.072 F15000.000
G1 E2.40000 F2880.000
G1 X82.309 Y100.552 E0.03028 F600.000
G1 X82.184 Y100.298 E0.01411
G1 X82.069 Y100.136 E0.00989
G1 X81.950 Y99.896 E0.01338
G1 X81.833 Y99.733 E0.00997
G1 X81.721 Y99.503 E0.01278
G1 X81.601 Y99.326 E0.01067
G1 X81.479 Y99.071 E0.01411
G1 X81.371 Y98.902 E0.00999
G1 X80.919 Y97.940 E0.05304
G1 X80.786 Y97.566 E0.01981
G1 F2880.000 E-2.40000
G1 X82.634 Y101.121 F15000.000
G1 E2.40000 F2880.000
G1 X83.021 Y101.920 E0.04430 F600.000
G1 X83.226 Y102.432 E0.02754
G1 X83.396 Y102.933 E0.02635
G1 F2880.000 E-2.40000
G1 X89.644 Y97.194 F15000.000
G1 E2.40000 F2880.000
G1 X89.840 Y97.736 E0.02879 F600.000
G1 X90.045 Y98.222 E0.02632
G1 X90.359 Y98.874 E0.03611
G1 X90.929 Y99.890 E0.05811
G1 X90.956 Y99.981 E0.00473
G1 F2880.000 E-2.40000
G1 X94.622 Y101.072 F15000.000
G1 E2.40000 F2880.000
G1 X94.309 Y100.552 E0.03028 F600.000
G1 X94.184 Y100.298 E0.01411
G1 X94.069 Y100.136 E0.00989
G1 X93.950 Y99.896 E0.01338
G1 X93.833 Y99.733 E0.00997
G1 X93.721 Y99.503 E0.01278
G1 X93.601 Y99.326 E0.01067
G1 X93.479 Y99.071 E0.01411
G1 X93.371 Y98.902 E0.00999
G1 X92.919 Y97.940 E0.05304
G1 X92.786 Y97.566 E0.01981
G1 F2880.000 E-2.40000
G1 X94.634 Y101.121 F15000.000
G1 E2.40000 F2880.000
G1 X95.021 Y101.920 E0.04429 F600.000
G1 X95.226 Y102.432 E0.02754
G1 X95.396 Y102.933 E0.02635
G1 F2880.000 E-2.40000
G1 X97.029 Y99.944 F15000.000
G1 E2.40000 F2880.000
G1 X97.074 Y100.115 E0.00884 F600.000
G1 X97.591 Y101.025 E0.05219
G1 X97.815 Y101.469 E0.02484
G1 X98.025 Y101.933 E0.02537
G1 X98.018 Y102.000 E0.00338
G1 X98.073 Y102.050 E0.00368
G1 X98.261 Y102.552 E0.02673
G1 F2880.000 E-2.40000
G1 X101.644 Y97.194 F15000.000
G1 E2.40000 F2880.000
G1 X101.840 Y97.736 E0.02879 F600.000
G1 X102.045 Y98.222 E0.02632
G1 X102.359 Y98.874 E0.03611
G1 X102.929 Y99.890 E0.05811
G1 X102.956 Y99.981 E0.00473
G1 F2880.000 E-2.40000
G1 X106.622 Y101.072 F15000.000
G1 E2.40000 F2880.000
G1 X106.309 Y100.552 E0.03028 F600.000
G1 X106.184 Y100.298 E0.01411
G1 X106.069 Y100.136 E0.00989
G1 X105.950 Y99.896 E0.01338
G1 X105.833 Y99.733 E0.00997
G1 X105.721 Y99.503 E0.01278
G1 X105.601 Y99.326 E0.01067
G1 X105.479 Y99.071 E0.01411
G1 X105.371 Y98.902 E0.00999
G1 X104.919 Y97.940 E0.05304
G1 X104.786 Y97.566 E0.01981
G1 F2880.000 E-2.40000
G1 X106.634 Y101.121 F15000.000
G1 E2.40000 F2880.000
G1 X107.021 Y101.920 E0.04429 F600.000
G1 X107.226 Y102.432 E0.02754
G1 X107.396 Y102.933 E0.02635
G1 F2880.000 E-2.40000
G1 X109.029 Y99.944 F15000.000
G1 E2.40000 F2880.000
G1 X109.074 Y100.115 E0.00884 F600.000
G1 X109.591 Y101.025 E0.05219
G1 X109.815 Y101.469 E0.02484
G1 X110.025 Y101.933 E0.02537
G1 X110.018 Y102.000 E0.00338
G1 X110.073 Y102.050 E0.00368
G1 X110.261 Y102.552 E0.02673
G1 F2880.000 E-2.40000
G1 X113.647 Y97.192 F15000.000
G1 E2.40000 F2880.000
G1 X113.837 Y97.730 E0.02845 F600.000
G1 X114.045 Y98.222 E0.02666
G1 X114.359 Y98.874 E0.03611
G1 X114.929 Y99.890 E0.05811
G1 X114.951 Y99.982 E0.00471
G1 F2880.000 E-2.40000
G1 X119.115 Y102.134 F15000.000
G1 E2.40000 F2880.000
G1 X118.877 Y101.599 E0.02923 F600.000
G1 X118.425 Y100.721 E0.04924
G1 X118.307 Y100.548 E0.01046
G1 X118.184 Y100.298 E0.01390
G1 X118.069 Y100.136 E0.00989
G1 X117.950 Y99.896 E0.01338
G1 X117.833 Y99.733 E0.00997
G1 X117.721 Y99.503 E0.01278
G1 X117.601 Y99.326 E0.01067
G1 X117.479 Y99.071 E0.01411
G1 X117.371 Y98.902 E0.00999
G1 X117.145 Y98.446 E0.02540
G1 X116.775 Y97.570 E0.04743
G1 F2880.000 E-2.40000
G1 Z1.600 F15000.000
G1 X85.000 Y100.034 F15000.000
G1 E2.40000 F2880.000
G1 X85.097 Y100.132 E0.00687 F600.000
G1 X85.230 Y100.386 E0.01431
G1 X85.369 Y100.573 E0.01167
G1 X85.470 Y100.780 E0.01146
G1 X85.599 Y100.961 E0.01109
G1 X85.713 Y101.205 E0.01346
G1 X85.825 Y101.374 E0.01012
G1 X86.055 Y101.846 E0.02618
G1 X86.290 Y102.397 E0.02989
G1 F2880.000 E-2.40000
G1 X92.546 Y97.128 F15000.000
G1 E2.40000 F2880.000
G1 X92.686 Y97.531 E0.02129 F600.000
G1 X92.910 Y98.074 E0.02928
G1 X93.133 Y98.545 E0.02600
G1 X93.253 Y98.736 E0.01128
G1 X93.360 Y98.968 E0.01272
G1 X93.499 Y99.171 E0.01228
G1 X93.589 Y99.361 E0.01051
G1 X93.730 Y99.552 E0.01181
G1 X93.822 Y99.738 E0.01038
G1 X93.967 Y99.930 E0.01200
G1 X94.057 Y100.111 E0.01011
G1 X94.201 Y100.302 E0.01191
G1 X94.297 Y100.496 E0.01082
G1 X94.697 Y101.135 E0.03757
G1 X95.046 Y101.837 E0.03914
G1 X95.252 Y102.315 E0.02596
G1 X95.563 Y103.228 E0.04811
G1 F2880.000 E-2.40000
G1 X97.000 Y100.034 F15000.000
G1 E2.40000 F2880.000
G1 X97.097 Y100.132 E0.00687 F600.000
G1 X97.230 Y100.386 E0.01431
G1 X97.369 Y100.573 E0.01167
G1 X97.470 Y100.780 E0.01146
G1 X97.599 Y100.961 E0.01109
G1 X97.713 Y101.205 E0.01346
G1 X97.825 Y101.374 E0.01012
G1 X98.055 Y101.846 E0.02618
G1 X98.290 Y102.397 E0.02989
G1 F2880.000 E-2.40000
G1 X104.546 Y97.128 F15000.000
G1 E2.40000 F2880.000
G1 X104.686 Y97.531 E0.02129 F600.000
G1 X104.910 Y98.074 E0.02928
G1 X105.133 Y98.545 E0.02600
G1 X105.253 Y98.736 E0.01128
G1 X105.360 Y98.968 E0.01272
G1 X105.499 Y99.171 E0.01228
G1 X105.589 Y99.361 E0.01051
G1 X105.730 Y99.552 E0.01181
G1 X105.822 Y99.738 E0.01038
G1 X105.967 Y99.930 E0.01200
G1 X106.057 Y100.111 E0.01011
G1 X106.201 Y100.302 E0.01191
G1 X106.297 Y100.496 E0.01082
G1 X106.697 Y101.135 E0.03757
G1 X107.046 Y101.837 E0.03914
G1 X107.252 Y102.315 E0.02596
G1 X107.563 Y103.228 E0.04811
G1 F2880.000 E-2.40000
G1 X109.000 Y100.034 F15000.000
G1 E2.40000 F2880.000
G1 X109.097 Y100.132 E0.00687 F600.000
G1 X109.230 Y100.386 E0.01431
G1 X109.369 Y100.573 E0.01167
G1 X109.470 Y100.780 E0.01146
G1 X109.599 Y100.961 E0.01109
G1 X109.713 Y101.205 E0.01346
G1 X109.825 Y101.374 E0.01012
G1 X110.055 Y101.846 E0.02618
G1 X110.270 Y102.407 E0.02997
G1 F2880.000 E-2.40000
G1 X116.546 Y97.128 F15000.000
G1 E2.40000 F2880.000
G1 X116.686 Y97.531 E0.02129 F600.000
G1 X116.910 Y98.074 E0.02928
G1 X117.133 Y98.545 E0.02600
G1 X117.253 Y98.736 E0.01128
G1 X117.360 Y98.968 E0.01272
G1 X117.499 Y99.171 E0.01228
G1 X117.589 Y99.361 E0.01051
G1 X117.730 Y99.552 E0.01181
G1 X117.822 Y99.738 E0.01038
G1 X117.967 Y99.930 E0.01200
G1 X118.057 Y100.111 E0.01011
G1 X118.201 Y100.302 E0.01191
G1 X118.296 Y100.492 E0.01060
G1 X118.433 Y100.678 E0.01155
G1 X118.537 Y100.893 E0.01191
G1 X118.662 Y101.072 E0.01086
G1 X118.781 Y101.330 E0.01421
G1 X118.896 Y101.512 E0.01072
G1 X119.115 Y101.981 E0.02584
G1 X119.350 Y102.555 E0.03095
G1 F2880.000 E-2.40000
G1 X113.408 Y96.672 F15000.000
G1 E2.40000 F2880.000
G1 X113.608 Y97.318 E0.03370 F600.000
G1 X113.913 Y98.077 E0.04081
G1 X114.280 Y98.812 E0.04100
G1 X114.925 Y99.894 E0.06283
G1 X114.978 Y100.076 E0.00945
G1 F2880.000 E-2.40000
G1 X101.408 Y96.672 F15000.000
G1 E2.40000 F2880.000
G1 X101.608 Y97.318 E0.03370 F600.000
G1 X101.913 Y98.077 E0.04081
G1 X102.280 Y98.812 E0.04100
G1 X102.925 Y99.894 E0.06283
G1 X102.978 Y100.076 E0.00945
G1 F2880.000 E-2.40000
G1 X89.408 Y96.672 F15000.000
G1 E2.40000 F2880.000
G1 X89.608 Y97.318 E0.03370 F600.000
G1 X89.913 Y98.077 E0.04081
G1 X90.280 Y98.812 E0.04100
G1 X90.925 Y99.894 E0.06283
G1 X90.978 Y100.076 E0.00945
G1 F2880.000 E-2.40000
G1 X80.555 Y97.125 F15000.000
G1 E2.40000 F2880.000
G1 X80.686 Y97.531 E0.02131 F600.000
G1 X80.910 Y98.074 E0.02928
G1 X81.133 Y98.545 E0.02600
G1 X81.253 Y98.736 E0.01128
G1 X81.360 Y98.968 E0.01272
G1 X81.499 Y99.171 E0.01228
G1 X81.589 Y99.361 E0.01051
G1 X81.730 Y99.552 E0.01181
G1 X81.822 Y99.738 E0.01038
G1 X81.967 Y99.930 E0.01200
G1 X82.057 Y100.111 E0.01011
G1 X82.201 Y100.302 E0.01191
G1 X82.297 Y100.496 E0.01082
G1 X82.697 Y101.135 E0.03757
G1 X83.046 Y101.837 E0.03914
G1 X83.252 Y102.315 E0.02596
G1 X83.564 Y103.228 E0.04812
G1 F2880.000 E-2.40000
G1 Z1.840 F15000.000
G1 X85.000 Y100.027 F15000.000
G1 E2.40000 F2880.000
G1 X85.119 Y100.151 E0.00857 F600.000
G1 X85.218 Y100.339 E0.01059
G1 X85.387 Y100.556 E0.01372
G1 X85.458 Y100.701 E0.00807
G1 X85.616 Y100.913 E0.01321
G1 X85.701 Y101.092 E0.00987
G1 X85.843 Y101.295 E0.01238
G1 X85.947 Y101.529 E0.01277
G1 X86.075 Y101.734 E0.01207
G1 X86.291 Y102.214 E0.02623
G1 X86.522 Y102.819 E0.03231
G1 F2880.000 E-2.40000
G1 X92.532 Y97.259 F15000.000
G1 E2.40000 F2880.000
G1 X92.676 Y97.707 E0.02348 F600.000
G1 X92.897 Y98.209 E0.02736
G1 X93.017 Y98.407 E0.01152
G1 X93.121 Y98.643 E0.01290
G1 X93.265 Y98.855 E0.01279
G1 X93.348 Y99.033 E0.00980
G1 X93.508 Y99.252 E0.01352
G1 X93.578 Y99.395 E0.00796
G1 X93.984 Y99.964 E0.03487
G1 X94.046 Y100.086 E0.00683
G1 X94.218 Y100.306 E0.01393
G1 X94.286 Y100.440 E0.00752
G1 X94.629 Y100.952 E0.03073
G1 X95.073 Y101.744 E0.04528
G1 X95.456 Y102.645 E0.04885
G1 X95.626 Y103.185 E0.02825
G1 F2880.000 E-2.40000
G1 X97.000 Y100.027 F15000.000
G1 E2.40000 F2880.000
G1 X97.119 Y100.151 E0.00857 F600.000
G1 X97.218 Y100.339 E0.01059
G1 X97.387 Y100.556 E0.01372
G1 X97.458 Y100.701 E0.00807
G1 X97.616 Y100.913 E0.01321
G1 X97.701 Y101.092 E0.00987
G1 X97.843 Y101.295 E0.01238
G1 X97.947 Y101.529 E0.01277
G1 X98.075 Y101.734 E0.01207
G1 X98.291 Y102.214 E0.02623
G1 X98.522 Y102.819 E0.03231
G1 F2880.000 E-2.40000
G1 X104.532 Y97.259 F15000.000
G1 E2.40000 F2880.000
G1 X104.676 Y97.707 E0.02348 F600.000
G1 X104.897 Y98.209 E0.02736
G1 X105.017 Y98.407 E0.01152
G1 X105.121 Y98.643 E0.01290
G1 X105.265 Y98.855 E0.01279
G1 X105.348 Y99.033 E0.00980
G1 X105.508 Y99.252 E0.01352
G1 X105.578 Y99.395 E0.00796
G1 X105.984 Y99.964 E0.03487
G1 X106.046 Y100.086 E0.00683
G1 X106.218 Y100.306 E0.01393
G1 X106.286 Y100.440 E0.00752
G1 X106.629 Y100.952 E0.03073
G1 X107.073 Y101.744 E0.04528
G1 X107.456 Y102.645 E0.04885
G1 X107.626 Y103.185 E0.02825
G1 F2880.000 E-2.40000
G1 X109.000 Y100.027 F15000.000
G1 E2.40000 F2880.000
G1 X109.119 Y100.151 E0.00857 F600.000
G1 X109.218 Y100.339 E0.01059
G1 X109.387 Y100.556 E0.01372
G1 X109.458 Y100.701 E0.00807
G1 X109.616 Y100.913 E0.01321
G1 X109.701 Y101.092 E0.00987
G1 X109.843 Y101.295 E0.01238
G1 X109.947 Y101.529 E0.01277
G1 X110.075 Y101.734 E0.01207
G1 X110.291 Y102.214 E0.02623
G1 X110.503 Y102.827 E0.03238
G1 F2880.000 E-2.40000
G1 X116.517 Y97.265 F15000.000
G1 E2.40000 F2880.000
G1 X116.676 Y97.707 E0.02347 F600.000
G1 X116.897 Y98.209 E0.02736
G1 X117.017 Y98.407 E0.01152
G1 X117.121 Y98.643 E0.01290
G1 X117.265 Y98.855 E0.01278
G1 X117.348 Y99.033 E0.00980
G1 X117.508 Y99.252 E0.01352
G1 X117.578 Y99.395 E0.00796
G1 X117.704 Y99.552 E0.01002
G1 X117.811 Y99.743 E0.01091
G1 X117.944 Y99.905 E0.01047
G1 X118.046 Y100.086 E0.01038
G1 X118.179 Y100.248 E0.01046
G1 X118.284 Y100.437 E0.01075
G1 X118.450 Y100.653 E0.01360
G1 X118.525 Y100.806 E0.00848
G1 X118.679 Y101.016 E0.01301
